(ALUMINUM-Button)
(T4  D=3.175 CR=0 - ZMIN=-5.3 - 平头立铣刀)
G90 G94
G17
G21

(2D Pocket22)
T4 M6
S12000 M3
G54
G0 X-2.527 Y15.235
Z15.3
Z5.3
G1 Z0.417 F200
G18 G2 X-2.209 Z0.1 I0.318 K0 F300
G1 X-1.287
X20.981
G17 G3 X20.981 Y16.506 I0 J0.636
G1 X9.847
X-1.287 Y15.87
G3 X-1.881 Y15.313 I0.036 J-0.635
G1 X-2.116 Y13.4
G3 X-1.485 Y12.688 I0.631 J-0.077
G1 X19.7
X21.173
G3 X21.342 Y15.678 Z0.072 I0 J1.5
G1 X-1.118 Y18.225 Z-0.07
G3 X-2.784 Y16.819 Z-0.085 I-0.169 J-1.49
X-1.287 Y15.235 Z-0.1 I1.498 J-0.085
G1 X20.981
G3 X20.981 Y16.506 I0 J0.636
G1 X9.847
X-1.287 Y15.87
G3 X-1.881 Y15.313 I0.036 J-0.635
G1 X-2.116 Y13.4
G3 X-1.485 Y12.688 I0.631 J-0.077
G1 X19.7
X21.173
G3 X21.342 Y15.678 Z-0.128 I0 J1.5
G1 X-1.118 Y18.225 Z-0.27
G3 X-2.784 Y16.819 Z-0.285 I-0.169 J-1.49
X-1.287 Y15.235 Z-0.3 I1.498 J-0.085
G1 X20.981
G3 X20.981 Y16.506 I0 J0.636
G1 X9.847
X-1.287 Y15.87
G3 X-1.881 Y15.313 I0.036 J-0.635
G1 X-2.116 Y13.4
G3 X-1.485 Y12.688 I0.631 J-0.077
G1 X19.7
X21.173
G3 X21.342 Y15.678 Z-0.328 I0 J1.5
G1 X-1.118 Y18.225 Z-0.47
G3 X-2.784 Y16.819 Z-0.485 I-0.169 J-1.49
X-1.287 Y15.235 Z-0.5 I1.498 J-0.085
G1 X20.981
G3 X20.981 Y16.506 I0 J0.636
G1 X9.847
X-1.287 Y15.87
G3 X-1.881 Y15.313 I0.036 J-0.635
G1 X-2.116 Y13.4
G3 X-1.485 Y12.688 I0.631 J-0.077
G1 X19.7
X21.173
G3 X21.342 Y15.678 Z-0.528 I0 J1.5
G1 X-1.118 Y18.225 Z-0.67
G3 X-2.784 Y16.819 Z-0.685 I-0.169 J-1.49
X-1.287 Y15.235 Z-0.7 I1.498 J-0.085
G1 X20.981
G3 X20.981 Y16.506 I0 J0.636
G1 X9.847
X-1.287 Y15.87
G3 X-1.881 Y15.313 I0.036 J-0.635
G1 X-2.116 Y13.4
G3 X-1.485 Y12.688 I0.631 J-0.077
G1 X19.7
X21.173
G3 X21.342 Y15.678 Z-0.728 I0 J1.5
G1 X-1.118 Y18.225 Z-0.87
G3 X-2.784 Y16.819 Z-0.885 I-0.169 J-1.49
X-1.287 Y15.235 Z-0.9 I1.498 J-0.085
G1 X20.981
G3 X20.981 Y16.506 I0 J0.636
G1 X9.847
X-1.287 Y15.87
G3 X-1.881 Y15.313 I0.036 J-0.635
G1 X-2.116 Y13.4
G3 X-1.485 Y12.688 I0.631 J-0.077
G1 X19.7
X21.173
G3 X21.342 Y15.678 Z-0.928 I0 J1.5
G1 X-1.118 Y18.225 Z-1.07
G3 X-2.784 Y16.819 Z-1.085 I-0.169 J-1.49
X-1.287 Y15.235 Z-1.1 I1.498 J-0.085
G1 X20.981
G3 X20.981 Y16.506 I0 J0.636
G1 X9.847
X-1.287 Y15.87
G3 X-1.881 Y15.313 I0.036 J-0.635
G1 X-2.116 Y13.4
G3 X-1.485 Y12.688 I0.631 J-0.077
G1 X19.7
X21.173
G3 X21.342 Y15.678 Z-1.128 I0 J1.5
G1 X-1.118 Y18.225 Z-1.27
G3 X-2.784 Y16.819 Z-1.285 I-0.169 J-1.49
X-1.287 Y15.235 Z-1.3 I1.498 J-0.085
G1 X20.981
G3 X20.981 Y16.506 I0 J0.636
G1 X9.847
X-1.287 Y15.87
G3 X-1.881 Y15.313 I0.036 J-0.635
G1 X-2.116 Y13.4
G3 X-1.485 Y12.688 I0.631 J-0.077
G1 X19.7
X21.173
G3 X21.342 Y15.678 Z-1.328 I0 J1.5
G1 X-1.118 Y18.225 Z-1.47
G3 X-2.784 Y16.819 Z-1.485 I-0.169 J-1.49
X-1.287 Y15.235 Z-1.5 I1.498 J-0.085
G1 X20.981
G3 X20.981 Y16.506 I0 J0.636
G1 X9.847
X-1.287 Y15.87
G3 X-1.881 Y15.313 I0.036 J-0.635
G1 X-2.116 Y13.4
G3 X-1.485 Y12.688 I0.631 J-0.077
G1 X19.7
X21.173
G3 X21.342 Y15.678 Z-1.528 I0 J1.5
G1 X-1.118 Y18.225 Z-1.67
G3 X-2.784 Y16.819 Z-1.685 I-0.169 J-1.49
X-1.287 Y15.235 Z-1.7 I1.498 J-0.085
G1 X20.981
G3 X20.981 Y16.506 I0 J0.636
G1 X9.847
X-1.287 Y15.87
G3 X-1.881 Y15.313 I0.036 J-0.635
G1 X-2.116 Y13.4
G3 X-1.485 Y12.688 I0.631 J-0.077
G1 X19.7
X21.173
G3 X21.342 Y15.678 Z-1.728 I0 J1.5
G1 X-1.118 Y18.225 Z-1.87
G3 X-2.784 Y16.819 Z-1.885 I-0.169 J-1.49
X-1.287 Y15.235 Z-1.9 I1.498 J-0.085
G1 X20.981
G3 X20.981 Y16.506 I0 J0.636
G1 X9.847
X-1.287 Y15.87
G3 X-1.881 Y15.313 I0.036 J-0.635
G1 X-2.116 Y13.4
G3 X-1.485 Y12.688 I0.631 J-0.077
G1 X19.7
X21.173
G3 X21.342 Y15.678 Z-1.928 I0 J1.5
G1 X-1.118 Y18.225 Z-2.07
G3 X-2.784 Y16.819 Z-2.085 I-0.169 J-1.49
X-1.287 Y15.235 Z-2.1 I1.498 J-0.085
G1 X20.981
G3 X20.981 Y16.506 I0 J0.636
G1 X9.847
X-1.287 Y15.87
G3 X-1.881 Y15.313 I0.036 J-0.635
G1 X-2.116 Y13.4
G3 X-1.485 Y12.688 I0.631 J-0.077
G1 X19.7
X21.173
G3 X21.342 Y15.678 Z-2.128 I0 J1.5
G1 X-1.118 Y18.225 Z-2.27
G3 X-2.784 Y16.819 Z-2.285 I-0.169 J-1.49
X-1.287 Y15.235 Z-2.3 I1.498 J-0.085
G1 X20.981
G3 X20.981 Y16.506 I0 J0.636
G1 X9.847
X-1.287 Y15.87
G3 X-1.881 Y15.313 I0.036 J-0.635
G1 X-2.116 Y13.4
G3 X-1.485 Y12.688 I0.631 J-0.077
G1 X19.7
X21.173
G3 X21.342 Y15.678 Z-2.328 I0 J1.5
G1 X-1.118 Y18.225 Z-2.47
G3 X-2.784 Y16.819 Z-2.485 I-0.169 J-1.49
X-1.287 Y15.235 Z-2.5 I1.498 J-0.085
G1 X20.981
G3 X20.981 Y16.506 I0 J0.636
G1 X9.847
X-1.287 Y15.87
G3 X-1.881 Y15.313 I0.036 J-0.635
G1 X-2.116 Y13.4
G3 X-1.485 Y12.688 I0.631 J-0.077
G1 X19.7
X21.173
G0 Z15.3
X22.251 Y-0.677
Z5.3
G1 Z0.417 F200
G18 G3 X21.933 Z0.1 I-0.318 K0 F300
G1 X20.992
X-1.293
G17 G3 X-1.293 Y-1.948 I0 J-0.636
G1 X9.85
X20.992 Y-1.313
G3 X21.587 Y-0.751 I-0.036 J0.635
G1 X21.809 Y1.156
G3 X21.178 Y1.865 I-0.631 J0.073
G1 X-1.471
G3 X-1.471 Y0.594 I0 J-0.636
G1 X9.853
X21.178 Y1.23
G3 X21.778 Y1.85 I-0.036 J0.635
G1 X21.821 Y3.763
G3 X21.185 Y4.412 I-0.635 J0.014
G1 X0
X-1.473
G3 X-2.973 Y2.882 Z0.085 I0 J-1.5
X-1.412 Y1.414 Z0.07 I1.5 J0.03
G1 X20.931 Y2.322 Z-0.07
G2 X22.492 Y0.853 Z-0.085 I0.061 J-1.499
X20.992 Y-0.677 Z-0.1 I-1.5 J-0.03
G1 X-1.293
G3 X-1.293 Y-1.948 I0 J-0.636
G1 X9.85
X20.992 Y-1.313
G3 X21.587 Y-0.751 I-0.036 J0.635
G1 X21.809 Y1.156
G3 X21.178 Y1.865 I-0.631 J0.073
G1 X-1.471
G3 X-1.471 Y0.594 I0 J-0.636
G1 X9.853
X21.178 Y1.23
G3 X21.778 Y1.85 I-0.036 J0.635
G1 X21.821 Y3.763
G3 X21.185 Y4.412 I-0.635 J0.014
G1 X0
X-1.473
G3 X-2.973 Y2.882 Z-0.115 I0 J-1.5
X-1.412 Y1.414 Z-0.13 I1.5 J0.03
G1 X20.931 Y2.322 Z-0.27
G2 X22.492 Y0.853 Z-0.285 I0.061 J-1.499
X20.992 Y-0.677 Z-0.3 I-1.5 J-0.03
G1 X-1.293
G3 X-1.293 Y-1.948 I0 J-0.636
G1 X9.85
X20.992 Y-1.313
G3 X21.587 Y-0.751 I-0.036 J0.635
G1 X21.809 Y1.156
G3 X21.178 Y1.865 I-0.631 J0.073
G1 X-1.471
G3 X-1.471 Y0.594 I0 J-0.636
G1 X9.853
X21.178 Y1.23
G3 X21.778 Y1.85 I-0.036 J0.635
G1 X21.821 Y3.763
G3 X21.185 Y4.412 I-0.635 J0.014
G1 X0
X-1.473
G3 X-2.973 Y2.882 Z-0.315 I0 J-1.5
X-1.412 Y1.414 Z-0.33 I1.5 J0.03
G1 X20.931 Y2.322 Z-0.47
G2 X22.492 Y0.853 Z-0.485 I0.061 J-1.499
X20.992 Y-0.677 Z-0.5 I-1.5 J-0.03
G1 X-1.293
G3 X-1.293 Y-1.948 I0 J-0.636
G1 X9.85
X20.992 Y-1.313
G3 X21.587 Y-0.751 I-0.036 J0.635
G1 X21.809 Y1.156
G3 X21.178 Y1.865 I-0.631 J0.073
G1 X-1.471
G3 X-1.471 Y0.594 I0 J-0.636
G1 X9.853
X21.178 Y1.23
G3 X21.778 Y1.85 I-0.036 J0.635
G1 X21.821 Y3.763
G3 X21.185 Y4.412 I-0.635 J0.014
G1 X0
X-1.473
G3 X-2.973 Y2.882 Z-0.515 I0 J-1.5
X-1.412 Y1.414 Z-0.53 I1.5 J0.03
G1 X20.931 Y2.322 Z-0.67
G2 X22.492 Y0.853 Z-0.685 I0.061 J-1.499
X20.992 Y-0.677 Z-0.7 I-1.5 J-0.03
G1 X-1.293
G3 X-1.293 Y-1.948 I0 J-0.636
G1 X9.85
X20.992 Y-1.313
G3 X21.587 Y-0.751 I-0.036 J0.635
G1 X21.809 Y1.156
G3 X21.178 Y1.865 I-0.631 J0.073
G1 X-1.471
G3 X-1.471 Y0.594 I0 J-0.636
G1 X9.853
X21.178 Y1.23
G3 X21.778 Y1.85 I-0.036 J0.635
G1 X21.821 Y3.763
G3 X21.185 Y4.412 I-0.635 J0.014
G1 X0
X-1.473
G3 X-2.973 Y2.882 Z-0.715 I0 J-1.5
X-1.412 Y1.414 Z-0.73 I1.5 J0.03
G1 X20.931 Y2.322 Z-0.87
G2 X22.492 Y0.853 Z-0.885 I0.061 J-1.499
X20.992 Y-0.677 Z-0.9 I-1.5 J-0.03
G1 X-1.293
G3 X-1.293 Y-1.948 I0 J-0.636
G1 X9.85
X20.992 Y-1.313
G3 X21.587 Y-0.751 I-0.036 J0.635
G1 X21.809 Y1.156
G3 X21.178 Y1.865 I-0.631 J0.073
G1 X-1.471
G3 X-1.471 Y0.594 I0 J-0.636
G1 X9.853
X21.178 Y1.23
G3 X21.778 Y1.85 I-0.036 J0.635
G1 X21.821 Y3.763
G3 X21.185 Y4.412 I-0.635 J0.014
G1 X0
X-1.473
G3 X-2.973 Y2.882 Z-0.915 I0 J-1.5
X-1.412 Y1.414 Z-0.93 I1.5 J0.03
G1 X20.931 Y2.322 Z-1.07
G2 X22.492 Y0.853 Z-1.085 I0.061 J-1.499
X20.992 Y-0.677 Z-1.1 I-1.5 J-0.03
G1 X-1.293
G3 X-1.293 Y-1.948 I0 J-0.636
G1 X9.85
X20.992 Y-1.313
G3 X21.587 Y-0.751 I-0.036 J0.635
G1 X21.809 Y1.156
G3 X21.178 Y1.865 I-0.631 J0.073
G1 X-1.471
G3 X-1.471 Y0.594 I0 J-0.636
G1 X9.853
X21.178 Y1.23
G3 X21.778 Y1.85 I-0.036 J0.635
G1 X21.821 Y3.763
G3 X21.185 Y4.412 I-0.635 J0.014
G1 X0
X-1.473
G3 X-2.973 Y2.882 Z-1.115 I0 J-1.5
X-1.412 Y1.414 Z-1.13 I1.5 J0.03
G1 X20.931 Y2.322 Z-1.27
G2 X22.492 Y0.853 Z-1.285 I0.061 J-1.499
X20.992 Y-0.677 Z-1.3 I-1.5 J-0.03
G1 X-1.293
G3 X-1.293 Y-1.948 I0 J-0.636
G1 X9.85
X20.992 Y-1.313
G3 X21.587 Y-0.751 I-0.036 J0.635
G1 X21.809 Y1.156
G3 X21.178 Y1.865 I-0.631 J0.073
G1 X-1.471
G3 X-1.471 Y0.594 I0 J-0.636
G1 X9.853
X21.178 Y1.23
G3 X21.778 Y1.85 I-0.036 J0.635
G1 X21.821 Y3.763
G3 X21.185 Y4.412 I-0.635 J0.014
G1 X0
X-1.473
G3 X-2.973 Y2.882 Z-1.315 I0 J-1.5
X-1.412 Y1.414 Z-1.33 I1.5 J0.03
G1 X20.931 Y2.322 Z-1.47
G2 X22.492 Y0.853 Z-1.485 I0.061 J-1.499
X20.992 Y-0.677 Z-1.5 I-1.5 J-0.03
G1 X-1.293
G3 X-1.293 Y-1.948 I0 J-0.636
G1 X9.85
X20.992 Y-1.313
G3 X21.587 Y-0.751 I-0.036 J0.635
G1 X21.809 Y1.156
G3 X21.178 Y1.865 I-0.631 J0.073
G1 X-1.471
G3 X-1.471 Y0.594 I0 J-0.636
G1 X9.853
X21.178 Y1.23
G3 X21.778 Y1.85 I-0.036 J0.635
G1 X21.821 Y3.763
G3 X21.185 Y4.412 I-0.635 J0.014
G1 X0
X-1.473
G3 X-2.973 Y2.882 Z-1.515 I0 J-1.5
X-1.412 Y1.414 Z-1.53 I1.5 J0.03
G1 X20.931 Y2.322 Z-1.67
G2 X22.492 Y0.853 Z-1.685 I0.061 J-1.499
X20.992 Y-0.677 Z-1.7 I-1.5 J-0.03
G1 X-1.293
G3 X-1.293 Y-1.948 I0 J-0.636
G1 X9.85
X20.992 Y-1.313
G3 X21.587 Y-0.751 I-0.036 J0.635
G1 X21.809 Y1.156
G3 X21.178 Y1.865 I-0.631 J0.073
G1 X-1.471
G3 X-1.471 Y0.594 I0 J-0.636
G1 X9.853
X21.178 Y1.23
G3 X21.778 Y1.85 I-0.036 J0.635
G1 X21.821 Y3.763
G3 X21.185 Y4.412 I-0.635 J0.014
G1 X0
X-1.473
G3 X-2.973 Y2.882 Z-1.715 I0 J-1.5
X-1.412 Y1.414 Z-1.73 I1.5 J0.03
G1 X20.931 Y2.322 Z-1.87
G2 X22.492 Y0.853 Z-1.885 I0.061 J-1.499
X20.992 Y-0.677 Z-1.9 I-1.5 J-0.03
G1 X-1.293
G3 X-1.293 Y-1.948 I0 J-0.636
G1 X9.85
X20.992 Y-1.313
G3 X21.587 Y-0.751 I-0.036 J0.635
G1 X21.809 Y1.156
G3 X21.178 Y1.865 I-0.631 J0.073
G1 X-1.471
G3 X-1.471 Y0.594 I0 J-0.636
G1 X9.853
X21.178 Y1.23
G3 X21.778 Y1.85 I-0.036 J0.635
G1 X21.821 Y3.763
G3 X21.185 Y4.412 I-0.635 J0.014
G1 X0
X-1.473
G3 X-2.973 Y2.882 Z-1.915 I0 J-1.5
X-1.412 Y1.414 Z-1.93 I1.5 J0.03
G1 X20.931 Y2.322 Z-2.07
G2 X22.492 Y0.853 Z-2.085 I0.061 J-1.499
X20.992 Y-0.677 Z-2.1 I-1.5 J-0.03
G1 X-1.293
G3 X-1.293 Y-1.948 I0 J-0.636
G1 X9.85
X20.992 Y-1.313
G3 X21.587 Y-0.751 I-0.036 J0.635
G1 X21.809 Y1.156
G3 X21.178 Y1.865 I-0.631 J0.073
G1 X-1.471
G3 X-1.471 Y0.594 I0 J-0.636
G1 X9.853
X21.178 Y1.23
G3 X21.778 Y1.85 I-0.036 J0.635
G1 X21.821 Y3.763
G3 X21.185 Y4.412 I-0.635 J0.014
G1 X0
X-1.473
G3 X-2.973 Y2.882 Z-2.115 I0 J-1.5
X-1.412 Y1.414 Z-2.13 I1.5 J0.03
G1 X20.931 Y2.322 Z-2.27
G2 X22.492 Y0.853 Z-2.285 I0.061 J-1.499
X20.992 Y-0.677 Z-2.3 I-1.5 J-0.03
G1 X-1.293
G3 X-1.293 Y-1.948 I0 J-0.636
G1 X9.85
X20.992 Y-1.313
G3 X21.587 Y-0.751 I-0.036 J0.635
G1 X21.809 Y1.156
G3 X21.178 Y1.865 I-0.631 J0.073
G1 X-1.471
G3 X-1.471 Y0.594 I0 J-0.636
G1 X9.853
X21.178 Y1.23
G3 X21.778 Y1.85 I-0.036 J0.635
G1 X21.821 Y3.763
G3 X21.185 Y4.412 I-0.635 J0.014
G1 X0
X-1.473
G3 X-2.973 Y2.882 Z-2.315 I0 J-1.5
X-1.412 Y1.414 Z-2.33 I1.5 J0.03
G1 X20.931 Y2.322 Z-2.47
G2 X22.492 Y0.853 Z-2.485 I0.061 J-1.499
X20.992 Y-0.677 Z-2.5 I-1.5 J-0.03
G1 X-1.293
G3 X-1.293 Y-1.948 I0 J-0.636
G1 X9.85
X20.992 Y-1.313
G3 X21.587 Y-0.751 I-0.036 J0.635
G1 X21.809 Y1.156
G3 X21.178 Y1.865 I-0.631 J0.073
G1 X-1.471
G3 X-1.471 Y0.594 I0 J-0.636
G1 X9.853
X21.178 Y1.23
G3 X21.778 Y1.85 I-0.036 J0.635
G1 X21.821 Y3.763
G3 X21.185 Y4.412 I-0.635 J0.014
G1 X0
X-1.473
G0 Z15.3

(2D Contour21)
X10.589 Y17.04
Z15
Z5
G1 Z2.818 F200
G19 G2 Y16.722 Z2.5 J-0.318 K0 F300
G1 Y16.405
G17 G3 X10.907 Y16.087 I0.318 J0
G1 X19.7 Z2.193
G2 X21.288 Y14.5 Z2.106 I0 J-1.587
G1 Y0 Z1.599
G2 X19.7 Y-1.587 Z1.512 I-1.587 J0
G1 X0 Z0.824
G2 X-1.587 Y0 Z0.737 I0 J1.587
G1 Y14.5 Z0.231
G2 X0 Y16.087 Z0.144 I1.587 J0
G1 X9.85 Z-0.2
X19.7
G2 X21.288 Y14.5 I0 J-1.587
G1 Y0
G2 X19.7 Y-1.587 I-1.587 J0
G1 X0
G2 X-1.587 Y0 I0 J1.587
G1 Y14.5
G2 X0 Y16.087 I1.587 J0
G1 X9.85
X15.577 Z-0.4
X19.7
G2 X21.288 Y14.5 I0 J-1.587
G1 Y0
G2 X19.7 Y-1.587 I-1.587 J0
G1 X0
G2 X-1.587 Y0 I0 J1.587
G1 Y14.5
G2 X0 Y16.087 I1.587 J0
G1 X9.85
X15.577
X19.7 Z-0.544
G2 X21.045 Y15.343 Z-0.6 I0 J-1.587
X21.288 Y14.5 I-1.345 J-0.843
G1 Y0
G2 X19.7 Y-1.587 I-1.587 J0
G1 X0
G2 X-1.587 Y0 I0 J1.587
G1 Y14.5
G2 X0 Y16.087 I1.587 J0
G1 X15.577
X19.7
G2 X21.045 Y15.343 I0 J-1.587
X21.288 Y14.5 Z-0.631 I-1.345 J-0.843
G1 Y9.662 Z-0.8
Y0
G2 X19.7 Y-1.587 I-1.587 J0
G1 X0
G2 X-1.587 Y0 I0 J1.587
G1 Y14.5
G2 X0 Y16.087 I1.587 J0
G1 X19.7
G2 X21.288 Y14.5 I0 J-1.587
G1 Y9.662
Y3.935 Z-1
Y0
G2 X19.7 Y-1.587 I-1.587 J0
G1 X0
G2 X-1.587 Y0 I0 J1.587
G1 Y14.5
G2 X0 Y16.087 I1.587 J0
G1 X19.7
G2 X21.288 Y14.5 I0 J-1.587
G1 Y3.935
Y0 Z-1.137
G2 X20.378 Y-1.435 Z-1.2 I-1.587 J0
X19.7 Y-1.587 I-0.678 J1.435
G1 X0
G2 X-1.587 Y0 I0 J1.587
G1 Y14.5
G2 X0 Y16.087 I1.587 J0
G1 X19.7
G2 X21.288 Y14.5 I0 J-1.587
G1 Y3.935
Y0
G2 X20.378 Y-1.435 I-1.587 J0
X19.7 Y-1.587 Z-1.224 I-0.678 J1.435
G1 X14.674 Z-1.4
X0
G2 X-1.587 Y0 I0 J1.587
G1 Y14.5
G2 X0 Y16.087 I1.587 J0
G1 X19.7
G2 X21.288 Y14.5 I0 J-1.587
G1 Y0
G2 X19.7 Y-1.587 I-1.587 J0
G1 X14.674
X8.947 Z-1.6
X0
G2 X-1.587 Y0 I0 J1.587
G1 Y14.5
G2 X0 Y16.087 I1.587 J0
G1 X19.7
G2 X21.288 Y14.5 I0 J-1.587
G1 Y0
G2 X19.7 Y-1.587 I-1.587 J0
G1 X8.947
X3.219 Z-1.8
X0
G2 X-1.587 Y0 I0 J1.587
G1 Y14.5
G2 X0 Y16.087 I1.587 J0
G1 X19.7
G2 X21.288 Y14.5 I0 J-1.587
G1 Y0
G2 X19.7 Y-1.587 I-1.587 J0
G1 X8.947
X3.219
X0 Z-1.912
G2 X-1.587 Y0 Z-1.999 I0 J1.587
G1 Y0.014 Z-2
Y14.5
G2 X0 Y16.087 I1.587 J0
G1 X19.7
G2 X21.288 Y14.5 I0 J-1.587
G1 Y0
G2 X19.7 Y-1.587 I-1.587 J0
G1 X3.219
X0
G2 X-1.587 Y0 I0 J1.587
G1 Y0.014
Y5.742 Z-2.2
Y14.5
G2 X0 Y16.087 I1.587 J0
G1 X19.7
G2 X21.288 Y14.5 I0 J-1.587
G1 Y0
G2 X19.7 Y-1.587 I-1.587 J0
G1 X0
G2 X-1.587 Y0 I0 J1.587
G1 Y5.742
Y11.469 Z-2.4
Y14.5
G2 X0 Y16.087 I1.587 J0
G1 X19.7
G2 X21.288 Y14.5 I0 J-1.587
G1 Y0
G2 X19.7 Y-1.587 I-1.587 J0
G1 X0
G2 X-1.587 Y0 I0 J1.587
G1 Y5.742
Y11.469
Y14.5 Z-2.506
G2 X0 Y16.087 Z-2.593 I1.587 J0
G1 X0.202 Z-2.6
X19.7
G2 X21.288 Y14.5 I0 J-1.587
G1 Y0
G2 X19.7 Y-1.587 I-1.587 J0
G1 X0
G2 X-1.587 Y0 I0 J1.587
G1 Y11.469
Y14.5
G2 X0 Y16.087 I1.587 J0
G1 X0.202
X5.93 Z-2.8
X19.7
G2 X21.288 Y14.5 I0 J-1.587
G1 Y0
G2 X19.7 Y-1.587 I-1.587 J0
G1 X0
G2 X-1.587 Y0 I0 J1.587
G1 Y14.5
G2 X0 Y16.087 I1.587 J0
G1 X5.93
X11.657 Z-3
X19.7
G2 X21.288 Y14.5 I0 J-1.587
G1 Y0
G2 X19.7 Y-1.587 I-1.587 J0
G1 X0
G2 X-1.587 Y0 I0 J1.587
G1 Y14.5
G2 X0 Y16.087 I1.587 J0
G1 X5.93
X11.657
X17.384 Z-3.2
X19.7
G2 X21.288 Y14.5 I0 J-1.587
G1 Y0
G2 X19.7 Y-1.587 I-1.587 J0
G1 X0
G2 X-1.587 Y0 I0 J1.587
G1 Y14.5
G2 X0 Y16.087 I1.587 J0
G1 X11.657
X17.384
X19.7 Z-3.281
G2 X21.288 Y14.5 Z-3.368 I0 J-1.587
G1 Y13.582 Z-3.4
Y0
G2 X19.7 Y-1.587 I-1.587 J0
G1 X0
G2 X-1.587 Y0 I0 J1.587
G1 Y14.5
G2 X0 Y16.087 I1.587 J0
G1 X17.384
X19.7
G2 X21.288 Y14.5 I0 J-1.587
G1 Y13.582
Y7.855 Z-3.6
Y0
G2 X19.7 Y-1.587 I-1.587 J0
G1 X0
G2 X-1.587 Y0 I0 J1.587
G1 Y14.5
G2 X0 Y16.087 I1.587 J0
G1 X19.7
G2 X21.288 Y14.5 I0 J-1.587
G1 Y7.855
Y2.128 Z-3.8
Y0
G2 X19.7 Y-1.587 I-1.587 J0
G1 X0
G2 X-1.587 Y0 I0 J1.587
G1 Y14.5
G2 X0 Y16.087 I1.587 J0
G1 X19.7
G2 X21.288 Y14.5 I0 J-1.587
G1 Y7.855
Y2.128
Y0 Z-3.874
G2 X19.7 Y-1.587 Z-3.961 I-1.587 J0
G1 X18.594 Z-4
X0
G2 X-1.587 Y0 I0 J1.587
G1 Y14.5
G2 X0 Y16.087 I1.587 J0
G1 X19.7
G2 X21.288 Y14.5 I0 J-1.587
G1 Y2.128
Y0
G2 X19.7 Y-1.587 I-1.587 J0
G1 X18.594
X12.867 Z-4.2
X0
G2 X-1.587 Y0 I0 J1.587
G1 Y14.5
G2 X0 Y16.087 I1.587 J0
G1 X19.7
G2 X21.288 Y14.5 I0 J-1.587
G1 Y0
G2 X19.7 Y-1.587 I-1.587 J0
G1 X12.867
X7.14 Z-4.4
X0
G2 X-1.587 Y0 I0 J1.587
G1 Y14.5
G2 X0 Y16.087 I1.587 J0
G1 X7.462
X7.762 Z-4.3
X10.937
X11.237 Z-4.4 F200
X19.7 F300
G2 X21.288 Y14.5 I0 J-1.587
G1 Y0
G2 X19.7 Y-1.587 I-1.587 J0
G1 X12.064
X11.764 Z-4.3
X8.589
X8.289 Z-4.4 F200
X7.14 F300
X1.412 Z-4.6
X0
G2 X-1.587 Y0 I0 J1.587
G1 Y14.5
G2 X0 Y16.087 I1.587 J0
G1 X6.862
X7.762 Z-4.3
X10.937
X11.837 Z-4.6 F200
X19.7 F300
G2 X21.288 Y14.5 I0 J-1.587
G1 Y0
G2 X19.7 Y-1.587 I-1.587 J0
G1 X12.664
X11.764 Z-4.3
X8.589
X7.689 Z-4.6 F200
X1.412 F300
X0 Z-4.649
G2 X-1.587 Y0 Z-4.736 I0 J1.587
G1 Y1.821 Z-4.8
Y14.5
G2 X0 Y16.087 I1.587 J0
G1 X6.262
X7.762 Z-4.3
X10.937
X12.437 Z-4.8 F200
X19.7 F300
G2 X21.288 Y14.5 I0 J-1.587
G1 Y0
G2 X19.7 Y-1.587 I-1.587 J0
G1 X13.264
X11.764 Z-4.3
X8.589
X7.089 Z-4.8 F200
X0 F300
G2 X-1.587 Y0 I0 J1.587
G1 Y1.821
Y7.549 Z-5
Y14.5
G2 X0 Y16.087 I1.587 J0
G1 X5.662
X7.762 Z-4.3
X10.937
X13.037 Z-5 F200
X19.7 F300
G2 X21.288 Y14.5 I0 J-1.587
G1 Y0
G2 X19.7 Y-1.587 I-1.587 J0
G1 X13.864
X11.764 Z-4.3
X8.589
X6.489 Z-5 F200
X0 F300
G2 X-1.587 Y0 I0 J1.587
G1 Y7.549
Y13.276 Z-5.2
Y14.5
G2 X0 Y16.087 I1.587 J0
G1 X5.062
X7.762 Z-4.3
X10.937
X13.637 Z-5.2 F200
X19.7 F300
G2 X21.288 Y14.5 I0 J-1.587
G1 Y0
G2 X19.7 Y-1.587 I-1.587 J0
G1 X14.464
X11.764 Z-4.3
X8.589
X5.889 Z-5.2 F200
X0 F300
G2 X-1.587 Y0 I0 J1.587
G1 Y13.276
Y14.5 Z-5.243
G2 X-0.814 Y15.863 Z-5.3 I1.587 J0
X0 Y16.087 I0.814 J-1.363
G1 X4.762
X7.762 Z-4.3
X10.937
X13.937 Z-5.3 F200
X19.7 F300
G2 X21.288 Y14.5 I0 J-1.587
G1 Y0
G2 X19.7 Y-1.587 I-1.587 J0
G1 X14.764
X11.764 Z-4.3
X8.589
X5.589 Z-5.3 F200
X0 F300
G2 X-1.587 Y0 I0 J1.587
G1 Y14.5
G2 X-0.814 Y15.863 I1.587 J0
G0 Z15
M5
M30
