; LightBurn 0.9.24
; Smoothieware device profile, absolute coords
; Bounds: X-0.04 Y0.15 to X85.66 Y99.95

;USER START SCRIPT
M321
G0Z0
;USER START SCRIPT

G00 G17 G40 G21 G54
G90
M3
; Image @ 2000 mm/min, 80% power
M106
G0X25.16Y0.15
; Layer C00
G91
G1X0.1F2000S0.8
G1X0.2S0
G1X0.1S0.8
G1X0.2S0
G1X0.1S0.8
G1X0.1S0
G1X0.1S0.8
G1X0.2S0
G1X0.1S0.8
G1X0.2S0
G1X0.1S0.8
G1X0.2S0
G1X0.1S0.8
G1X0.3S0
G1X0.1S0.8
G1X57.3Y0.1S0
G1X-0.1S0.8
G1X-0.2S0
G1X-0.1S0.8
G1X-13.8S0
G1X-0.1S0.8
G1X-0.2S0
G1X-0.1S0.8
G1X-0.2S0
G1X-0.1S0.8
G1X-4.2S0
G1X-0.1S0.8
G1X-0.3S0
G1X-0.1S0.8
G1X-0.3S0
G1X-0.1S0.8
G1X-0.3S0
G1X-0.1S0.8
G1X-0.2S0
G1X-0.1S0.8
G1X-0.2S0
G1X-0.1S0.8
G1X-0.3S0
G1X-0.1S0.8
G1X-0.3S0
G1X-0.1S0.8
G1X-31.5S0
G1X-0.1S0.8
G1X-0.4S0
G1X-0.1S0.8
G1X-0.3S0
G1X-0.1S0.8
G1X-0.3S0
G1X-0.1S0.8
G1X-0.2S0
G1X-0.1S0.8
G1X-0.2S0
G1X-0.1S0.8
G1X-0.2S0
G1X-0.1S0.8
G1X-0.2S0
G1X-0.1S0.8
G1X-0.2S0
G1X-0.1S0.8
G1X-0.2S0
G1X-0.1S0.8
G1X-0.1S0
G1X-0.1S0.8
G1X-0.1S0
G1X-0.1S0.8
G1X-0.1S0
G1X-0.1S0.8
G1X-0.1S0
G1X-0.1S0.8
G1X-0.2S0
G1X-0.1S0.8
G1X-0.2S0
G1X-0.1S0.8
G1X-0.3S0
G1X-0.1S0.8
G1X-0.2S0
G1X-0.1S0.8
G1X-0.2S0
G1X-0.1S0.8
G1X-0.2S0
G1X-0.1S0.8
G1X-0.2S0
G1X-0.1S0.8
G1X-0.2S0
G1X-0.1S0.8
G1X-0.1S0
G1X-0.1S0.8
G1X-0.1S0
G1X-0.1S0.8
G1X-0.1S0
G1X-0.1S0.8
G1X-0.1S0
G1X-0.1S0.8
G1X-0.2S0
G1X-0.1S0.8
G1X-0.2S0
G1X-0.1S0.8
G1X-0.2S0
G1X-0.1S0.8
G1X-0.2S0
G1X-0.1S0.8
G1X-0.2S0
G1X-0.1S0.8
G1X-0.2S0
G1X-0.1S0.8
G1X-0.2S0
G1X-0.1S0.8
G1X-0.2S0
G1X-0.1S0.8
G1X-0.2S0
G1X-0.1S0.8
G1X-0.2S0
G1X-0.1S0.8
G1X-0.2S0
G1X-0.1S0.8
G1X-0.2S0
G1X-0.1S0.8
G1X-0.2S0
G1X-0.1S0.8
G1X-0.2S0
G1X-0.1S0.8
G1X-0.2S0
G1X-0.1S0.8
G1X-0.2S0
G1X-0.1S0.8
G1X-0.2S0
G1X-0.1S0.8
G1X-0.2S0
G1X-0.1S0.8
G1X-0.3S0
G1X-0.1S0.8
G1X-0.3S0
G1X-0.1S0.8
G1X-0.3S0
G1X-0.1S0.8
G1X-1.5Y0.1S0
G1X0.1S0.8
G1X0.2S0
G1X0.1S0.8
G1X0.2S0
G1X0.1S0.8
G1X0.2S0
G1X0.1S0.8
G1X0.2S0
G1X0.1S0.8
G1X5.6S0
G1X0.1S0.8
G1X0.5S0
G1X0.1S0.8
G1X0.4S0
G1X0.1S0.8
G1X0.8S0
G1X0.1S0.8
G1X0.6S0
G1X0.1S0.8
G1X0.4S0
G1X0.1S0.8
G1X0.3S0
G1X0.1S0.8
G1X0.5S0
G1X0.1S0.8
G1X1.3S0
G1X0.1S0.8
G1X2.4S0
G1X0.1S0.8
G1X0.4S0
G1X0.1S0.8
G1X0.2S0
G1X0.1S0.8
G1X0.2S0
G1X0.1S0.8
G1X0.2S0
G1X0.1S0.8
G1X0.2S0
G1X0.1S0.8
G1X0.2S0
G1X0.1S0.8
G1X0.2S0
G1X0.1S0.8
G1X0.2S0
G1X0.1S0.8
G1X0.2S0
G1X0.1S0.8
G1X0.2S0
G1X0.1S0.8
G1X0.2S0
G1X0.1S0.8
G1X0.2S0
G1X0.1S0.8
G1X0.2S0
G1X0.1S0.8
G1X0.3S0
G1X0.1S0.8
G1X0.3S0
G1X0.1S0.8
G1X0.4S0
G1X0.1S0.8
G1X0.6S0
G1X0.1S0.8
G1X2.8S0
G1X0.1S0.8
G1X0.5S0
G1X0.1S0.8
G1X0.6S0
G1X0.1S0.8
G1X1.4S0
G1X0.1S0.8
G1X0.3S0
G1X0.1S0.8
G1X0.3S0
G1X0.1S0.8
G1X0.3S0
G1X0.1S0.8
G1X0.3S0
G1X0.1S0.8
G1X0.2S0
G1X0.1S0.8
G1X0.2S0
G1X0.1S0.8
G1X0.2S0
G1X0.1S0.8
G1X0.4S0
G1X0.1S0.8
G1X0.6S0
G1X0.1S0.8
G1X0.4S0
G1X0.1S0.8
G1X0.2S0
G1X0.1S0.8
G1X0.2S0
G1X0.1S0.8
G1X0.2S0
G1X0.1S0.8
G1X0.2S0
G1X0.1S0.8
G1X0.2S0
G1X0.1S0.8
G1X0.2S0
G1X0.1S0.8
G1X0.2S0
G1X0.1S0.8
G1X0.2S0
G1X0.1S0.8
G1X0.2S0
G1X0.1S0.8
G1X0.2S0
G1X0.1S0.8
G1X0.2S0
G1X0.1S0.8
G1X0.2S0
G1X0.1S0.8
G1X0.2S0
G1X0.1S0.8
G1X0.2S0
G1X0.1S0.8
G1X0.2S0
G1X0.1S0.8
G1X0.2S0
G1X0.1S0.8
G1X0.2S0
G1X0.1S0.8
G1X0.3S0
G1X0.1S0.8
G1X0.3S0
G1X0.1S0.8
G1X0.3S0
G1X0.1S0.8
G1X0.3S0
G1X0.1S0.8
G1X0.3S0
G1X0.1S0.8
G1X0.2S0
G1X0.1S0.8
G1X0.2S0
G1X0.1S0.8
G1X0.2S0
G1X0.1S0.8
G1X0.2S0
G1X0.1S0.8
G1X0.2S0
G1X0.1S0.8
G1X0.2S0
G1X0.1S0.8
G1X0.2S0
G1X0.1S0.8
G1X0.2S0
G1X0.1S0.8
G1X0.2S0
G1X0.1S0.8
G1X0.2S0
G1X0.1S0.8
G1X0.2S0
G1X0.1S0.8
G1X0.2S0
G1X0.1S0.8
G1X0.2S0
G1X0.1S0.8
G1X0.2S0
G1X0.1S0.8
G1X0.2S0
G1X0.1S0.8
G1X0.2S0
G1X0.1S0.8
G1X0.2S0
G1X0.1S0.8
G1X0.2S0
G1X0.1S0.8
G1X0.2S0
G1X0.1S0.8
G1X0.2S0
G1X0.1S0.8
G1X0.2S0
G1X0.1S0.8
G1X0.2S0
G1X0.1S0.8
G1X0.2S0
G1X0.1S0.8
G1X0.2S0
G1X0.1S0.8
G1X0.2S0
G1X0.1S0.8
G1X0.2S0
G1X0.1S0.8
G1X0.2S0
G1X0.1S0.8
G1X0.2S0
G1X0.1S0.8
G1X3.1S0
G1X0.1S0.8
G1X0.2S0
G1X0.1S0.8
G1X0.2S0
G1X0.1S0.8
G1X0.2S0
G1X0.1S0.8
G1X0.4S0
G1X0.1S0.8
G1X1.1S0
G1X0.1S0.8
G1X0.3S0
G1X0.1S0.8
G1X0.2S0
G1X0.1S0.8
G1X0.2S0
G1X0.1S0.8
G1X0.2S0
G1X0.1S0.8
G1X0.9S0
G1X0.1S0.8
G1X0.2S0
G1X0.1S0.8
G1X0.2S0
G1X0.1S0.8
G1X0.4S0
G1X0.1S0.8
G1X1.8S0
G1X0.1S0.8
G1X0.4S0
G1X0.1S0.8
G1X10.9Y0.1S0
G1X-0.1S0.8
G1X-0.2S0
G1X-0.1S0.8
G1X-0.2S0
G1X-0.1S0.8
G1X-0.2S0
G1X-0.1S0.8
G1X-6.2S0
G1X-0.1S0.8
G1X-0.3S0
G1X-0.1S0.8
G1X-0.2S0
G1X-0.1S0.8
G1X-0.2S0
G1X-0.1S0.8
G1X-0.2S0
G1X-0.1S0.8
G1X-0.2S0
G1X-0.1S0.8
G1X-0.2S0
G1X-0.1S0.8
G1X-0.2S0
G1X-0.1S0.8
G1X-0.2S0
G1X-0.1S0.8
G1X-0.2S0
G1X-0.1S0.8
G1X-0.2S0
G1X-0.1S0.8
G1X-0.2S0
G1X-0.1S0.8
G1X-0.4S0
G1X-0.1S0.8
G1X-0.6S0
G1X-0.1S0.8
G1X-0.2S0
G1X-0.1S0.8
G1X-0.2S0
G1X-0.1S0.8
G1X-0.2S0
G1X-0.1S0.8
G1X-0.2S0
G1X-0.1S0.8
G1X-0.4S0
G1X-0.1S0.8
G1X-1.1S0
G1X-0.1S0.8
G1X-0.2S0
G1X-0.1S0.8
G1X-1.9S0
G1X-0.1S0.8
G1X-0.2S0
G1X-0.1S0.8
G1X-0.2S0
G1X-0.1S0.8
G1X-0.4S0
G1X-0.1S0.8
G1X-1.4S0
G1X-0.1S0.8
G1X-0.2S0
G1X-0.1S0.8
G1X-0.2S0
G1X-0.1S0.8
G1X-0.2S0
G1X-0.1S0.8
G1X-0.2S0
G1X-0.1S0.8
G1X-0.3S0
G1X-0.1S0.8
G1X-0.2S0
G1X-0.1S0.8
G1X-0.2S0
G1X-0.1S0.8
G1X-0.2S0
G1X-0.1S0.8
G1X-0.2S0
G1X-0.1S0.8
G1X-15.7S0
G1X-0.1S0.8
G1X-0.6S0
G1X-0.1S0.8
G1X-0.4S0
G1X-0.1S0.8
G1X-3S0
G1X-0.1S0.8
G1X-0.2S0
G1X-0.1S0.8
G1X-0.2S0
G1X-0.1S0.8
G1X-0.2S0
G1X-0.1S0.8
G1X-0.6S0
G1X-0.1S0.8
G1X-0.5S0
G1X-0.1S0.8
G1X-0.7S0
G1X-0.1S0.8
G1X-0.2S0
G1X-0.1S0.8
G1X-0.2S0
G1X-0.1S0.8
G1X-0.2S0
G1X-0.1S0.8
G1X-0.2S0
G1X-0.1S0.8
G1X-0.2S0
G1X-0.1S0.8
G1X-0.2S0
G1X-0.1S0.8
G1X-0.2S0
G1X-0.1S0.8
G1X-0.6S0
G1X-0.1S0.8
G1X-4.8S0
G1X-0.1S0.8
G1X-1S0
G1X-0.1S0.8
G1X-0.2S0
G1X-0.1S0.8
G1X-0.2S0
G1X-0.1S0.8
G1X-0.2S0
G1X-0.1S0.8
G1X-0.2S0
G1X-0.1S0.8
G1X-0.2S0
G1X-0.1S0.8
G1X-0.3S0
G1X-0.1S0.8
G1X-0.6S0
G1X-0.1S0.8
G1X-0.3S0
G1X-0.1S0.8
G1X-0.2S0
G1X-0.1S0.8
G1X-0.4S0
G1X-0.1S0.8
G1X-0.2S0
G1X-0.1S0.8
G1X-0.3S0
G1X-0.1S0.8
G1X-0.2S0
G1X-0.1S0.8
G1X-0.2S0
G1X-0.1S0.8
G1X-0.2S0
G1X-0.1S0.8
G1X-0.2S0
G1X-0.1S0.8
G1X-0.5S0
G1X-0.1S0.8
G1X-1.1S0
G1X-0.1S0.8
G1X-0.7S0
G1X-0.1S0.8
G1X-0.2S0
G1X-0.1S0.8
G1X-0.2S0
G1X-0.1S0.8
G1X-0.2S0
G1X-0.1S0.8
G1X-0.2S0
G1X-0.1S0.8
G1X-0.2S0
G1X-0.1S0.8
G1X-0.2S0
G1X-0.1S0.8
G1X-0.2S0
G1X-0.1S0.8
G1X-0.2S0
G1X-0.1S0.8
G1X-0.2S0
G1X-0.1S0.8
G1X-0.2S0
G1X-0.1S0.8
G1X-0.2S0
G1X-0.1S0.8
G1X-0.2S0
G1X-0.1S0.8
G1X-0.2S0
G1X-0.1S0.8
G1X-0.2S0
G1X-0.1S0.8
G1X-0.2S0
G1X-0.1S0.8
G1X-0.2S0
G1X-0.1S0.8
G1X-0.2S0
G1X-0.1S0.8
G1X-1.4S0
G1X-0.1S0.8
G1X-0.2S0
G1X-0.1S0.8
G1X-0.2S0
G1X-0.1S0.8
G1X-0.3S0
G1X-0.1S0.8
G1X-13.3S0
G1X-0.1S0.8
G1X-0.9S0
G1X-0.1S0.8
G1X0.3Y0.1S0
G1X0.1S0.8
G1X0.2S0
G1X0.1S0.8
G1X0.6S0
G1X0.1S0.8
G1X0.2S0
G1X0.1S0.8
G1X0.2S0
G1X0.1S0.8
G1X0.2S0
G1X0.1S0.8
G1X0.2S0
G1X0.1S0.8
G1X0.3S0
G1X0.1S0.8
G1X0.4S0
G1X0.1S0.8
G1X0.4S0
G1X0.1S0.8
G1X0.4S0
G1X0.1S0.8
G1X0.4S0
G1X0.1S0.8
G1X0.2S0
G1X0.1S0.8
G1X0.2S0
G1X0.1S0.8
G1X0.2S0
G1X0.1S0.8
G1X0.2S0
G1X0.1S0.8
G1X0.2S0
G1X0.1S0.8
G1X0.2S0
G1X0.1S0.8
G1X0.2S0
G1X0.1S0.8
G1X0.2S0
G1X0.1S0.8
G1X0.2S0
G1X0.1S0.8
G1X0.2S0
G1X0.1S0.8
G1X0.2S0
G1X0.1S0.8
G1X0.2S0
G1X0.1S0.8
G1X0.2S0
G1X0.1S0.8
G1X0.2S0
G1X0.1S0.8
G1X0.2S0
G1X0.1S0.8
G1X0.2S0
G1X0.1S0.8
G1X0.3S0
G1X0.1S0.8
G1X0.4S0
G1X0.1S0.8
G1X0.5S0
G1X0.1S0.8
G1X0.4S0
G1X0.1S0.8
G1X0.4S0
G1X0.1S0.8
G1X0.3S0
G1X0.1S0.8
G1X0.2S0
G1X0.1S0.8
G1X0.2S0
G1X0.1S0.8
G1X0.2S0
G1X0.1S0.8
G1X0.2S0
G1X0.1S0.8
G1X0.2S0
G1X0.1S0.8
G1X1.9S0
G1X0.1S0.8
G1X0.2S0
G1X0.1S0.8
G1X5.6S0
G1X0.1S0.8
G1X0.1S0
G1X0.1S0.8
G1X0.3S0
G1X0.1S0.8
G1X0.3S0
G1X0.1S0.8
G1X0.1S0
G1X0.2S0.8
G1X0.2S0
G1X0.1S0.8
G1X0.2S0
G1X0.1S0.8
G1X0.1S0
G1X0.2S0.8
G1X0.3S0
G1X0.1S0.8
G1X0.1S0
G1X0.1S0.8
G1X0.2S0
G1X0.1S0.8
G1X0.2S0
G1X0.1S0.8
G1X0.2S0
G1X0.1S0.8
G1X0.2S0
G1X0.1S0.8
G1X0.2S0
G1X0.1S0.8
G1X0.3S0
G1X0.1S0.8
G1X0.5S0
G1X0.1S0.8
G1X0.3S0
G1X0.1S0.8
G1X0.2S0
G1X0.1S0.8
G1X0.5S0
G1X0.1S0.8
G1X1.9S0
G1X0.1S0.8
G1X0.2S0
G1X0.1S0.8
G1X0.7S0
G1X0.1S0.8
G1X0.2S0
G1X0.1S0.8
G1X0.2S0
G1X0.1S0.8
G1X0.2S0
G1X0.1S0.8
G1X0.2S0
G1X0.1S0.8
G1X1.8S0
G1X0.1S0.8
G1X0.3S0
G1X0.1S0.8
G1X0.3S0
G1X0.1S0.8
G1X0.8S0
G1X0.1S0.8
G1X2.6S0
G1X0.1S0.8
G1X1.3S0
G1X0.1S0.8
G1X1.8S0
G1X0.1S0.8
G1X0.3S0
G1X0.1S0.8
G1X0.3S0
G1X0.1S0.8
G1X0.3S0
G1X0.1S0.8
G1X2.1S0
G1X0.1S0.8
G1X2.5S0
G1X0.1S0.8
G1X3.2S0
G1X0.1S0.8
G1X0.3S0
G1X0.1S0.8
G1X0.3S0
G1X0.1S0.8
G1X0.3S0
G1X0.1S0.8
G1X0.3S0
G1X0.1S0.8
G1X2.4S0
G1X0.1S0.8
G1X0.4S0
G1X0.1S0.8
G1X0.3S0
G1X0.1S0.8
G1X0.2S0
G1X0.1S0.8
G1X0.4S0
G1X0.1S0.8
G1X0.5S0
G1X0.1S0.8
G1X0.3S0
G1X0.1S0.8
G1X0.4S0
G1X0.1S0.8
G1X0.3S0
G1X0.1S0.8
G1X0.4S0
G1X0.1S0.8
G1X0.5S0
G1X0.1S0.8
G1X0.3S0
G1X0.1S0.8
G1X0.2S0
G1X0.1S0.8
G1X0.2S0
G1X0.1S0.8
G1X3.5S0
G1X0.1S0.8
G1X0.2S0
G1X0.1S0.8
G1X0.3S0
G1X0.1S0.8
G1X2S0
G1X0.1S0.8
G1X0.8S0
G1X0.1S0.8
G1X0.2S0
G1X0.1S0.8
G1X0.9S0
G1X0.1S0.8
G1X0.2S0
G1X0.1S0.8
G1X2.3S0
G1X0.1S0.8
G1X4.6S0
G1X0.1S0.8
G1X0.2S0
G1X0.1S0.8
G1X6.2S0
G1X0.1S0.8
G1X0.5Y0.1S0
G1X-0.1S0.8
G1X-0.7S0
G1X-0.1S0.8
G1X-0.6S0
G1X-0.1S0.8
G1X-4.2S0
G1X-0.1S0.8
G1X-0.3S0
G1X-0.1S0.8
G1X-0.2S0
G1X-0.1S0.8
G1X-1S0
G1X-0.1S0.8
G1X-0.3S0
G1X-0.1S0.8
G1X-0.4S0
G1X-0.1S0.8
G1X-2.4S0
G1X-0.1S0.8
G1X-0.4S0
G1X-0.1S0.8
G1X-0.5S0
G1X-0.1S0.8
G1X-1.2S0
G1X-0.1S0.8
G1X-0.5S0
G1X-0.1S0.8
G1X-0.7S0
G1X-0.1S0.8
G1X-0.2S0
G1X-0.1S0.8
G1X-0.9S0
G1X-0.1S0.8
G1X-0.2S0
G1X-0.1S0.8
G1X-0.5S0
G1X-0.1S0.8
G1X-0.9S0
G1X-0.1S0.8
G1X-0.4S0
G1X-0.1S0.8
G1X-0.3S0
G1X-0.1S0.8
G1X-0.8S0
G1X-0.1S0.8
G1X-0.2S0
G1X-0.1S0.8
G1X-0.2S0
G1X-0.1S0.8
G1X-0.2S0
G1X-0.1S0.8
G1X-0.2S0
G1X-0.1S0.8
G1X-0.2S0
G1X-0.1S0.8
G1X-0.2S0
G1X-0.1S0.8
G1X-0.2S0
G1X-0.1S0.8
G1X-0.2S0
G1X-0.1S0.8
G1X-0.2S0
G1X-0.1S0.8
G1X-0.3S0
G1X-0.1S0.8
G1X-1.4S0
G1X-0.1S0.8
G1X-0.5S0
G1X-0.1S0.8
G1X-0.8S0
G1X-0.1S0.8
G1X-0.9S0
G1X-0.1S0.8
G1X-0.4S0
G1X-0.1S0.8
G1X-1.1S0
G1X-0.1S0.8
G1X-0.4S0
G1X-0.1S0.8
G1X-0.2S0
G1X-0.1S0.8
G1X-0.1S0
G1X-0.1S0.8
G1X-0.2S0
G1X-0.1S0.8
G1X-0.1S0
G1X-0.1S0.8
G1X-0.2S0
G1X-0.1S0.8
G1X-0.2S0
G1X-0.1S0.8
G1X-0.2S0
G1X-0.1S0.8
G1X-2.1S0
G1X-0.1S0.8
G1X-0.2S0
G1X-0.1S0.8
G1X-0.2S0
G1X-0.1S0.8
G1X-0.2S0
G1X-0.1S0.8
G1X-0.2S0
G1X-0.1S0.8
G1X-0.2S0
G1X-0.1S0.8
G1X-0.2S0
G1X-0.1S0.8
G1X-0.2S0
G1X-0.1S0.8
G1X-0.2S0
G1X-0.1S0.8
G1X-0.2S0
G1X-0.1S0.8
G1X-0.6S0
G1X-0.1S0.8
G1X-0.2S0
G1X-0.1S0.8
G1X-0.2S0
G1X-0.1S0.8
G1X-0.2S0
G1X-0.1S0.8
G1X-0.2S0
G1X-0.1S0.8
G1X-0.2S0
G1X-0.1S0.8
G1X-1.1S0
G1X-0.1S0.8
G1X-0.4S0
G1X-0.1S0.8
G1X-0.2S0
G1X-0.1S0.8
G1X-0.2S0
G1X-0.1S0.8
G1X-0.2S0
G1X-0.1S0.8
G1X-1.7S0
G1X-0.1S0.8
G1X-1.2S0
G1X-0.1S0.8
G1X-0.5S0
G1X-0.1S0.8
G1X-0.2S0
G1X-0.1S0.8
G1X-0.4S0
G1X-0.1S0.8
G1X-2.1S0
G1X-0.1S0.8
G1X-1.4S0
G1X-0.1S0.8
G1X-1.1S0
G1X-0.1S0.8
G1X-0.2S0
G1X-0.1S0.8
G1X-0.2S0
G1X-0.1S0.8
G1X-0.2S0
G1X-0.1S0.8
G1X-0.2S0
G1X-0.1S0.8
G1X-0.2S0
G1X-0.1S0.8
G1X-1.6S0
G1X-0.1S0.8
G1X-0.3S0
G1X-0.1S0.8
G1X-0.6S0
G1X-0.1S0.8
G1X-0.2S0
G1X-0.1S0.8
G1X-0.2S0
G1X-0.1S0.8
G1X-0.2S0
G1X-0.1S0.8
G1X-0.2S0
G1X-0.1S0.8
G1X-0.7S0
G1X-0.1S0.8
G1X-1.2S0
G1X-0.1S0.8
G1X-0.3S0
G1X-0.1S0.8
G1X-0.5S0
G1X-0.1S0.8
G1X-0.4S0
G1X-0.1S0.8
G1X-0.2S0
G1X-0.1S0.8
G1X-0.2S0
G1X-0.1S0.8
G1X-0.5S0
G1X-0.1S0.8
G1X-0.6S0
G1X-0.1S0.8
G1X-1.2S0
G1X-0.1S0.8
G1X-0.5S0
G1X-0.1S0.8
G1X-0.2S0
G1X-0.1S0.8
G1X-0.2S0
G1X-0.1S0.8
G1X-0.2S0
G1X-0.1S0.8
G1X-0.2S0
G1X-0.1S0.8
G1X-0.2S0
G1X-0.1S0.8
G1X-0.2S0
G1X-0.1S0.8
G1X-0.2S0
G1X-0.1S0.8
G1X-0.2S0
G1X-0.1S0.8
G1X-0.2S0
G1X-0.1S0.8
G1X-0.2S0
G1X-0.1S0.8
G1X-0.2S0
G1X-0.1S0.8
G1X-0.2S0
G1X-0.1S0.8
G1X-0.2S0
G1X-0.1S0.8
G1X-0.2S0
G1X-0.1S0.8
G1X-0.2S0
G1X-0.1S0.8
G1X-0.4S0
G1X-0.1S0.8
G1X-0.2S0
G1X-0.1S0.8
G1X-0.7S0
G1X-0.1S0.8
G1X-4.7S0
G1X-0.1S0.8
G1X-11Y0.1S0
G1X0.1S0.8
G1X0.8S0
G1X0.1S0.8
G1X2.8S0
G1X0.1S0.8
G1X0.4S0
G1X0.1S0.8
G1X0.4S0
G1X0.1S0.8
G1X5.6S0
G1X0.1S0.8
G1X1S0
G1X0.1S0.8
G1X0.4S0
G1X0.1S0.8
G1X2.3S0
G1X0.1S0.8
G1X0.2S0
G1X0.1S0.8
G1X0.2S0
G1X0.1S0.8
G1X0.2S0
G1X0.1S0.8
G1X0.5S0
G1X0.1S0.8
G1X1S0
G1X0.1S0.8
G1X5.5S0
G1X0.1S0.8
G1X0.2S0
G1X0.1S0.8
G1X1S0
G1X0.1S0.8
G1X0.4S0
G1X0.1S0.8
G1X0.2S0
G1X0.1S0.8
G1X0.2S0
G1X0.1S0.8
G1X0.4S0
G1X0.1S0.8
G1X0.2S0
G1X0.1S0.8
G1X0.3S0
G1X0.1S0.8
G1X0.2S0
G1X0.1S0.8
G1X0.3S0
G1X0.1S0.8
G1X0.3S0
G1X0.1S0.8
G1X0.2S0
G1X0.1S0.8
G1X0.2S0
G1X0.1S0.8
G1X0.7S0
G1X0.1S0.8
G1X0.2S0
G1X0.1S0.8
G1X1.5S0
G1X0.1S0.8
G1X1S0
G1X0.1S0.8
G1X0.3S0
G1X0.1S0.8
G1X0.3S0
G1X0.1S0.8
G1X2.4S0
G1X0.1S0.8
G1X0.3S0
G1X0.1S0.8
G1X0.6S0
G1X0.1S0.8
G1X0.5S0
G1X0.1S0.8
G1X0.2S0
G1X0.1S0.8
G1X0.5S0
G1X0.1S0.8
G1X0.2S0
G1X0.1S0.8
G1X0.2S0
G1X0.1S0.8
G1X0.2S0
G1X0.1S0.8
G1X0.2S0
G1X0.1S0.8
G1X2.3S0
G1X0.1S0.8
G1X0.2S0
G1X0.1S0.8
G1X0.2S0
G1X0.1S0.8
G1X0.8S0
G1X0.1S0.8
G1X0.3S0
G1X0.1S0.8
G1X0.3S0
G1X0.1S0.8
G1X2.1S0
G1X0.1S0.8
G1X0.3S0
G1X0.1S0.8
G1X0.2S0
G1X0.1S0.8
G1X1.7S0
G1X0.1S0.8
G1X3.7S0
G1X0.1S0.8
G1X0.3S0
G1X0.1S0.8
G1X0.3S0
G1X0.1S0.8
G1X0.3S0
G1X0.1S0.8
G1X3.2S0
G1X0.1S0.8
G1X0.3S0
G1X0.1S0.8
G1X1S0
G1X0.1S0.8
G1X0.2S0
G1X0.1S0.8
G1X0.8S0
G1X0.1S0.8
G1X1.4S0
G1X0.1S0.8
G1X0.7S0
G1X0.1S0.8
G1X0.5S0
G1X0.1S0.8
G1X3.1S0
G1X0.1S0.8
G1X1.6S0
G1X0.1S0.8
G1X0.2S0
G1X0.1S0.8
G1X1.6S0
G1X0.1S0.8
G1X0.2S0
G1X0.1S0.8
G1X0.8S0
G1X0.1S0.8
G1X0.6S0
G1X0.1S0.8
G1X0.6S0
G1X0.1S0.8
G1X0.2S0
G1X0.1S0.8
G1X0.2S0
G1X0.1S0.8
G1X1.7S0
G1X0.1S0.8
G1X0.2S0
G1X0.1S0.8
G1X0.2S0
G1X0.1S0.8
G1X0.2S0
G1X0.1S0.8
G1X0.2S0
G1X0.1S0.8
G1X0.2S0
G1X0.1S0.8
G1X0.2S0
G1X0.1S0.8
G1X0.5S0
G1X0.1S0.8
G1X2.7S0
G1X0.1S0.8
G1X0.2S0
G1X0.1S0.8
G1X0.4S0
G1X0.1S0.8
G1X2.8S0
G1X0.1S0.8
G1X0.5S0
G1X0.1S0.8
G1X0.7S0
G1X0.1S0.8
G1X0.1Y0.1S0
G1X-0.1S0.8
G1X-0.3S0
G1X-0.1S0.8
G1X-1.6S0
G1X-0.1S0.8
G1X-4.6S0
G1X-0.1S0.8
G1X-0.2S0
G1X-0.1S0.8
G1X-1.1S0
G1X-0.1S0.8
G1X-2.6S0
G1X-0.1S0.8
G1X-0.4S0
G1X-0.1S0.8
G1X-0.3S0
G1X-0.1S0.8
G1X-1.2S0
G1X-0.1S0.8
G1X-0.7S0
G1X-0.1S0.8
G1X-0.2S0
G1X-0.1S0.8
G1X-0.3S0
G1X-0.1S0.8
G1X-0.9S0
G1X-0.1S0.8
G1X-0.6S0
G1X-0.1S0.8
G1X-1.5S0
G1X-0.1S0.8
G1X-0.3S0
G1X-0.1S0.8
G1X-0.4S0
G1X-0.1S0.8
G1X-0.4S0
G1X-0.1S0.8
G1X-0.2S0
G1X-0.1S0.8
G1X-0.2S0
G1X-0.1S0.8
G1X-0.2S0
G1X-0.1S0.8
G1X-0.2S0
G1X-0.1S0.8
G1X-0.2S0
G1X-0.1S0.8
G1X-0.4S0
G1X-0.1S0.8
G1X-0.3S0
G1X-0.1S0.8
G1X-1.3S0
G1X-0.1S0.8
G1X-0.2S0
G1X-0.1S0.8
G1X-0.6S0
G1X-0.1S0.8
G1X-0.2S0
G1X-0.1S0.8
G1X-0.4S0
G1X-0.1S0.8
G1X-0.4S0
G1X-0.1S0.8
G1X-0.3S0
G1X-0.1S0.8
G1X-0.7S0
G1X-0.1S0.8
G1X-0.2S0
G1X-0.1S0.8
G1X-1.1S0
G1X-0.1S0.8
G1X-0.3S0
G1X-0.1S0.8
G1X-0.2S0
G1X-0.1S0.8
G1X-0.4S0
G1X-0.1S0.8
G1X-0.4S0
G1X-0.1S0.8
G1X-0.2S0
G1X-0.1S0.8
G1X-0.3S0
G1X-0.1S0.8
G1X-0.3S0
G1X-0.1S0.8
G1X-1.7S0
G1X-0.1S0.8
G1X-0.5S0
G1X-0.1S0.8
G1X-0.5S0
G1X-0.1S0.8
G1X-0.5S0
G1X-0.1S0.8
G1X-0.4S0
G1X-0.1S0.8
G1X-0.2S0
G1X-0.1S0.8
G1X-0.2S0
G1X-0.1S0.8
G1X-0.2S0
G1X-0.1S0.8
G1X-0.6S0
G1X-0.1S0.8
G1X-0.2S0
G1X-0.1S0.8
G1X-0.3S0
G1X-0.1S0.8
G1X-1.6S0
G1X-0.1S0.8
G1X-0.2S0
G1X-0.1S0.8
G1X-1.1S0
G1X-0.1S0.8
G1X-1.6S0
G1X-0.1S0.8
G1X-1.4S0
G1X-0.1S0.8
G1X-0.9S0
G1X-0.1S0.8
G1X-0.4S0
G1X-0.1S0.8
G1X-2.7S0
G1X-0.1S0.8
G1X-2.3S0
G1X-0.1S0.8
G1X-0.3S0
G1X-0.1S0.8
G1X-0.4S0
G1X-0.1S0.8
G1X-0.2S0
G1X-0.1S0.8
G1X-0.6S0
G1X-0.1S0.8
G1X-0.5S0
G1X-0.1S0.8
G1X-0.2S0
G1X-0.1S0.8
G1X-0.3S0
G1X-0.1S0.8
G1X-0.5S0
G1X-0.1S0.8
G1X-0.2S0
G1X-0.1S0.8
G1X-0.2S0
G1X-0.1S0.8
G1X-0.9S0
G1X-0.1S0.8
G1X-0.2S0
G1X-0.1S0.8
G1X-0.2S0
G1X-0.1S0.8
G1X-0.5S0
G1X-0.1S0.8
G1X-0.4S0
G1X-0.1S0.8
G1X-0.5S0
G1X-0.1S0.8
G1X-0.4S0
G1X-0.1S0.8
G1X-0.3S0
G1X-0.1S0.8
G1X-0.2S0
G1X-0.1S0.8
G1X-0.2S0
G1X-0.1S0.8
G1X-0.2S0
G1X-0.1S0.8
G1X-0.3S0
G1X-0.1S0.8
G1X-0.2S0
G1X-0.1S0.8
G1X-0.2S0
G1X-0.1S0.8
G1X-0.1S0
G1X-0.2S0.8
G1X-0.2S0
G1X-0.1S0.8
G1X-0.7S0
G1X-0.1S0.8
G1X-0.1S0
G1X-0.1S0.8
G1X-0.2S0
G1X-0.1S0.8
G1X-0.2S0
G1X-0.1S0.8
G1X-0.2S0
G1X-0.1S0.8
G1X-0.2S0
G1X-0.1S0.8
G1X-0.2S0
G1X-0.1S0.8
G1X-0.2S0
G1X-0.1S0.8
G1X-0.2S0
G1X-0.1S0.8
G1X-0.2S0
G1X-0.1S0.8
G1X-0.2S0
G1X-0.1S0.8
G1X-0.2S0
G1X-0.1S0.8
G1X-0.2S0
G1X-0.1S0.8
G1X-0.3S0
G1X-0.1S0.8
G1X-0.2S0
G1X-0.1S0.8
G1X-0.2S0
G1X-0.1S0.8
G1X-0.2S0
G1X-0.1S0.8
G1X-0.5S0
G1X-0.1S0.8
G1X-0.2S0
G1X-0.1S0.8
G1X-0.2S0
G1X-0.1S0.8
G1X-0.4S0
G1X-0.1S0.8
G1X-1.6S0
G1X-0.1S0.8
G1X-0.3S0
G1X-0.1S0.8
G1X-0.4S0
G1X-0.1S0.8
G1X-0.5S0
G1X-0.1S0.8
G1X-2.2S0
G1X-0.1S0.8
G1X-0.2S0
G1X-0.1S0.8
G1X-1.8S0
G1X-0.1S0.8
G1X-0.5S0
G1X-0.1S0.8
G1X-0.4S0
G1X-0.1S0.8
G1X-0.4S0
G1X-0.1S0.8
G1X-2.9S0
G1X-0.1S0.8
G1X-0.2S0
G1X-0.1S0.8
G1X-0.3S0
G1X-0.1S0.8
G1X-1.4S0
G1X-0.1S0.8
G1X-0.5S0
G1X-0.1S0.8
G1X-0.2S0
G1X-0.1S0.8
G1X1.2Y0.1S0
G1X0.1S0.8
G1X0.2S0
G1X0.1S0.8
G1X0.2S0
G1X0.1S0.8
G1X0.2S0
G1X0.1S0.8
G1X2.7S0
G1X0.1S0.8
G1X0.2S0
G1X0.1S0.8
G1X0.2S0
G1X0.1S0.8
G1X0.2S0
G1X0.1S0.8
G1X1.5S0
G1X0.1S0.8
G1X0.6S0
G1X0.1S0.8
G1X0.2S0
G1X0.1S0.8
G1X0.2S0
G1X0.1S0.8
G1X0.2S0
G1X0.1S0.8
G1X0.2S0
G1X0.1S0.8
G1X1.5S0
G1X0.1S0.8
G1X1.5S0
G1X0.1S0.8
G1X1.4S0
G1X0.1S0.8
G1X4S0
G1X0.1S0.8
G1X3.2S0
G1X0.1S0.8
G1X0.5S0
G1X0.1S0.8
G1X0.1S0
G1X0.1S0.8
G1X0.2S0
G1X0.1S0.8
G1X0.8S0
G1X0.1S0.8
G1X0.5S0
G1X0.1S0.8
G1X0.4S0
G1X0.1S0.8
G1X0.2S0
G1X0.1S0.8
G1X0.2S0
G1X0.1S0.8
G1X0.2S0
G1X0.1S0.8
G1X0.3S0
G1X0.1S0.8
G1X0.4S0
G1X0.1S0.8
G1X0.2S0
G1X0.1S0.8
G1X0.3S0
G1X0.1S0.8
G1X0.4S0
G1X0.1S0.8
G1X1.1S0
G1X0.1S0.8
G1X0.2S0
G1X0.1S0.8
G1X0.2S0
G1X0.1S0.8
G1X0.7S0
G1X0.1S0.8
G1X0.2S0
G1X0.1S0.8
G1X1.7S0
G1X0.1S0.8
G1X0.9S0
G1X0.1S0.8
G1X0.7S0
G1X0.1S0.8
G1X0.2S0
G1X0.1S0.8
G1X0.2S0
G1X0.1S0.8
G1X0.4S0
G1X0.1S0.8
G1X0.3S0
G1X0.1S0.8
G1X0.2S0
G1X0.1S0.8
G1X1.2S0
G1X0.1S0.8
G1X2S0
G1X0.1S0.8
G1X0.4S0
G1X0.1S0.8
G1X0.2S0
G1X0.1S0.8
G1X0.7S0
G1X0.1S0.8
G1X1.4S0
G1X0.1S0.8
G1X0.3S0
G1X0.1S0.8
G1X0.3S0
G1X0.1S0.8
G1X0.8S0
G1X0.1S0.8
G1X0.2S0
G1X0.1S0.8
G1X0.2S0
G1X0.1S0.8
G1X1.1S0
G1X0.1S0.8
G1X0.6S0
G1X0.1S0.8
G1X1.2S0
G1X0.1S0.8
G1X1.5S0
G1X0.1S0.8
G1X0.5S0
G1X0.1S0.8
G1X0.5S0
G1X0.1S0.8
G1X0.5S0
G1X0.1S0.8
G1X0.5S0
G1X0.1S0.8
G1X0.3S0
G1X0.1S0.8
G1X0.3S0
G1X0.1S0.8
G1X0.2S0
G1X0.1S0.8
G1X2.2S0
G1X0.1S0.8
G1X1.2S0
G1X0.1S0.8
G1X0.3S0
G1X0.1S0.8
G1X2.6S0
G1X0.1S0.8
G1X0.6S0
G1X0.1S0.8
G1X1.2S0
G1X0.1S0.8
G1X0.2S0
G1X0.1S0.8
G1X0.2S0
G1X0.1S0.8
G1X0.8S0
G1X0.1S0.8
G1X2.4S0
G1X0.1S0.8
G1X0.9S0
G1X0.1S0.8
G1X0.6S0
G1X0.1S0.8
G1X0.2S0
G1X0.1S0.8
G1X0.5S0
G1X0.1S0.8
G1X1S0
G1X0.1S0.8
G1X0.5S0
G1X0.1S0.8
G1X0.4S0
G1X0.1S0.8
G1X0.2S0
G1X0.1S0.8
G1X2.3S0
G1X0.1S0.8
G1X0.3S0
G1X0.1S0.8
G1X0.2S0
G1X0.1S0.8
G1X2.6S0
G1X0.1S0.8
G1X0.2S0
G1X0.1S0.8
G1X0.9S0
G1X0.1S0.8
G1X0.5S0
G1X0.1S0.8
G1X1.8S0
G1X0.1S0.8
G1X0.2S0
G1X0.1S0.8
G1X0.3S0
G1X0.1S0.8
G1X0.3S0
G1X0.1S0.8
G1X0.3S0
G1X0.1S0.8
G1X1.8S0
G1X0.1S0.8
G1X0.7S0
G1X0.1S0.8
G1X0.2S0
G1X0.1S0.8
G1X-0.7Y0.1S0
G1X-0.1S0.8
G1X-1.5S0
G1X-0.1S0.8
G1X-2.8S0
G1X-0.1S0.8
G1X-0.5S0
G1X-0.1S0.8
G1X-0.2S0
G1X-0.1S0.8
G1X-0.5S0
G1X-0.1S0.8
G1X-1.8S0
G1X-0.1S0.8
G1X-0.5S0
G1X-0.1S0.8
G1X-0.2S0
G1X-0.1S0.8
G1X-0.2S0
G1X-0.1S0.8
G1X-0.2S0
G1X-0.1S0.8
G1X-0.2S0
G1X-0.1S0.8
G1X-0.2S0
G1X-0.1S0.8
G1X-1.8S0
G1X-0.1S0.8
G1X-0.2S0
G1X-0.1S0.8
G1X-0.2S0
G1X-0.1S0.8
G1X-0.2S0
G1X-0.1S0.8
G1X-0.2S0
G1X-0.1S0.8
G1X-1.9S0
G1X-0.1S0.8
G1X-0.2S0
G1X-0.1S0.8
G1X-0.2S0
G1X-0.1S0.8
G1X-1.4S0
G1X-0.1S0.8
G1X-0.7S0
G1X-0.1S0.8
G1X-0.9S0
G1X-0.1S0.8
G1X-0.2S0
G1X-0.1S0.8
G1X-0.2S0
G1X-0.1S0.8
G1X-0.2S0
G1X-0.1S0.8
G1X-0.3S0
G1X-0.1S0.8
G1X-0.3S0
G1X-0.1S0.8
G1X-0.7S0
G1X-0.1S0.8
G1X-1.3S0
G1X-0.1S0.8
G1X-0.2S0
G1X-0.1S0.8
G1X-0.3S0
G1X-0.1S0.8
G1X-1.5S0
G1X-0.1S0.8
G1X-0.3S0
G1X-0.1S0.8
G1X-0.3S0
G1X-0.1S0.8
G1X-0.2S0
G1X-0.1S0.8
G1X-0.5S0
G1X-0.1S0.8
G1X-0.3S0
G1X-0.1S0.8
G1X-0.5S0
G1X-0.1S0.8
G1X-0.3S0
G1X-0.1S0.8
G1X-1.1S0
G1X-0.1S0.8
G1X-0.7S0
G1X-0.1S0.8
G1X-0.3S0
G1X-0.1S0.8
G1X-5.2S0
G1X-0.1S0.8
G1X-0.9S0
G1X-0.1S0.8
G1X-0.2S0
G1X-0.1S0.8
G1X-0.6S0
G1X-0.1S0.8
G1X-0.6S0
G1X-0.1S0.8
G1X-2S0
G1X-0.1S0.8
G1X-1.5S0
G1X-0.1S0.8
G1X-0.2S0
G1X-0.1S0.8
G1X-0.2S0
G1X-0.1S0.8
G1X-0.7S0
G1X-0.1S0.8
G1X-1.3S0
G1X-0.1S0.8
G1X-0.2S0
G1X-0.1S0.8
G1X-0.2S0
G1X-0.1S0.8
G1X-0.2S0
G1X-0.1S0.8
G1X-0.2S0
G1X-0.1S0.8
G1X-0.2S0
G1X-0.1S0.8
G1X-0.6S0
G1X-0.1S0.8
G1X-0.2S0
G1X-0.1S0.8
G1X-1.5S0
G1X-0.1S0.8
G1X-1.1S0
G1X-0.1S0.8
G1X-1S0
G1X-0.1S0.8
G1X-0.8S0
G1X-0.1S0.8
G1X-0.1S0
G1X-0.1S0.8
G1X-0.2S0
G1X-0.1S0.8
G1X-0.2S0
G1X-0.1S0.8
G1X-1S0
G1X-0.1S0.8
G1X-1.4S0
G1X-0.1S0.8
G1X-0.2S0
G1X-0.1S0.8
G1X-0.4S0
G1X-0.1S0.8
G1X-1S0
G1X-0.1S0.8
G1X-0.2S0
G1X-0.1S0.8
G1X-0.2S0
G1X-0.1S0.8
G1X-0.2S0
G1X-0.1S0.8
G1X-0.2S0
G1X-0.1S0.8
G1X-0.2S0
G1X-0.1S0.8
G1X-0.2S0
G1X-0.1S0.8
G1X-0.2S0
G1X-0.1S0.8
G1X-0.1S0
G1X-0.1S0.8
G1X-0.3S0
G1X-0.1S0.8
G1X-0.7S0
G1X-0.1S0.8
G1X-1S0
G1X-0.1S0.8
G1X-0.5S0
G1X-0.1S0.8
G1X-0.2S0
G1X-0.1S0.8
G1X-0.2S0
G1X-0.1S0.8
G1X-0.2S0
G1X-0.1S0.8
G1X-0.2S0
G1X-0.1S0.8
G1X-0.2S0
G1X-0.1S0.8
G1X-0.2S0
G1X-0.1S0.8
G1X-0.2S0
G1X-0.1S0.8
G1X-0.2S0
G1X-0.1S0.8
G1X-0.2S0
G1X-0.1S0.8
G1X-0.5S0
G1X-0.1S0.8
G1X-0.2S0
G1X-0.1S0.8
G1X-0.2S0
G1X-0.1S0.8
G1X-0.2S0
G1X-0.1S0.8
G1X-0.1S0
G1X-0.1S0.8
G1X-0.2S0
G1X-0.1S0.8
G1X-0.3S0
G1X-0.1S0.8
G1X-0.3S0
G1X-0.1S0.8
G1X-0.3S0
G1X-0.1S0.8
G1X-0.2S0
G1X-0.1S0.8
G1X-0.2S0
G1X-0.1S0.8
G1X-0.2S0
G1X-0.1S0.8
G1X-1.1S0
G1X-0.1S0.8
G1X-1.4S0
G1X-0.1S0.8
G1X-0.2S0
G1X-0.1S0.8
G1X-0.8S0
G1X-0.1S0.8
G1X-3.4S0
G1X-0.1S0.8
G1X-2.3S0
G1X-0.1S0.8
G1X-0.3S0
G1X-0.1S0.8
G1X-0.2S0
G1X-0.1S0.8
G1X-0.2S0
G1X-0.1S0.8
G1X-3.7S0
G1X-0.1S0.8
G1X0.6Y0.1S0
G1X0.1S0.8
G1X0.2S0
G1X0.1S0.8
G1X0.2S0
G1X0.1S0.8
G1X1.6S0
G1X0.1S0.8
G1X0.5S0
G1X0.1S0.8
G1X2.9S0
G1X0.1S0.8
G1X0.2S0
G1X0.1S0.8
G1X1.3S0
G1X0.1S0.8
G1X2.1S0
G1X0.1S0.8
G1X0.5S0
G1X0.1S0.8
G1X1.1S0
G1X0.1S0.8
G1X1.5S0
G1X0.1S0.8
G1X2.5S0
G1X0.1S0.8
G1X5.2S0
G1X0.1S0.8
G1X0.6S0
G1X0.1S0.8
G1X0.2S0
G1X0.1S0.8
G1X0.4S0
G1X0.1S0.8
G1X0.1S0
G1X0.2S0.8
G1X0.2S0
G1X0.1S0.8
G1X0.2S0
G1X0.1S0.8
G1X0.3S0
G1X0.1S0.8
G1X1.7S0
G1X0.1S0.8
G1X0.4S0
G1X0.1S0.8
G1X0.2S0
G1X0.1S0.8
G1X0.2S0
G1X0.1S0.8
G1X0.5S0
G1X0.1S0.8
G1X0.5S0
G1X0.1S0.8
G1X0.2S0
G1X0.1S0.8
G1X0.2S0
G1X0.1S0.8
G1X0.4S0
G1X0.1S0.8
G1X0.5S0
G1X0.1S0.8
G1X1.7S0
G1X0.1S0.8
G1X0.2S0
G1X0.1S0.8
G1X0.6S0
G1X0.1S0.8
G1X0.2S0
G1X0.1S0.8
G1X0.7S0
G1X0.1S0.8
G1X0.4S0
G1X0.1S0.8
G1X1.5S0
G1X0.1S0.8
G1X4.5S0
G1X0.1S0.8
G1X1.2S0
G1X0.1S0.8
G1X0.2S0
G1X0.1S0.8
G1X0.2S0
G1X0.1S0.8
G1X0.3S0
G1X0.1S0.8
G1X0.6S0
G1X0.1S0.8
G1X0.2S0
G1X0.1S0.8
G1X0.7S0
G1X0.1S0.8
G1X0.2S0
G1X0.1S0.8
G1X0.6S0
G1X0.1S0.8
G1X0.6S0
G1X0.1S0.8
G1X0.9S0
G1X0.1S0.8
G1X0.9S0
G1X0.1S0.8
G1X0.2S0
G1X0.1S0.8
G1X0.2S0
G1X0.1S0.8
G1X0.2S0
G1X0.1S0.8
G1X0.2S0
G1X0.1S0.8
G1X0.2S0
G1X0.1S0.8
G1X0.3S0
G1X0.1S0.8
G1X0.3S0
G1X0.1S0.8
G1X0.2S0
G1X0.1S0.8
G1X0.2S0
G1X0.1S0.8
G1X0.2S0
G1X0.1S0.8
G1X0.3S0
G1X0.1S0.8
G1X0.3S0
G1X0.1S0.8
G1X0.6S0
G1X0.1S0.8
G1X0.8S0
G1X0.1S0.8
G1X0.2S0
G1X0.1S0.8
G1X0.4S0
G1X0.1S0.8
G1X0.2S0
G1X0.1S0.8
G1X0.3S0
G1X0.1S0.8
G1X1.8S0
G1X0.1S0.8
G1X1.6S0
G1X0.1S0.8
G1X0.2S0
G1X0.1S0.8
G1X0.4S0
G1X0.1S0.8
G1X0.2S0
G1X0.1S0.8
G1X1.1S0
G1X0.1S0.8
G1X0.3S0
G1X0.1S0.8
G1X0.4S0
G1X0.1S0.8
G1X0.3S0
G1X0.1S0.8
G1X0.2S0
G1X0.1S0.8
G1X0.4S0
G1X0.1S0.8
G1X1.6S0
G1X0.1S0.8
G1X0.2S0
G1X0.1S0.8
G1X0.2S0
G1X0.1S0.8
G1X0.5S0
G1X0.1S0.8
G1X1.3S0
G1X0.1S0.8
G1X0.2S0
G1X0.1S0.8
G1X1.2S0
G1X0.1S0.8
G1X0.1S0
G1X0.1S0.8
G1X0.2S0
G1X0.1S0.8
G1X0.2S0
G1X0.1S0.8
G1X0.2S0
G1X0.1S0.8
G1X1.9S0
G1X0.1S0.8
G1X0.2S0
G1X0.1S0.8
G1X2.9S0
G1X0.1S0.8
G1X1S0
G1X0.1S0.8
G1X0.2S0
G1X0.1S0.8
G1X0.2S0
G1X0.1S0.8
G1X2.4S0
G1X0.1S0.8
G1X2.8S0
G1X0.1S0.8
G1X0.3S0
G1X0.1S0.8
G1X0.8S0
G1X0.1S0.8
G1X0.5Y0.1S0
G1X-0.1S0.8
G1X-0.2S0
G1X-0.1S0.8
G1X-0.4S0
G1X-0.1S0.8
G1X-0.2S0
G1X-0.1S0.8
G1X-4.2S0
G1X-0.1S0.8
G1X-1.4S0
G1X-0.1S0.8
G1X-1S0
G1X-0.1S0.8
G1X-0.2S0
G1X-0.1S0.8
G1X-0.2S0
G1X-0.1S0.8
G1X-2S0
G1X-0.1S0.8
G1X-0.2S0
G1X-0.1S0.8
G1X-0.2S0
G1X-0.1S0.8
G1X-0.2S0
G1X-0.1S0.8
G1X-1.9S0
G1X-0.1S0.8
G1X-0.3S0
G1X-0.1S0.8
G1X-1.3S0
G1X-0.1S0.8
G1X-0.3S0
G1X-0.1S0.8
G1X-1.4S0
G1X-0.1S0.8
G1X-0.2S0
G1X-0.1S0.8
G1X-0.3S0
G1X-0.1S0.8
G1X-2S0
G1X-0.1S0.8
G1X-0.3S0
G1X-0.1S0.8
G1X-0.2S0
G1X-0.1S0.8
G1X-0.7S0
G1X-0.1S0.8
G1X-1S0
G1X-0.1S0.8
G1X-1.2S0
G1X-0.1S0.8
G1X-2S0
G1X-0.1S0.8
G1X-0.2S0
G1X-0.1S0.8
G1X-0.2S0
G1X-0.1S0.8
G1X-0.3S0
G1X-0.1S0.8
G1X-0.4S0
G1X-0.1S0.8
G1X-0.4S0
G1X-0.1S0.8
G1X-0.2S0
G1X-0.1S0.8
G1X-0.3S0
G1X-0.1S0.8
G1X-2.3S0
G1X-0.1S0.8
G1X-0.7S0
G1X-0.1S0.8
G1X-4.7S0
G1X-0.1S0.8
G1X-0.2S0
G1X-0.1S0.8
G1X-1.5S0
G1X-0.1S0.8
G1X-0.6S0
G1X-0.1S0.8
G1X-0.7S0
G1X-0.1S0.8
G1X-0.2S0
G1X-0.1S0.8
G1X-4S0
G1X-0.1S0.8
G1X-0.2S0
G1X-0.1S0.8
G1X-0.2S0
G1X-0.1S0.8
G1X-0.2S0
G1X-0.1S0.8
G1X-1.9S0
G1X-0.1S0.8
G1X-0.2S0
G1X-0.1S0.8
G1X-1.2S0
G1X-0.1S0.8
G1X-0.2S0
G1X-0.1S0.8
G1X-0.2S0
G1X-0.1S0.8
G1X-0.7S0
G1X-0.1S0.8
G1X-0.8S0
G1X-0.1S0.8
G1X-0.8S0
G1X-0.1S0.8
G1X-1.5S0
G1X-0.1S0.8
G1X-0.2S0
G1X-0.1S0.8
G1X-0.2S0
G1X-0.1S0.8
G1X-0.4S0
G1X-0.1S0.8
G1X-0.5S0
G1X-0.1S0.8
G1X-1S0
G1X-0.1S0.8
G1X-0.7S0
G1X-0.1S0.8
G1X-0.3S0
G1X-0.1S0.8
G1X-0.5S0
G1X-0.1S0.8
G1X-0.4S0
G1X-0.1S0.8
G1X-0.1S0
G1X-0.2S0.8
G1X-0.1S0
G1X-0.2S0.8
G1X-0.1S0
G1X-0.2S0.8
G1X-0.1S0
G1X-0.2S0.8
G1X-0.1S0
G1X-0.1S0.8
G1X-0.4S0
G1X-0.1S0.8
G1X-1S0
G1X-0.1S0.8
G1X-0.2S0
G1X-0.1S0.8
G1X-0.3S0
G1X-0.1S0.8
G1X-0.2S0
G1X-0.1S0.8
G1X-0.4S0
G1X-0.1S0.8
G1X-0.2S0
G1X-0.1S0.8
G1X-0.2S0
G1X-0.1S0.8
G1X-0.2S0
G1X-0.1S0.8
G1X-0.2S0
G1X-0.1S0.8
G1X-0.2S0
G1X-0.1S0.8
G1X-0.2S0
G1X-0.1S0.8
G1X-0.2S0
G1X-0.1S0.8
G1X-0.2S0
G1X-0.1S0.8
G1X-0.2S0
G1X-0.1S0.8
G1X-0.2S0
G1X-0.1S0.8
G1X-0.2S0
G1X-0.1S0.8
G1X-0.2S0
G1X-0.1S0.8
G1X-0.2S0
G1X-0.1S0.8
G1X-0.2S0
G1X-0.1S0.8
G1X-0.4S0
G1X-0.1S0.8
G1X-0.5S0
G1X-0.1S0.8
G1X-0.2S0
G1X-0.1S0.8
G1X-0.2S0
G1X-0.1S0.8
G1X-0.2S0
G1X-0.1S0.8
G1X-1.1S0
G1X-0.1S0.8
G1X-1S0
G1X-0.1S0.8
G1X-0.4S0
G1X-0.1S0.8
G1X-2.4S0
G1X-0.1S0.8
G1X-0.2S0
G1X-0.1S0.8
G1X-0.4S0
G1X-0.1S0.8
G1X-1.2S0
G1X-0.1S0.8
G1X-1.6S0
G1X-0.1S0.8
G1X-0.3S0
G1X-0.1S0.8
G1X-3.1S0
G1X-0.1S0.8
G1X-0.8S0
G1X-0.1S0.8
G1X-1.3S0
G1X-0.1S0.8
G1X-0.3Y0.1S0
G1X0.1S0.8
G1X2.1S0
G1X0.1S0.8
G1X0.9S0
G1X0.1S0.8
G1X1.4S0
G1X0.1S0.8
G1X0.3S0
G1X0.1S0.8
G1X0.2S0
G1X0.1S0.8
G1X1.9S0
G1X0.1S0.8
G1X1.1S0
G1X0.1S0.8
G1X0.2S0
G1X0.1S0.8
G1X2.3S0
G1X0.1S0.8
G1X2S0
G1X0.1S0.8
G1X0.9S0
G1X0.1S0.8
G1X0.2S0
G1X0.1S0.8
G1X0.2S0
G1X0.1S0.8
G1X1.9S0
G1X0.1S0.8
G1X6.4S0
G1X0.1S0.8
G1X0.1S0
G1X0.1S0.8
G1X0.2S0
G1X0.1S0.8
G1X0.2S0
G1X0.1S0.8
G1X0.2S0
G1X0.1S0.8
G1X1.3S0
G1X0.1S0.8
G1X0.2S0
G1X0.1S0.8
G1X0.3S0
G1X0.1S0.8
G1X0.8S0
G1X0.1S0.8
G1X0.1S0
G1X0.1S0.8
G1X0.8S0
G1X0.1S0.8
G1X0.2S0
G1X0.1S0.8
G1X0.6S0
G1X0.1S0.8
G1X1.5S0
G1X0.1S0.8
G1X0.2S0
G1X0.1S0.8
G1X0.2S0
G1X0.1S0.8
G1X0.2S0
G1X0.1S0.8
G1X0.7S0
G1X0.1S0.8
G1X0.7S0
G1X0.1S0.8
G1X0.2S0
G1X0.1S0.8
G1X0.8S0
G1X0.1S0.8
G1X1.1S0
G1X0.1S0.8
G1X0.2S0
G1X0.1S0.8
G1X0.2S0
G1X0.1S0.8
G1X0.9S0
G1X0.1S0.8
G1X0.2S0
G1X0.1S0.8
G1X0.2S0
G1X0.1S0.8
G1X0.2S0
G1X0.1S0.8
G1X0.2S0
G1X0.1S0.8
G1X1.6S0
G1X0.1S0.8
G1X0.3S0
G1X0.1S0.8
G1X0.2S0
G1X0.1S0.8
G1X0.2S0
G1X0.1S0.8
G1X0.2S0
G1X0.1S0.8
G1X0.9S0
G1X0.1S0.8
G1X0.3S0
G1X0.1S0.8
G1X0.2S0
G1X0.1S0.8
G1X2.8S0
G1X0.1S0.8
G1X0.2S0
G1X0.1S0.8
G1X0.2S0
G1X0.1S0.8
G1X0.2S0
G1X0.1S0.8
G1X0.8S0
G1X0.1S0.8
G1X0.4S0
G1X0.1S0.8
G1X0.2S0
G1X0.1S0.8
G1X1.1S0
G1X0.1S0.8
G1X0.3S0
G1X0.1S0.8
G1X1.1S0
G1X0.1S0.8
G1X0.4S0
G1X0.1S0.8
G1X0.7S0
G1X0.1S0.8
G1X0.6S0
G1X0.1S0.8
G1X0.6S0
G1X0.1S0.8
G1X0.2S0
G1X0.1S0.8
G1X0.5S0
G1X0.1S0.8
G1X1.5S0
G1X0.1S0.8
G1X1.8S0
G1X0.1S0.8
G1X0.6S0
G1X0.1S0.8
G1X0.2S0
G1X0.1S0.8
G1X0.5S0
G1X0.1S0.8
G1X0.4S0
G1X0.1S0.8
G1X0.2S0
G1X0.1S0.8
G1X0.3S0
G1X0.1S0.8
G1X0.7S0
G1X0.1S0.8
G1X0.3S0
G1X0.1S0.8
G1X0.5S0
G1X0.1S0.8
G1X0.3S0
G1X0.1S0.8
G1X0.6S0
G1X0.1S0.8
G1X0.2S0
G1X0.1S0.8
G1X0.2S0
G1X0.1S0.8
G1X0.4S0
G1X0.1S0.8
G1X0.2S0
G1X0.1S0.8
G1X0.2S0
G1X0.1S0.8
G1X2.1S0
G1X0.1S0.8
G1X0.2S0
G1X0.1S0.8
G1X0.9S0
G1X0.1S0.8
G1X0.2S0
G1X0.1S0.8
G1X0.2S0
G1X0.1S0.8
G1X0.4S0
G1X0.1S0.8
G1X0.5S0
G1X0.1S0.8
G1X0.2S0
G1X0.1S0.8
G1X0.2S0
G1X0.1S0.8
G1X0.2S0
G1X0.1S0.8
G1X1.9S0
G1X0.1S0.8
G1X0.2S0
G1X0.1S0.8
G1X0.2S0
G1X0.1S0.8
G1X0.2S0
G1X0.1S0.8
G1X0.2S0
G1X0.1S0.8
G1X2.7S0
G1X0.1S0.8
G1X0.3S0
G1X0.1S0.8
G1X2S0
G1X0.1S0.8
G1X0.4S0
G1X0.1S0.8
G1X0.5S0
G1X0.1S0.8
G1X0.2S0
G1X0.1S0.8
G1X2.2Y0.1S0
G1X-0.1S0.8
G1X-0.2S0
G1X-0.1S0.8
G1X-1.2S0
G1X-0.1S0.8
G1X-2.4S0
G1X-0.1S0.8
G1X-0.5S0
G1X-0.1S0.8
G1X-0.6S0
G1X-0.1S0.8
G1X-1.4S0
G1X-0.1S0.8
G1X-0.2S0
G1X-0.1S0.8
G1X-0.2S0
G1X-0.1S0.8
G1X-1S0
G1X-0.1S0.8
G1X-2.8S0
G1X-0.1S0.8
G1X-0.2S0
G1X-0.1S0.8
G1X-2S0
G1X-0.1S0.8
G1X-1.3S0
G1X-0.1S0.8
G1X-1.1S0
G1X-0.1S0.8
G1X-0.2S0
G1X-0.1S0.8
G1X-1S0
G1X-0.1S0.8
G1X-1.1S0
G1X-0.1S0.8
G1X-1.1S0
G1X-0.1S0.8
G1X-1.9S0
G1X-0.1S0.8
G1X-1.9S0
G1X-0.1S0.8
G1X-0.7S0
G1X-0.1S0.8
G1X-0.2S0
G1X-0.1S0.8
G1X-0.7S0
G1X-0.1S0.8
G1X-0.4S0
G1X-0.1S0.8
G1X-0.3S0
G1X-0.1S0.8
G1X-1.1S0
G1X-0.1S0.8
G1X-0.2S0
G1X-0.1S0.8
G1X-0.2S0
G1X-0.1S0.8
G1X-0.4S0
G1X-0.1S0.8
G1X-0.9S0
G1X-0.1S0.8
G1X-0.6S0
G1X-0.1S0.8
G1X-0.7S0
G1X-0.1S0.8
G1X-0.4S0
G1X-0.1S0.8
G1X-0.5S0
G1X-0.1S0.8
G1X-0.2S0
G1X-0.1S0.8
G1X-0.2S0
G1X-0.1S0.8
G1X-0.9S0
G1X-0.1S0.8
G1X-0.2S0
G1X-0.1S0.8
G1X-0.2S0
G1X-0.1S0.8
G1X-0.7S0
G1X-0.1S0.8
G1X-2.6S0
G1X-0.1S0.8
G1X-0.2S0
G1X-0.1S0.8
G1X-0.3S0
G1X-0.1S0.8
G1X-0.2S0
G1X-0.1S0.8
G1X-0.6S0
G1X-0.1S0.8
G1X-0.2S0
G1X-0.1S0.8
G1X-1.3S0
G1X-0.1S0.8
G1X-0.2S0
G1X-0.1S0.8
G1X-2.9S0
G1X-0.1S0.8
G1X-6S0
G1X-0.1S0.8
G1X-0.7S0
G1X-0.1S0.8
G1X-1.3S0
G1X-0.1S0.8
G1X-0.2S0
G1X-0.1S0.8
G1X-0.2S0
G1X-0.1S0.8
G1X-0.2S0
G1X-0.1S0.8
G1X-0.8S0
G1X-0.1S0.8
G1X-0.7S0
G1X-0.1S0.8
G1X-0.2S0
G1X-0.1S0.8
G1X-0.1S0
G1X-0.1S0.8
G1X-0.4S0
G1X-0.1S0.8
G1X-0.2S0
G1X-0.1S0.8
G1X-0.2S0
G1X-0.1S0.8
G1X-0.5S0
G1X-0.1S0.8
G1X-0.5S0
G1X-0.1S0.8
G1X-0.2S0
G1X-0.1S0.8
G1X-0.1S0
G1X-0.1S0.8
G1X-0.1S0
G1X-0.1S0.8
G1X-0.2S0
G1X-0.1S0.8
G1X-0.2S0
G1X-0.1S0.8
G1X-0.2S0
G1X-0.1S0.8
G1X-0.2S0
G1X-0.1S0.8
G1X-0.4S0
G1X-0.1S0.8
G1X-0.1S0
G1X-0.1S0.8
G1X-0.2S0
G1X-0.1S0.8
G1X-0.2S0
G1X-0.1S0.8
G1X-0.2S0
G1X-0.1S0.8
G1X-0.2S0
G1X-0.1S0.8
G1X-0.1S0
G1X-0.1S0.8
G1X-0.2S0
G1X-0.1S0.8
G1X-0.2S0
G1X-0.1S0.8
G1X-0.2S0
G1X-0.1S0.8
G1X-0.2S0
G1X-0.1S0.8
G1X-0.2S0
G1X-0.1S0.8
G1X-0.2S0
G1X-0.1S0.8
G1X-0.2S0
G1X-0.1S0.8
G1X-0.2S0
G1X-0.1S0.8
G1X-0.2S0
G1X-0.1S0.8
G1X-0.2S0
G1X-0.1S0.8
G1X-0.2S0
G1X-0.1S0.8
G1X-0.2S0
G1X-0.1S0.8
G1X-0.2S0
G1X-0.1S0.8
G1X-0.2S0
G1X-0.1S0.8
G1X-0.6S0
G1X-0.1S0.8
G1X-0.2S0
G1X-0.1S0.8
G1X-0.3S0
G1X-0.1S0.8
G1X-0.2S0
G1X-0.1S0.8
G1X-1.9S0
G1X-0.1S0.8
G1X-0.8S0
G1X-0.1S0.8
G1X-0.8S0
G1X-0.1S0.8
G1X-0.2S0
G1X-0.1S0.8
G1X-0.8S0
G1X-0.1S0.8
G1X-0.3S0
G1X-0.1S0.8
G1X-0.7S0
G1X-0.1S0.8
G1X-1.7S0
G1X-0.1S0.8
G1X-0.6S0
G1X-0.1S0.8
G1X-2.5S0
G1X-0.1S0.8
G1X-0.2S0
G1X-0.1S0.8
G1X-0.3S0
G1X-0.1S0.8
G1X-2.2S0
G1X-0.1S0.8
G1X-0.2S0
G1X-0.1S0.8
G1X-0.7Y0.1S0
G1X0.1S0.8
G1X0.2S0
G1X0.1S0.8
G1X0.9S0
G1X0.1S0.8
G1X0.2S0
G1X0.1S0.8
G1X0.5S0
G1X0.1S0.8
G1X3.1S0
G1X0.1S0.8
G1X0.6S0
G1X0.1S0.8
G1X1.7S0
G1X0.1S0.8
G1X2.6S0
G1X0.1S0.8
G1X1.1S0
G1X0.1S0.8
G1X0.2S0
G1X0.1S0.8
G1X1.5S0
G1X0.1S0.8
G1X1S0
G1X0.1S0.8
G1X0.2S0
G1X0.1S0.8
G1X1.5S0
G1X0.1S0.8
G1X4.1S0
G1X0.1S0.8
G1X0.7S0
G1X0.1S0.8
G1X0.4S0
G1X0.1S0.8
G1X0.2S0
G1X0.1S0.8
G1X0.3S0
G1X0.1S0.8
G1X0.9S0
G1X0.1S0.8
G1X0.2S0
G1X0.1S0.8
G1X0.2S0
G1X0.1S0.8
G1X0.2S0
G1X0.1S0.8
G1X0.2S0
G1X0.1S0.8
G1X0.2S0
G1X0.2S0.8
G1X0.4S0
G1X0.1S0.8
G1X0.6S0
G1X0.1S0.8
G1X1.5S0
G1X0.1S0.8
G1X0.6S0
G1X0.1S0.8
G1X0.2S0
G1X0.1S0.8
G1X1.7S0
G1X0.1S0.8
G1X0.4S0
G1X0.1S0.8
G1X0.5S0
G1X0.1S0.8
G1X0.2S0
G1X0.1S0.8
G1X0.4S0
G1X0.1S0.8
G1X0.8S0
G1X0.1S0.8
G1X0.2S0
G1X0.1S0.8
G1X0.2S0
G1X0.1S0.8
G1X0.3S0
G1X0.1S0.8
G1X0.2S0
G1X0.1S0.8
G1X0.2S0
G1X0.1S0.8
G1X1S0
G1X0.1S0.8
G1X0.2S0
G1X0.1S0.8
G1X0.2S0
G1X0.1S0.8
G1X1.9S0
G1X0.1S0.8
G1X0.2S0
G1X0.1S0.8
G1X0.2S0
G1X0.1S0.8
G1X2.6S0
G1X0.1S0.8
G1X1.6S0
G1X0.1S0.8
G1X1.6S0
G1X0.1S0.8
G1X1.3S0
G1X0.1S0.8
G1X0.2S0
G1X0.1S0.8
G1X2.5S0
G1X0.1S0.8
G1X2.4S0
G1X0.1S0.8
G1X1.4S0
G1X0.1S0.8
G1X1.9S0
G1X0.1S0.8
G1X0.2S0
G1X0.1S0.8
G1X1.2S0
G1X0.1S0.8
G1X0.5S0
G1X0.1S0.8
G1X2S0
G1X0.1S0.8
G1X0.6S0
G1X0.1S0.8
G1X0.3S0
G1X0.1S0.8
G1X0.7S0
G1X0.1S0.8
G1X0.3S0
G1X0.1S0.8
G1X0.2S0
G1X0.1S0.8
G1X0.2S0
G1X0.1S0.8
G1X0.7S0
G1X0.1S0.8
G1X0.5S0
G1X0.1S0.8
G1X0.7S0
G1X0.1S0.8
G1X1S0
G1X0.1S0.8
G1X0.2S0
G1X0.1S0.8
G1X1S0
G1X0.1S0.8
G1X1S0
G1X0.1S0.8
G1X0.2S0
G1X0.1S0.8
G1X0.2S0
G1X0.1S0.8
G1X0.2S0
G1X0.1S0.8
G1X0.6S0
G1X0.1S0.8
G1X0.1S0
G1X0.1S0.8
G1X0.3S0
G1X0.1S0.8
G1X1.6S0
G1X0.1S0.8
G1X0.2S0
G1X0.1S0.8
G1X0.2S0
G1X0.1S0.8
G1X0.2S0
G1X0.1S0.8
G1X1.9S0
G1X0.1S0.8
G1X0.2S0
G1X0.1S0.8
G1X0.2S0
G1X0.1S0.8
G1X1S0
G1X0.1S0.8
G1X0.2S0
G1X0.1S0.8
G1X5S0
G1X0.1S0.8
G1X1.2S0
G1X0.1S0.8
G1X0.2S0
G1X0.1S0.8
G1X-0.9Y0.1S0
G1X-0.1S0.8
G1X-0.2S0
G1X-0.1S0.8
G1X-1S0
G1X-0.1S0.8
G1X-0.8S0
G1X-0.1S0.8
G1X-0.4S0
G1X-0.1S0.8
G1X-0.4S0
G1X-0.1S0.8
G1X-0.5S0
G1X-0.1S0.8
G1X-0.6S0
G1X-0.1S0.8
G1X-0.7S0
G1X-0.1S0.8
G1X-3.1S0
G1X-0.1S0.8
G1X-0.2S0
G1X-0.1S0.8
G1X-0.2S0
G1X-0.1S0.8
G1X-0.2S0
G1X-0.1S0.8
G1X-1.9S0
G1X-0.1S0.8
G1X-0.2S0
G1X-0.1S0.8
G1X-0.2S0
G1X-0.1S0.8
G1X-1.1S0
G1X-0.1S0.8
G1X-1.7S0
G1X-0.1S0.8
G1X-0.2S0
G1X-0.1S0.8
G1X-1.1S0
G1X-0.1S0.8
G1X-0.9S0
G1X-0.1S0.8
G1X-0.2S0
G1X-0.1S0.8
G1X-0.4S0
G1X-0.1S0.8
G1X-0.2S0
G1X-0.1S0.8
G1X-0.6S0
G1X-0.1S0.8
G1X-0.5S0
G1X-0.1S0.8
G1X-0.2S0
G1X-0.1S0.8
G1X-1.3S0
G1X-0.1S0.8
G1X-0.2S0
G1X-0.1S0.8
G1X-0.9S0
G1X-0.1S0.8
G1X-0.5S0
G1X-0.1S0.8
G1X-0.4S0
G1X-0.1S0.8
G1X-0.2S0
G1X-0.1S0.8
G1X-0.7S0
G1X-0.1S0.8
G1X-1.2S0
G1X-0.1S0.8
G1X-0.3S0
G1X-0.1S0.8
G1X-0.2S0
G1X-0.1S0.8
G1X-1.4S0
G1X-0.1S0.8
G1X-0.2S0
G1X-0.1S0.8
G1X-0.2S0
G1X-0.1S0.8
G1X-0.7S0
G1X-0.1S0.8
G1X-0.2S0
G1X-0.1S0.8
G1X-0.3S0
G1X-0.1S0.8
G1X-1.1S0
G1X-0.1S0.8
G1X-0.2S0
G1X-0.1S0.8
G1X-0.3S0
G1X-0.1S0.8
G1X-0.5S0
G1X-0.1S0.8
G1X-0.5S0
G1X-0.1S0.8
G1X-0.9S0
G1X-0.1S0.8
G1X-0.2S0
G1X-0.1S0.8
G1X-0.4S0
G1X-0.1S0.8
G1X-0.2S0
G1X-0.1S0.8
G1X-0.6S0
G1X-0.1S0.8
G1X-0.2S0
G1X-0.1S0.8
G1X-0.2S0
G1X-0.1S0.8
G1X-0.2S0
G1X-0.1S0.8
G1X-1.1S0
G1X-0.1S0.8
G1X-0.5S0
G1X-0.1S0.8
G1X-0.9S0
G1X-0.1S0.8
G1X-0.2S0
G1X-0.1S0.8
G1X-0.2S0
G1X-0.1S0.8
G1X-1.1S0
G1X-0.1S0.8
G1X-0.2S0
G1X-0.1S0.8
G1X-0.2S0
G1X-0.1S0.8
G1X-0.2S0
G1X-0.1S0.8
G1X-0.2S0
G1X-0.1S0.8
G1X-0.2S0
G1X-0.1S0.8
G1X-1.3S0
G1X-0.1S0.8
G1X-0.2S0
G1X-0.1S0.8
G1X-0.2S0
G1X-0.1S0.8
G1X-0.2S0
G1X-0.1S0.8
G1X-0.2S0
G1X-0.1S0.8
G1X-1.1S0
G1X-0.1S0.8
G1X-0.2S0
G1X-0.1S0.8
G1X-0.2S0
G1X-0.1S0.8
G1X-2.1S0
G1X-0.1S0.8
G1X-0.2S0
G1X-0.1S0.8
G1X-1.8S0
G1X-0.1S0.8
G1X-0.4S0
G1X-0.1S0.8
G1X-0.3S0
G1X-0.1S0.8
G1X-0.5S0
G1X-0.1S0.8
G1X-0.2S0
G1X-0.1S0.8
G1X-0.7S0
G1X-0.1S0.8
G1X-0.2S0
G1X-0.1S0.8
G1X-0.5S0
G1X-0.1S0.8
G1X-0.4S0
G1X-0.1S0.8
G1X-0.2S0
G1X-0.1S0.8
G1X-0.6S0
G1X-0.1S0.8
G1X-0.1S0
G1X-0.1S0.8
G1X-0.3S0
G1X-0.1S0.8
G1X-0.5S0
G1X-0.1S0.8
G1X-0.8S0
G1X-0.1S0.8
G1X-0.3S0
G1X-0.1S0.8
G1X-0.2S0
G1X-0.2S0.8
G1X-0.1S0
G1X-0.2S0.8
G1X-0.1S0
G1X-0.1S0.8
G1X-0.9S0
G1X-0.1S0.8
G1X-0.5S0
G1X-0.1S0.8
G1X-0.7S0
G1X-0.1S0.8
G1X-0.2S0
G1X-0.1S0.8
G1X-0.2S0
G1X-0.1S0.8
G1X-0.2S0
G1X-0.1S0.8
G1X-0.2S0
G1X-0.1S0.8
G1X-0.2S0
G1X-0.1S0.8
G1X-0.2S0
G1X-0.1S0.8
G1X-0.2S0
G1X-0.1S0.8
G1X-0.2S0
G1X-0.1S0.8
G1X-0.2S0
G1X-0.1S0.8
G1X-0.2S0
G1X-0.1S0.8
G1X-0.3S0
G1X-0.1S0.8
G1X-0.6S0
G1X-0.1S0.8
G1X-0.3S0
G1X-0.1S0.8
G1X-0.2S0
G1X-0.1S0.8
G1X-1S0
G1X-0.1S0.8
G1X-0.2S0
G1X-0.1S0.8
G1X-0.2S0
G1X-0.1S0.8
G1X-1.1S0
G1X-0.1S0.8
G1X-3S0
G1X-0.1S0.8
G1X-0.2S0
G1X-0.1S0.8
G1X-0.6S0
G1X-0.1S0.8
G1X-1.7S0
G1X-0.1S0.8
G1X-0.4S0
G1X-0.1S0.8
G1X-0.6S0
G1X-0.1S0.8
G1X-0.5S0
G1X-0.1S0.8
G1X-1.9S0
G1X-0.1S0.8
G1X-0.2S0
G1X-0.1S0.8
G1X-0.2S0
G1X-0.1S0.8
G1X-2.8S0
G1X-0.1S0.8
G1X1Y0.1S0
G1X0.1S0.8
G1X0.3S0
G1X0.1S0.8
G1X0.8S0
G1X0.1S0.8
G1X1.6S0
G1X0.1S0.8
G1X0.7S0
G1X0.1S0.8
G1X0.2S0
G1X0.1S0.8
G1X2.7S0
G1X0.1S0.8
G1X0.6S0
G1X0.1S0.8
G1X0.7S0
G1X0.1S0.8
G1X1.1S0
G1X0.1S0.8
G1X0.6S0
G1X0.1S0.8
G1X0.4S0
G1X0.1S0.8
G1X1.6S0
G1X0.1S0.8
G1X2.1S0
G1X0.1S0.8
G1X0.2S0
G1X0.1S0.8
G1X1.1S0
G1X0.1S0.8
G1X0.5S0
G1X0.1S0.8
G1X3.1S0
G1X0.1S0.8
G1X0.2S0
G1X0.1S0.8
G1X0.2S0
G1X0.1S0.8
G1X0.2S0
G1X0.1S0.8
G1X0.4S0
G1X0.1S0.8
G1X0.2S0
G1X0.1S0.8
G1X0.2S0
G1X0.1S0.8
G1X0.9S0
G1X0.1S0.8
G1X0.2S0
G1X0.1S0.8
G1X0.2S0
G1X0.1S0.8
G1X0.1S0
G1X0.2S0.8
G1X0.1S0
G1X0.1S0.8
G1X0.1S0
G1X0.1S0.8
G1X0.4S0
G1X0.1S0.8
G1X0.3S0
G1X0.1S0.8
G1X0.5S0
G1X0.1S0.8
G1X0.2S0
G1X0.1S0.8
G1X0.7S0
G1X0.1S0.8
G1X0.3S0
G1X0.1S0.8
G1X0.1S0
G1X0.1S0.8
G1X0.9S0
G1X0.1S0.8
G1X0.8S0
G1X0.1S0.8
G1X1.6S0
G1X0.1S0.8
G1X0.2S0
G1X0.1S0.8
G1X0.6S0
G1X0.1S0.8
G1X0.9S0
G1X0.1S0.8
G1X0.8S0
G1X0.1S0.8
G1X0.4S0
G1X0.1S0.8
G1X3.8S0
G1X0.1S0.8
G1X2.8S0
G1X0.1S0.8
G1X0.2S0
G1X0.1S0.8
G1X1.4S0
G1X0.1S0.8
G1X0.2S0
G1X0.1S0.8
G1X0.6S0
G1X0.1S0.8
G1X0.5S0
G1X0.1S0.8
G1X0.2S0
G1X0.1S0.8
G1X3.5S0
G1X0.1S0.8
G1X0.2S0
G1X0.1S0.8
G1X1.2S0
G1X0.1S0.8
G1X1.2S0
G1X0.1S0.8
G1X0.2S0
G1X0.1S0.8
G1X1.5S0
G1X0.1S0.8
G1X1.3S0
G1X0.1S0.8
G1X0.2S0
G1X0.1S0.8
G1X0.2S0
G1X0.1S0.8
G1X1.4S0
G1X0.1S0.8
G1X0.3S0
G1X0.1S0.8
G1X0.2S0
G1X0.1S0.8
G1X0.6S0
G1X0.1S0.8
G1X0.2S0
G1X0.1S0.8
G1X0.7S0
G1X0.1S0.8
G1X0.9S0
G1X0.1S0.8
G1X0.2S0
G1X0.1S0.8
G1X1S0
G1X0.1S0.8
G1X0.2S0
G1X0.1S0.8
G1X0.4S0
G1X0.1S0.8
G1X0.6S0
G1X0.1S0.8
G1X0.6S0
G1X0.1S0.8
G1X1.8S0
G1X0.1S0.8
G1X0.9S0
G1X0.1S0.8
G1X0.2S0
G1X0.1S0.8
G1X1S0
G1X0.1S0.8
G1X0.4S0
G1X0.1S0.8
G1X0.2S0
G1X0.1S0.8
G1X0.2S0
G1X0.1S0.8
G1X0.3S0
G1X0.1S0.8
G1X0.6S0
G1X0.1S0.8
G1X1.5S0
G1X0.1S0.8
G1X1S0
G1X0.1S0.8
G1X1.6S0
G1X0.1S0.8
G1X0.2S0
G1X0.1S0.8
G1X0.5S0
G1X0.1S0.8
G1X0.4S0
G1X0.1S0.8
G1X0.2S0
G1X0.1S0.8
G1X0.2S0
G1X0.1S0.8
G1X1.1S0
G1X0.1S0.8
G1X0.8S0
G1X0.1S0.8
G1X4.4S0
G1X0.1S0.8
G1X0.2S0
G1X0.1S0.8
G1X0.2Y0.1S0
G1X-0.1S0.8
G1X-1.6S0
G1X-0.1S0.8
G1X-0.9S0
G1X-0.1S0.8
G1X-3.6S0
G1X-0.1S0.8
G1X-0.3S0
G1X-0.1S0.8
G1X-1.6S0
G1X-0.1S0.8
G1X-1.3S0
G1X-0.1S0.8
G1X-0.5S0
G1X-0.1S0.8
G1X-0.4S0
G1X-0.1S0.8
G1X-0.2S0
G1X-0.1S0.8
G1X-0.2S0
G1X-0.1S0.8
G1X-1.4S0
G1X-0.1S0.8
G1X-0.2S0
G1X-0.1S0.8
G1X-0.4S0
G1X-0.1S0.8
G1X-0.3S0
G1X-0.1S0.8
G1X-1S0
G1X-0.1S0.8
G1X-1S0
G1X-0.1S0.8
G1X-1S0
G1X-0.1S0.8
G1X-0.2S0
G1X-0.1S0.8
G1X-0.6S0
G1X-0.1S0.8
G1X-0.3S0
G1X-0.1S0.8
G1X-0.2S0
G1X-0.1S0.8
G1X-0.4S0
G1X-0.1S0.8
G1X-0.6S0
G1X-0.1S0.8
G1X-1.1S0
G1X-0.1S0.8
G1X-0.8S0
G1X-0.1S0.8
G1X-0.4S0
G1X-0.1S0.8
G1X-0.9S0
G1X-0.1S0.8
G1X-1.9S0
G1X-0.1S0.8
G1X-1.2S0
G1X-0.1S0.8
G1X-0.2S0
G1X-0.1S0.8
G1X-0.3S0
G1X-0.1S0.8
G1X-0.2S0
G1X-0.1S0.8
G1X-1.8S0
G1X-0.1S0.8
G1X-1S0
G1X-0.1S0.8
G1X-0.4S0
G1X-0.1S0.8
G1X-1.3S0
G1X-0.1S0.8
G1X-1.1S0
G1X-0.1S0.8
G1X-0.3S0
G1X-0.1S0.8
G1X-1.1S0
G1X-0.1S0.8
G1X-0.2S0
G1X-0.1S0.8
G1X-0.7S0
G1X-0.1S0.8
G1X-1.4S0
G1X-0.1S0.8
G1X-1.5S0
G1X-0.1S0.8
G1X-1S0
G1X-0.1S0.8
G1X-0.7S0
G1X-0.1S0.8
G1X-2.4S0
G1X-0.1S0.8
G1X-0.2S0
G1X-0.1S0.8
G1X-0.2S0
G1X-0.1S0.8
G1X-1.8S0
G1X-0.1S0.8
G1X-0.2S0
G1X-0.1S0.8
G1X-0.2S0
G1X-0.1S0.8
G1X-0.2S0
G1X-0.1S0.8
G1X-1S0
G1X-0.1S0.8
G1X-0.5S0
G1X-0.1S0.8
G1X-0.4S0
G1X-0.1S0.8
G1X-0.2S0
G1X-0.1S0.8
G1X-0.9S0
G1X-0.1S0.8
G1X-0.4S0
G1X-0.1S0.8
G1X-0.2S0
G1X-0.1S0.8
G1X-0.9S0
G1X-0.1S0.8
G1X-0.2S0
G1X-0.1S0.8
G1X-0.3S0
G1X-0.1S0.8
G1X-0.2S0
G1X-0.1S0.8
G1X-0.4S0
G1X-0.1S0.8
G1X-0.3S0
G1X-0.1S0.8
G1X-0.6S0
G1X-0.1S0.8
G1X-1.4S0
G1X-0.1S0.8
G1X-0.2S0
G1X-0.1S0.8
G1X-0.8S0
G1X-0.1S0.8
G1X-0.4S0
G1X-0.1S0.8
G1X-0.2S0
G1X-0.1S0.8
G1X-0.2S0
G1X-0.1S0.8
G1X-0.8S0
G1X-0.1S0.8
G1X-0.2S0
G1X-0.1S0.8
G1X-0.3S0
G1X-0.1S0.8
G1X-0.2S0
G1X-0.1S0.8
G1X-0.2S0
G1X-0.1S0.8
G1X-0.2S0
G1X-0.1S0.8
G1X-0.6S0
G1X-0.1S0.8
G1X-1.4S0
G1X-0.1S0.8
G1X-0.2S0
G1X-0.1S0.8
G1X-0.2S0
G1X-0.1S0.8
G1X-0.2S0
G1X-0.1S0.8
G1X-0.3S0
G1X-0.1S0.8
G1X-0.2S0
G1X-0.1S0.8
G1X-0.2S0
G1X-0.1S0.8
G1X-0.2S0
G1X-0.1S0.8
G1X-0.6S0
G1X-0.1S0.8
G1X-0.4S0
G1X-0.1S0.8
G1X-0.2S0
G1X-0.1S0.8
G1X-0.2S0
G1X-0.1S0.8
G1X-0.9S0
G1X-0.1S0.8
G1X-0.2S0
G1X-0.1S0.8
G1X-1S0
G1X-0.1S0.8
G1X-0.2S0
G1X-0.1S0.8
G1X-0.7S0
G1X-0.1S0.8
G1X-0.2S0
G1X-0.1S0.8
G1X-3.7S0
G1X-0.1S0.8
G1X-0.6S0
G1X-0.1S0.8
G1X-0.5S0
G1X-0.1S0.8
G1X-1.1S0
G1X-0.1S0.8
G1X-1.9S0
G1X-0.1S0.8
G1X-3.7S0
G1X-0.1S0.8
G1X-0.3S0
G1X-0.1S0.8
G1X1.5Y0.1S0
G1X0.1S0.8
G1X0.2S0
G1X0.1S0.8
G1X0.5S0
G1X0.1S0.8
G1X1S0
G1X0.1S0.8
G1X1.8S0
G1X0.1S0.8
G1X0.3S0
G1X0.1S0.8
G1X0.8S0
G1X0.1S0.8
G1X0.2S0
G1X0.1S0.8
G1X2.9S0
G1X0.1S0.8
G1X0.6S0
G1X0.1S0.8
G1X0.6S0
G1X0.1S0.8
G1X0.4S0
G1X0.1S0.8
G1X0.2S0
G1X0.1S0.8
G1X1.9S0
G1X0.1S0.8
G1X0.2S0
G1X0.1S0.8
G1X0.2S0
G1X0.1S0.8
G1X1S0
G1X0.1S0.8
G1X1.3S0
G1X0.1S0.8
G1X0.4S0
G1X0.1S0.8
G1X1.4S0
G1X0.1S0.8
G1X1S0
G1X0.1S0.8
G1X0.1S0
G1X0.1S0.8
G1X0.2S0
G1X0.1S0.8
G1X0.2S0
G1X0.1S0.8
G1X0.6S0
G1X0.1S0.8
G1X0.2S0
G1X0.1S0.8
G1X0.7S0
G1X0.1S0.8
G1X0.2S0
G1X0.1S0.8
G1X0.2S0
G1X0.1S0.8
G1X0.2S0
G1X0.1S0.8
G1X0.2S0
G1X0.1S0.8
G1X0.1S0
G1X0.1S0.8
G1X0.2S0
G1X0.1S0.8
G1X0.5S0
G1X0.1S0.8
G1X0.4S0
G1X0.1S0.8
G1X0.4S0
G1X0.1S0.8
G1X0.1S0
G1X0.1S0.8
G1X0.2S0
G1X0.1S0.8
G1X0.5S0
G1X0.1S0.8
G1X0.3S0
G1X0.1S0.8
G1X0.5S0
G1X0.1S0.8
G1X0.5S0
G1X0.1S0.8
G1X1.9S0
G1X0.1S0.8
G1X0.5S0
G1X0.1S0.8
G1X0.3S0
G1X0.1S0.8
G1X1.4S0
G1X0.1S0.8
G1X0.2S0
G1X0.1S0.8
G1X1.9S0
G1X0.1S0.8
G1X0.2S0
G1X0.1S0.8
G1X0.2S0
G1X0.1S0.8
G1X1.4S0
G1X0.1S0.8
G1X0.2S0
G1X0.1S0.8
G1X0.2S0
G1X0.1S0.8
G1X0.2S0
G1X0.1S0.8
G1X1.5S0
G1X0.1S0.8
G1X0.2S0
G1X0.1S0.8
G1X0.2S0
G1X0.1S0.8
G1X0.2S0
G1X0.1S0.8
G1X0.2S0
G1X0.1S0.8
G1X0.2S0
G1X0.1S0.8
G1X0.9S0
G1X0.1S0.8
G1X0.7S0
G1X0.1S0.8
G1X0.3S0
G1X0.1S0.8
G1X0.9S0
G1X0.1S0.8
G1X1.2S0
G1X0.1S0.8
G1X0.2S0
G1X0.1S0.8
G1X0.2S0
G1X0.1S0.8
G1X0.2S0
G1X0.1S0.8
G1X0.5S0
G1X0.1S0.8
G1X0.2S0
G1X0.1S0.8
G1X0.7S0
G1X0.1S0.8
G1X0.2S0
G1X0.1S0.8
G1X1.1S0
G1X0.1S0.8
G1X0.2S0
G1X0.1S0.8
G1X0.3S0
G1X0.1S0.8
G1X0.5S0
G1X0.1S0.8
G1X0.2S0
G1X0.1S0.8
G1X1S0
G1X0.1S0.8
G1X0.4S0
G1X0.1S0.8
G1X0.2S0
G1X0.1S0.8
G1X0.7S0
G1X0.1S0.8
G1X0.2S0
G1X0.1S0.8
G1X0.2S0
G1X0.1S0.8
G1X0.3S0
G1X0.1S0.8
G1X1.9S0
G1X0.1S0.8
G1X0.4S0
G1X0.1S0.8
G1X0.6S0
G1X0.1S0.8
G1X0.5S0
G1X0.1S0.8
G1X0.2S0
G1X0.1S0.8
G1X0.9S0
G1X0.1S0.8
G1X0.9S0
G1X0.1S0.8
G1X0.5S0
G1X0.1S0.8
G1X0.9S0
G1X0.1S0.8
G1X0.2S0
G1X0.1S0.8
G1X0.6S0
G1X0.1S0.8
G1X0.6S0
G1X0.1S0.8
G1X1.1S0
G1X0.1S0.8
G1X2.1S0
G1X0.1S0.8
G1X0.2S0
G1X0.1S0.8
G1X1S0
G1X0.1S0.8
G1X0.9S0
G1X0.1S0.8
G1X0.8S0
G1X0.1S0.8
G1X0.2S0
G1X0.1S0.8
G1X0.2S0
G1X0.1S0.8
G1X2S0
G1X0.1S0.8
G1X0.5S0
G1X0.1S0.8
G1X0.2S0
G1X0.1S0.8
G1X1.1S0
G1X0.1S0.8
G1X0.2S0
G1X0.1S0.8
G1X2.1S0
G1X0.1S0.8
G1X0.2S0
G1X0.1S0.8
G1X0.7S0
G1X0.1S0.8
G1X0.5S0
G1X0.1S0.8
G1X0.5S0
G1X0.1S0.8
G1X1.9S0
G1X0.1S0.8
G1X0.8S0
G1X0.1S0.8
G1X0.1Y0.1S0
G1X-0.1S0.8
G1X-0.5S0
G1X-0.1S0.8
G1X-1S0
G1X-0.1S0.8
G1X-0.3S0
G1X-0.1S0.8
G1X-1.7S0
G1X-0.1S0.8
G1X-1.8S0
G1X-0.1S0.8
G1X-1S0
G1X-0.1S0.8
G1X-0.2S0
G1X-0.1S0.8
G1X-0.8S0
G1X-0.1S0.8
G1X-0.2S0
G1X-0.1S0.8
G1X-0.2S0
G1X-0.1S0.8
G1X-1.6S0
G1X-0.1S0.8
G1X-1.2S0
G1X-0.1S0.8
G1X-1.4S0
G1X-0.1S0.8
G1X-0.5S0
G1X-0.1S0.8
G1X-0.4S0
G1X-0.1S0.8
G1X-0.5S0
G1X-0.1S0.8
G1X-0.3S0
G1X-0.1S0.8
G1X-1.1S0
G1X-0.1S0.8
G1X-0.2S0
G1X-0.1S0.8
G1X-0.2S0
G1X-0.1S0.8
G1X-0.6S0
G1X-0.1S0.8
G1X-0.7S0
G1X-0.1S0.8
G1X-1.1S0
G1X-0.1S0.8
G1X-0.4S0
G1X-0.1S0.8
G1X-0.2S0
G1X-0.1S0.8
G1X-0.8S0
G1X-0.1S0.8
G1X-0.2S0
G1X-0.1S0.8
G1X-1.1S0
G1X-0.1S0.8
G1X-0.2S0
G1X-0.1S0.8
G1X-0.6S0
G1X-0.1S0.8
G1X-0.2S0
G1X-0.1S0.8
G1X-0.9S0
G1X-0.1S0.8
G1X-1.1S0
G1X-0.1S0.8
G1X-0.6S0
G1X-0.1S0.8
G1X-0.4S0
G1X-0.1S0.8
G1X-0.4S0
G1X-0.1S0.8
G1X-0.2S0
G1X-0.1S0.8
G1X-1.6S0
G1X-0.1S0.8
G1X-1.5S0
G1X-0.1S0.8
G1X-0.2S0
G1X-0.1S0.8
G1X-2.2S0
G1X-0.1S0.8
G1X-0.4S0
G1X-0.1S0.8
G1X-3.8S0
G1X-0.1S0.8
G1X-0.2S0
G1X-0.1S0.8
G1X-0.6S0
G1X-0.1S0.8
G1X-0.2S0
G1X-0.1S0.8
G1X-1.2S0
G1X-0.1S0.8
G1X-0.5S0
G1X-0.1S0.8
G1X-0.2S0
G1X-0.1S0.8
G1X-3S0
G1X-0.1S0.8
G1X-3.5S0
G1X-0.1S0.8
G1X-0.2S0
G1X-0.1S0.8
G1X-0.5S0
G1X-0.1S0.8
G1X-0.4S0
G1X-0.1S0.8
G1X-1.1S0
G1X-0.1S0.8
G1X-0.2S0
G1X-0.1S0.8
G1X-2.2S0
G1X-0.1S0.8
G1X-0.2S0
G1X-0.1S0.8
G1X-0.3S0
G1X-0.1S0.8
G1X-0.3S0
G1X-0.1S0.8
G1X-0.5S0
G1X-0.1S0.8
G1X-0.2S0
G1X-0.1S0.8
G1X-0.2S0
G1X-0.1S0.8
G1X-0.2S0
G1X-0.1S0.8
G1X-1.7S0
G1X-0.1S0.8
G1X-0.3S0
G1X-0.1S0.8
G1X-0.4S0
G1X-0.1S0.8
G1X-0.1S0
G1X-0.1S0.8
G1X-0.2S0
G1X-0.1S0.8
G1X-0.2S0
G1X-0.1S0.8
G1X-0.3S0
G1X-0.1S0.8
G1X-0.2S0
G1X-0.1S0.8
G1X-0.6S0
G1X-0.1S0.8
G1X-0.2S0
G1X-0.1S0.8
G1X-0.2S0
G1X-0.1S0.8
G1X-0.6S0
G1X-0.1S0.8
G1X-0.1S0
G1X-0.1S0.8
G1X-1.1S0
G1X-0.1S0.8
G1X-0.2S0
G1X-0.1S0.8
G1X-0.9S0
G1X-0.1S0.8
G1X-0.2S0
G1X-0.1S0.8
G1X-0.2S0
G1X-0.1S0.8
G1X-1.1S0
G1X-0.1S0.8
G1X-0.5S0
G1X-0.1S0.8
G1X-0.2S0
G1X-0.1S0.8
G1X-0.3S0
G1X-0.1S0.8
G1X-0.2S0
G1X-0.1S0.8
G1X-2.1S0
G1X-0.1S0.8
G1X-2.1S0
G1X-0.1S0.8
G1X-0.6S0
G1X-0.1S0.8
G1X-0.5S0
G1X-0.1S0.8
G1X-0.2S0
G1X-0.1S0.8
G1X-0.2S0
G1X-0.1S0.8
G1X-4S0
G1X-0.1S0.8
G1X-1S0
G1X-0.1S0.8
G1X-0.8S0
G1X-0.1S0.8
G1X-0.2S0
G1X-0.1S0.8
G1X-1.6S0
G1X-0.1S0.8
G1X-0.2S0
G1X-0.1S0.8
G1X-0.8S0
G1X-0.1S0.8
G1X0.3Y0.1S0
G1X0.1S0.8
G1X0.2S0
G1X0.1S0.8
G1X1.6S0
G1X0.1S0.8
G1X2.2S0
G1X0.1S0.8
G1X0.2S0
G1X0.1S0.8
G1X1.3S0
G1X0.1S0.8
G1X0.2S0
G1X0.1S0.8
G1X0.9S0
G1X0.1S0.8
G1X0.3S0
G1X0.1S0.8
G1X0.3S0
G1X0.1S0.8
G1X0.2S0
G1X0.1S0.8
G1X4.3S0
G1X0.1S0.8
G1X0.5S0
G1X0.1S0.8
G1X0.3S0
G1X0.1S0.8
G1X0.4S0
G1X0.1S0.8
G1X0.4S0
G1X0.1S0.8
G1X0.2S0
G1X0.1S0.8
G1X1.3S0
G1X0.1S0.8
G1X0.8S0
G1X0.1S0.8
G1X0.2S0
G1X0.1S0.8
G1X0.2S0
G1X0.1S0.8
G1X0.8S0
G1X0.1S0.8
G1X0.3S0
G1X0.1S0.8
G1X0.2S0
G1X0.1S0.8
G1X0.9S0
G1X0.1S0.8
G1X0.2S0
G1X0.1S0.8
G1X0.5S0
G1X0.1S0.8
G1X0.2S0
G1X0.1S0.8
G1X0.5S0
G1X0.1S0.8
G1X0.2S0
G1X0.1S0.8
G1X0.2S0
G1X0.2S0.8
G1X0.2S0
G1X0.1S0.8
G1X0.2S0
G1X0.1S0.8
G1X0.2S0
G1X0.1S0.8
G1X0.3S0
G1X0.1S0.8
G1X0.3S0
G1X0.1S0.8
G1X0.2S0
G1X0.1S0.8
G1X0.3S0
G1X0.1S0.8
G1X0.3S0
G1X0.1S0.8
G1X0.2S0
G1X0.1S0.8
G1X0.2S0
G1X0.1S0.8
G1X0.2S0
G1X0.1S0.8
G1X0.1S0
G1X0.1S0.8
G1X0.2S0
G1X0.1S0.8
G1X1.3S0
G1X0.1S0.8
G1X0.4S0
G1X0.1S0.8
G1X1.1S0
G1X0.1S0.8
G1X0.1S0
G1X0.1S0.8
G1X0.4S0
G1X0.1S0.8
G1X0.2S0
G1X0.1S0.8
G1X0.2S0
G1X0.1S0.8
G1X0.3S0
G1X0.1S0.8
G1X0.9S0
G1X0.1S0.8
G1X1.1S0
G1X0.1S0.8
G1X0.4S0
G1X0.1S0.8
G1X1.3S0
G1X0.1S0.8
G1X0.2S0
G1X0.1S0.8
G1X0.2S0
G1X0.1S0.8
G1X0.2S0
G1X0.1S0.8
G1X0.2S0
G1X0.1S0.8
G1X0.2S0
G1X0.1S0.8
G1X1.5S0
G1X0.1S0.8
G1X0.2S0
G1X0.1S0.8
G1X0.2S0
G1X0.1S0.8
G1X3.2S0
G1X0.1S0.8
G1X0.2S0
G1X0.1S0.8
G1X0.3S0
G1X0.1S0.8
G1X0.9S0
G1X0.1S0.8
G1X0.8S0
G1X0.1S0.8
G1X0.2S0
G1X0.1S0.8
G1X1.2S0
G1X0.1S0.8
G1X0.9S0
G1X0.1S0.8
G1X0.2S0
G1X0.1S0.8
G1X1S0
G1X0.1S0.8
G1X0.9S0
G1X0.1S0.8
G1X0.4S0
G1X0.1S0.8
G1X0.2S0
G1X0.1S0.8
G1X1.2S0
G1X0.1S0.8
G1X0.3S0
G1X0.1S0.8
G1X0.3S0
G1X0.1S0.8
G1X1.3S0
G1X0.1S0.8
G1X0.3S0
G1X0.1S0.8
G1X1.3S0
G1X0.1S0.8
G1X0.4S0
G1X0.1S0.8
G1X0.8S0
G1X0.1S0.8
G1X0.2S0
G1X0.1S0.8
G1X0.7S0
G1X0.1S0.8
G1X2.2S0
G1X0.1S0.8
G1X0.2S0
G1X0.1S0.8
G1X0.2S0
G1X0.1S0.8
G1X0.7S0
G1X0.1S0.8
G1X0.3S0
G1X0.1S0.8
G1X1.2S0
G1X0.1S0.8
G1X0.3S0
G1X0.1S0.8
G1X0.2S0
G1X0.1S0.8
G1X0.4S0
G1X0.1S0.8
G1X0.8S0
G1X0.1S0.8
G1X1.2S0
G1X0.1S0.8
G1X1.4S0
G1X0.1S0.8
G1X0.4S0
G1X0.1S0.8
G1X1.1S0
G1X0.1S0.8
G1X0.2S0
G1X0.1S0.8
G1X1.2S0
G1X0.1S0.8
G1X0.2S0
G1X0.1S0.8
G1X0.2S0
G1X0.1S0.8
G1X0.6S0
G1X0.1S0.8
G1X0.3S0
G1X0.1S0.8
G1X3S0
G1X0.1S0.8
G1X0.2S0
G1X0.1S0.8
G1X0.7S0
G1X0.1S0.8
G1X0.7S0
G1X0.1S0.8
G1X1.3S0
G1X0.1S0.8
G1X0.5S0
G1X0.1S0.8
G1X2.3S0
G1X0.1S0.8
G1X0.4S0
G1X0.1S0.8
G1X0.2S0
G1X0.1S0.8
G1X-1.8Y0.1S0
G1X-0.1S0.8
G1X-3S0
G1X-0.1S0.8
G1X-1.5S0
G1X-0.1S0.8
G1X-1.2S0
G1X-0.1S0.8
G1X-0.2S0
G1X-0.1S0.8
G1X-0.2S0
G1X-0.1S0.8
G1X-0.9S0
G1X-0.1S0.8
G1X-0.2S0
G1X-0.1S0.8
G1X-0.2S0
G1X-0.1S0.8
G1X-2.2S0
G1X-0.1S0.8
G1X-0.2S0
G1X-0.1S0.8
G1X-0.2S0
G1X-0.1S0.8
G1X-0.9S0
G1X-0.1S0.8
G1X-0.2S0
G1X-0.1S0.8
G1X-0.2S0
G1X-0.1S0.8
G1X-0.4S0
G1X-0.1S0.8
G1X-0.5S0
G1X-0.1S0.8
G1X-0.4S0
G1X-0.1S0.8
G1X-0.2S0
G1X-0.1S0.8
G1X-2.1S0
G1X-0.1S0.8
G1X-1.9S0
G1X-0.1S0.8
G1X-2.9S0
G1X-0.1S0.8
G1X-0.3S0
G1X-0.1S0.8
G1X-0.2S0
G1X-0.1S0.8
G1X-0.5S0
G1X-0.1S0.8
G1X-0.2S0
G1X-0.1S0.8
G1X-0.8S0
G1X-0.1S0.8
G1X-0.7S0
G1X-0.1S0.8
G1X-0.3S0
G1X-0.1S0.8
G1X-1.1S0
G1X-0.1S0.8
G1X-1.5S0
G1X-0.1S0.8
G1X-0.2S0
G1X-0.1S0.8
G1X-0.4S0
G1X-0.1S0.8
G1X-1.7S0
G1X-0.1S0.8
G1X-0.2S0
G1X-0.1S0.8
G1X-0.8S0
G1X-0.1S0.8
G1X-0.4S0
G1X-0.1S0.8
G1X-0.2S0
G1X-0.1S0.8
G1X-0.8S0
G1X-0.1S0.8
G1X-0.2S0
G1X-0.1S0.8
G1X-0.9S0
G1X-0.1S0.8
G1X-0.2S0
G1X-0.1S0.8
G1X-0.6S0
G1X-0.1S0.8
G1X-0.2S0
G1X-0.1S0.8
G1X-0.2S0
G1X-0.1S0.8
G1X-3.7S0
G1X-0.1S0.8
G1X-0.5S0
G1X-0.1S0.8
G1X-0.2S0
G1X-0.1S0.8
G1X-0.2S0
G1X-0.1S0.8
G1X-0.2S0
G1X-0.1S0.8
G1X-0.2S0
G1X-0.1S0.8
G1X-0.2S0
G1X-0.1S0.8
G1X-0.2S0
G1X-0.1S0.8
G1X-1.5S0
G1X-0.1S0.8
G1X-0.2S0
G1X-0.1S0.8
G1X-0.2S0
G1X-0.1S0.8
G1X-1.9S0
G1X-0.1S0.8
G1X-0.2S0
G1X-0.1S0.8
G1X-1.7S0
G1X-0.1S0.8
G1X-0.2S0
G1X-0.1S0.8
G1X-0.2S0
G1X-0.1S0.8
G1X-1S0
G1X-0.1S0.8
G1X-1.3S0
G1X-0.1S0.8
G1X-0.7S0
G1X-0.1S0.8
G1X-0.3S0
G1X-0.1S0.8
G1X-1.4S0
G1X-0.1S0.8
G1X-0.2S0
G1X-0.1S0.8
G1X-1.5S0
G1X-0.1S0.8
G1X-0.5S0
G1X-0.1S0.8
G1X-0.4S0
G1X-0.1S0.8
G1X-0.5S0
G1X-0.1S0.8
G1X-0.3S0
G1X-0.1S0.8
G1X-0.2S0
G1X-0.1S0.8
G1X-0.2S0
G1X-0.1S0.8
G1X-0.2S0
G1X-0.1S0.8
G1X-1S0
G1X-0.1S0.8
G1X-0.2S0
G1X-0.1S0.8
G1X-0.7S0
G1X-0.1S0.8
G1X-0.4S0
G1X-0.1S0.8
G1X-0.2S0
G1X-0.1S0.8
G1X-0.2S0
G1X-0.1S0.8
G1X-0.8S0
G1X-0.1S0.8
G1X-0.4S0
G1X-0.1S0.8
G1X-1.4S0
G1X-0.1S0.8
G1X-0.2S0
G1X-0.1S0.8
G1X-0.4S0
G1X-0.1S0.8
G1X-0.4S0
G1X-0.1S0.8
G1X-1.1S0
G1X-0.1S0.8
G1X-1.9S0
G1X-0.1S0.8
G1X-0.3S0
G1X-0.1S0.8
G1X-0.4S0
G1X-0.1S0.8
G1X-0.2S0
G1X-0.1S0.8
G1X-0.6S0
G1X-0.1S0.8
G1X-1.8S0
G1X-0.1S0.8
G1X-1.7S0
G1X-0.1S0.8
G1X-1.1S0
G1X-0.1S0.8
G1X-0.3S0
G1X-0.1S0.8
G1X-2S0
G1X-0.1S0.8
G1X-1.4S0
G1X-0.1S0.8
G1X-0.4S0
G1X-0.1S0.8
G1X-1.5Y0.1S0
G1X0.1S0.8
G1X1.1S0
G1X0.1S0.8
G1X1.3S0
G1X0.1S0.8
G1X0.3S0
G1X0.1S0.8
G1X0.7S0
G1X0.1S0.8
G1X0.3S0
G1X0.1S0.8
G1X2.6S0
G1X0.1S0.8
G1X2.9S0
G1X0.1S0.8
G1X0.3S0
G1X0.1S0.8
G1X3.9S0
G1X0.1S0.8
G1X0.8S0
G1X0.1S0.8
G1X0.3S0
G1X0.1S0.8
G1X0.5S0
G1X0.1S0.8
G1X1.2S0
G1X0.1S0.8
G1X0.2S0
G1X0.1S0.8
G1X0.2S0
G1X0.1S0.8
G1X0.3S0
G1X0.1S0.8
G1X0.4S0
G1X0.1S0.8
G1X0.5S0
G1X0.1S0.8
G1X1.8S0
G1X0.1S0.8
G1X0.2S0
G1X0.1S0.8
G1X0.5S0
G1X0.1S0.8
G1X0.2S0
G1X0.1S0.8
G1X0.1S0
G1X0.1S0.8
G1X0.1S0
G1X0.2S0.8
G1X0.5S0
G1X0.1S0.8
G1X0.2S0
G1X0.1S0.8
G1X0.2S0
G1X0.1S0.8
G1X0.3S0
G1X0.1S0.8
G1X0.2S0
G1X0.1S0.8
G1X0.3S0
G1X0.1S0.8
G1X0.5S0
G1X0.1S0.8
G1X0.6S0
G1X0.1S0.8
G1X0.2S0
G1X0.1S0.8
G1X0.2S0
G1X0.1S0.8
G1X0.2S0
G1X0.1S0.8
G1X0.2S0
G1X0.1S0.8
G1X0.6S0
G1X0.1S0.8
G1X0.3S0
G1X0.1S0.8
G1X0.2S0
G1X0.1S0.8
G1X0.3S0
G1X0.1S0.8
G1X1.7S0
G1X0.1S0.8
G1X0.4S0
G1X0.1S0.8
G1X0.6S0
G1X0.1S0.8
G1X0.2S0
G1X0.1S0.8
G1X2.1S0
G1X0.1S0.8
G1X0.2S0
G1X0.1S0.8
G1X1.8S0
G1X0.1S0.8
G1X1.6S0
G1X0.1S0.8
G1X3.3S0
G1X0.1S0.8
G1X0.5S0
G1X0.1S0.8
G1X1.1S0
G1X0.1S0.8
G1X0.2S0
G1X0.1S0.8
G1X0.2S0
G1X0.1S0.8
G1X0.3S0
G1X0.1S0.8
G1X0.2S0
G1X0.1S0.8
G1X1.8S0
G1X0.1S0.8
G1X0.9S0
G1X0.1S0.8
G1X1.2S0
G1X0.1S0.8
G1X2.8S0
G1X0.1S0.8
G1X0.2S0
G1X0.1S0.8
G1X0.5S0
G1X0.1S0.8
G1X1.8S0
G1X0.1S0.8
G1X0.3S0
G1X0.1S0.8
G1X0.2S0
G1X0.1S0.8
G1X0.5S0
G1X0.1S0.8
G1X0.3S0
G1X0.1S0.8
G1X1.4S0
G1X0.1S0.8
G1X0.5S0
G1X0.1S0.8
G1X1.1S0
G1X0.1S0.8
G1X2.1S0
G1X0.1S0.8
G1X0.2S0
G1X0.1S0.8
G1X0.3S0
G1X0.1S0.8
G1X0.3S0
G1X0.1S0.8
G1X0.2S0
G1X0.1S0.8
G1X0.2S0
G1X0.1S0.8
G1X0.2S0
G1X0.1S0.8
G1X0.3S0
G1X0.1S0.8
G1X0.3S0
G1X0.1S0.8
G1X0.3S0
G1X0.1S0.8
G1X0.8S0
G1X0.1S0.8
G1X0.4S0
G1X0.1S0.8
G1X0.2S0
G1X0.1S0.8
G1X0.2S0
G1X0.1S0.8
G1X3.3S0
G1X0.1S0.8
G1X0.3S0
G1X0.1S0.8
G1X2.2S0
G1X0.1S0.8
G1X0.2S0
G1X0.1S0.8
G1X1.6S0
G1X0.1S0.8
G1X0.2S0
G1X0.1S0.8
G1X1.2S0
G1X0.1S0.8
G1X0.2S0
G1X0.1S0.8
G1X1.4S0
G1X0.1S0.8
G1X2.7S0
G1X0.1S0.8
G1X1.5S0
G1X0.1S0.8
G1X0.7S0
G1X0.1S0.8
G1X0.5Y0.1S0
G1X-0.1S0.8
G1X-0.2S0
G1X-0.1S0.8
G1X-0.5S0
G1X-0.1S0.8
G1X-1.4S0
G1X-0.1S0.8
G1X-1S0
G1X-0.1S0.8
G1X-0.4S0
G1X-0.1S0.8
G1X-0.2S0
G1X-0.1S0.8
G1X-0.2S0
G1X-0.1S0.8
G1X-0.7S0
G1X-0.1S0.8
G1X-0.5S0
G1X-0.1S0.8
G1X-0.2S0
G1X-0.1S0.8
G1X-0.5S0
G1X-0.1S0.8
G1X-1S0
G1X-0.1S0.8
G1X-0.4S0
G1X-0.1S0.8
G1X-1.6S0
G1X-0.1S0.8
G1X-0.2S0
G1X-0.1S0.8
G1X-0.8S0
G1X-0.1S0.8
G1X-0.2S0
G1X-0.1S0.8
G1X-0.2S0
G1X-0.1S0.8
G1X-0.7S0
G1X-0.1S0.8
G1X-0.3S0
G1X-0.1S0.8
G1X-1S0
G1X-0.1S0.8
G1X-0.3S0
G1X-0.1S0.8
G1X-0.3S0
G1X-0.1S0.8
G1X-0.2S0
G1X-0.1S0.8
G1X-0.4S0
G1X-0.1S0.8
G1X-0.9S0
G1X-0.1S0.8
G1X-1.9S0
G1X-0.1S0.8
G1X-1.1S0
G1X-0.1S0.8
G1X-2.6S0
G1X-0.1S0.8
G1X-0.2S0
G1X-0.1S0.8
G1X-0.2S0
G1X-0.1S0.8
G1X-0.4S0
G1X-0.1S0.8
G1X-1.3S0
G1X-0.1S0.8
G1X-0.2S0
G1X-0.1S0.8
G1X-1S0
G1X-0.1S0.8
G1X-0.3S0
G1X-0.1S0.8
G1X-0.2S0
G1X-0.1S0.8
G1X-0.2S0
G1X-0.1S0.8
G1X-0.9S0
G1X-0.1S0.8
G1X-1.2S0
G1X-0.1S0.8
G1X-0.6S0
G1X-0.1S0.8
G1X-0.4S0
G1X-0.1S0.8
G1X-0.5S0
G1X-0.1S0.8
G1X-1.5S0
G1X-0.1S0.8
G1X-0.2S0
G1X-0.1S0.8
G1X-0.5S0
G1X-0.1S0.8
G1X-0.6S0
G1X-0.1S0.8
G1X-0.9S0
G1X-0.1S0.8
G1X-0.2S0
G1X-0.1S0.8
G1X-2.5S0
G1X-0.1S0.8
G1X-0.2S0
G1X-0.1S0.8
G1X-1.8S0
G1X-0.1S0.8
G1X-0.2S0
G1X-0.1S0.8
G1X-0.2S0
G1X-0.1S0.8
G1X-3.1S0
G1X-0.1S0.8
G1X-0.2S0
G1X-0.1S0.8
G1X-0.2S0
G1X-0.1S0.8
G1X-0.2S0
G1X-0.1S0.8
G1X-1.2S0
G1X-0.1S0.8
G1X-0.2S0
G1X-0.1S0.8
G1X-0.5S0
G1X-0.1S0.8
G1X-0.2S0
G1X-0.1S0.8
G1X-0.2S0
G1X-0.1S0.8
G1X-1.5S0
G1X-0.1S0.8
G1X-0.2S0
G1X-0.1S0.8
G1X-0.2S0
G1X-0.1S0.8
G1X-1S0
G1X-0.1S0.8
G1X-0.8S0
G1X-0.1S0.8
G1X-0.4S0
G1X-0.1S0.8
G1X-0.6S0
G1X-0.1S0.8
G1X-0.4S0
G1X-0.1S0.8
G1X-0.2S0
G1X-0.1S0.8
G1X-0.2S0
G1X-0.1S0.8
G1X-3.5S0
G1X-0.1S0.8
G1X-0.2S0
G1X-0.1S0.8
G1X-0.3S0
G1X-0.1S0.8
G1X-0.1S0
G1X-0.1S0.8
G1X-0.3S0
G1X-0.1S0.8
G1X-0.2S0
G1X-0.1S0.8
G1X-0.3S0
G1X-0.1S0.8
G1X-0.4S0
G1X-0.1S0.8
G1X-0.2S0
G1X-0.1S0.8
G1X-0.1S0
G1X-0.1S0.8
G1X-0.1S0
G1X-0.1S0.8
G1X-0.6S0
G1X-0.1S0.8
G1X-0.4S0
G1X-0.1S0.8
G1X-0.2S0
G1X-0.1S0.8
G1X-0.6S0
G1X-0.1S0.8
G1X-0.1S0
G1X-0.1S0.8
G1X-0.2S0
G1X-0.1S0.8
G1X-0.2S0
G1X-0.1S0.8
G1X-0.2S0
G1X-0.1S0.8
G1X-0.1S0
G1X-0.1S0.8
G1X-0.2S0
G1X-0.1S0.8
G1X-2.5S0
G1X-0.1S0.8
G1X-0.2S0
G1X-0.1S0.8
G1X-0.7S0
G1X-0.1S0.8
G1X-1.1S0
G1X-0.1S0.8
G1X-0.5S0
G1X-0.1S0.8
G1X-0.2S0
G1X-0.1S0.8
G1X-0.2S0
G1X-0.1S0.8
G1X-1.1S0
G1X-0.1S0.8
G1X-0.9S0
G1X-0.1S0.8
G1X-0.5S0
G1X-0.1S0.8
G1X-0.9S0
G1X-0.1S0.8
G1X-0.2S0
G1X-0.1S0.8
G1X-1.3S0
G1X-0.1S0.8
G1X-0.3S0
G1X-0.1S0.8
G1X-2.2S0
G1X-0.1S0.8
G1X-3.4S0
G1X-0.1S0.8
G1X-0.7S0
G1X-0.1S0.8
G1X-0.2S0
G1X-0.1S0.8
G1X-0.3Y0.1S0
G1X0.1S0.8
G1X1.7S0
G1X0.1S0.8
G1X0.2S0
G1X0.1S0.8
G1X0.8S0
G1X0.1S0.8
G1X1.1S0
G1X0.1S0.8
G1X0.2S0
G1X0.1S0.8
G1X0.6S0
G1X0.1S0.8
G1X0.8S0
G1X0.1S0.8
G1X0.2S0
G1X0.1S0.8
G1X1.4S0
G1X0.1S0.8
G1X0.2S0
G1X0.1S0.8
G1X0.4S0
G1X0.1S0.8
G1X2.4S0
G1X0.1S0.8
G1X1S0
G1X0.1S0.8
G1X0.4S0
G1X0.1S0.8
G1X1.7S0
G1X0.1S0.8
G1X0.3S0
G1X0.1S0.8
G1X0.7S0
G1X0.1S0.8
G1X0.9S0
G1X0.1S0.8
G1X0.2S0
G1X0.1S0.8
G1X0.2S0
G1X0.1S0.8
G1X0.2S0
G1X0.1S0.8
G1X0.2S0
G1X0.1S0.8
G1X0.2S0
G1X0.1S0.8
G1X0.1S0
G1X0.1S0.8
G1X0.2S0
G1X0.1S0.8
G1X1.4S0
G1X0.1S0.8
G1X0.5S0
G1X0.1S0.8
G1X0.2S0
G1X0.1S0.8
G1X0.6S0
G1X0.1S0.8
G1X0.5S0
G1X0.1S0.8
G1X0.1S0
G1X0.1S0.8
G1X0.3S0
G1X0.1S0.8
G1X0.2S0
G1X0.1S0.8
G1X0.2S0
G1X0.1S0.8
G1X0.2S0
G1X0.1S0.8
G1X0.2S0
G1X0.1S0.8
G1X0.5S0
G1X0.1S0.8
G1X0.6S0
G1X0.1S0.8
G1X0.6S0
G1X0.1S0.8
G1X0.2S0
G1X0.1S0.8
G1X0.2S0
G1X0.1S0.8
G1X0.2S0
G1X0.1S0.8
G1X0.2S0
G1X0.1S0.8
G1X0.3S0
G1X0.1S0.8
G1X0.1S0
G1X0.1S0.8
G1X0.2S0
G1X0.1S0.8
G1X0.2S0
G1X0.1S0.8
G1X0.2S0
G1X0.1S0.8
G1X0.2S0
G1X0.1S0.8
G1X1.2S0
G1X0.1S0.8
G1X0.5S0
G1X0.1S0.8
G1X2S0
G1X0.1S0.8
G1X0.2S0
G1X0.1S0.8
G1X1.8S0
G1X0.1S0.8
G1X0.2S0
G1X0.1S0.8
G1X2.2S0
G1X0.1S0.8
G1X0.2S0
G1X0.1S0.8
G1X0.2S0
G1X0.1S0.8
G1X1.6S0
G1X0.1S0.8
G1X0.2S0
G1X0.1S0.8
G1X0.2S0
G1X0.1S0.8
G1X0.2S0
G1X0.1S0.8
G1X0.2S0
G1X0.1S0.8
G1X0.2S0
G1X0.1S0.8
G1X0.5S0
G1X0.1S0.8
G1X3.6S0
G1X0.1S0.8
G1X0.2S0
G1X0.1S0.8
G1X0.2S0
G1X0.1S0.8
G1X0.2S0
G1X0.1S0.8
G1X0.4S0
G1X0.1S0.8
G1X0.2S0
G1X0.1S0.8
G1X0.2S0
G1X0.1S0.8
G1X0.9S0
G1X0.1S0.8
G1X0.2S0
G1X0.1S0.8
G1X0.6S0
G1X0.1S0.8
G1X0.5S0
G1X0.1S0.8
G1X0.8S0
G1X0.1S0.8
G1X0.2S0
G1X0.1S0.8
G1X0.2S0
G1X0.1S0.8
G1X2.1S0
G1X0.1S0.8
G1X0.6S0
G1X0.1S0.8
G1X0.6S0
G1X0.1S0.8
G1X0.5S0
G1X0.1S0.8
G1X0.2S0
G1X0.1S0.8
G1X1.8S0
G1X0.1S0.8
G1X0.2S0
G1X0.1S0.8
G1X0.8S0
G1X0.1S0.8
G1X0.2S0
G1X0.1S0.8
G1X0.2S0
G1X0.1S0.8
G1X0.2S0
G1X0.1S0.8
G1X0.4S0
G1X0.1S0.8
G1X0.8S0
G1X0.1S0.8
G1X0.3S0
G1X0.1S0.8
G1X0.2S0
G1X0.1S0.8
G1X0.3S0
G1X0.1S0.8
G1X0.3S0
G1X0.1S0.8
G1X1.3S0
G1X0.1S0.8
G1X0.3S0
G1X0.1S0.8
G1X0.7S0
G1X0.1S0.8
G1X0.4S0
G1X0.1S0.8
G1X1.4S0
G1X0.1S0.8
G1X0.2S0
G1X0.1S0.8
G1X0.5S0
G1X0.1S0.8
G1X1.5S0
G1X0.1S0.8
G1X0.3S0
G1X0.1S0.8
G1X1.1S0
G1X0.1S0.8
G1X2.5S0
G1X0.1S0.8
G1X0.2S0
G1X0.1S0.8
G1X0.2S0
G1X0.1S0.8
G1X0.9S0
G1X0.1S0.8
G1X0.4S0
G1X0.1S0.8
G1X1.1S0
G1X0.1S0.8
G1X1.4S0
G1X0.1S0.8
G1X2.9S0
G1X0.1S0.8
G1X0.4S0
G1X0.1S0.8
G1X1.4Y0.1S0
G1X-0.1S0.8
G1X-0.3S0
G1X-0.1S0.8
G1X-2S0
G1X-0.1S0.8
G1X-0.4S0
G1X-0.1S0.8
G1X-1.5S0
G1X-0.1S0.8
G1X-0.8S0
G1X-0.1S0.8
G1X-1.2S0
G1X-0.1S0.8
G1X-0.2S0
G1X-0.1S0.8
G1X-0.2S0
G1X-0.1S0.8
G1X-1S0
G1X-0.1S0.8
G1X-0.2S0
G1X-0.1S0.8
G1X-1.8S0
G1X-0.1S0.8
G1X-0.2S0
G1X-0.1S0.8
G1X-1S0
G1X-0.1S0.8
G1X-0.7S0
G1X-0.1S0.8
G1X-0.3S0
G1X-0.1S0.8
G1X-0.2S0
G1X-0.1S0.8
G1X-0.7S0
G1X-0.1S0.8
G1X-0.2S0
G1X-0.1S0.8
G1X-2.3S0
G1X-0.1S0.8
G1X-0.2S0
G1X-0.1S0.8
G1X-0.2S0
G1X-0.1S0.8
G1X-1.2S0
G1X-0.1S0.8
G1X-1.1S0
G1X-0.1S0.8
G1X-0.2S0
G1X-0.1S0.8
G1X-0.2S0
G1X-0.1S0.8
G1X-1.9S0
G1X-0.1S0.8
G1X-3.4S0
G1X-0.1S0.8
G1X-0.3S0
G1X-0.1S0.8
G1X-2.4S0
G1X-0.1S0.8
G1X-0.6S0
G1X-0.1S0.8
G1X-0.9S0
G1X-0.1S0.8
G1X-0.3S0
G1X-0.1S0.8
G1X-0.4S0
G1X-0.1S0.8
G1X-0.2S0
G1X-0.1S0.8
G1X-1.4S0
G1X-0.1S0.8
G1X-0.6S0
G1X-0.1S0.8
G1X-4.8S0
G1X-0.1S0.8
G1X-0.2S0
G1X-0.1S0.8
G1X-0.2S0
G1X-0.1S0.8
G1X-0.2S0
G1X-0.1S0.8
G1X-0.2S0
G1X-0.1S0.8
G1X-0.2S0
G1X-0.1S0.8
G1X-1.1S0
G1X-0.1S0.8
G1X-0.5S0
G1X-0.1S0.8
G1X-5S0
G1X-0.1S0.8
G1X-1S0
G1X-0.1S0.8
G1X-0.7S0
G1X-0.1S0.8
G1X-0.2S0
G1X-0.1S0.8
G1X-1S0
G1X-0.1S0.8
G1X-1.1S0
G1X-0.1S0.8
G1X-0.2S0
G1X-0.1S0.8
G1X-0.4S0
G1X-0.1S0.8
G1X-0.2S0
G1X-0.1S0.8
G1X-1.2S0
G1X-0.1S0.8
G1X-0.6S0
G1X-0.1S0.8
G1X-1.8S0
G1X-0.1S0.8
G1X-1.6S0
G1X-0.1S0.8
G1X-0.5S0
G1X-0.1S0.8
G1X-0.2S0
G1X-0.1S0.8
G1X-0.3S0
G1X-0.1S0.8
G1X-0.1S0
G1X-0.1S0.8
G1X-0.2S0
G1X-0.1S0.8
G1X-0.2S0
G1X-0.1S0.8
G1X-0.3S0
G1X-0.1S0.8
G1X-0.5S0
G1X-0.1S0.8
G1X-0.1S0
G1X-0.1S0.8
G1X-0.3S0
G1X-0.1S0.8
G1X-0.1S0
G1X-0.1S0.8
G1X-0.4S0
G1X-0.1S0.8
G1X-0.2S0
G1X-0.1S0.8
G1X-1S0
G1X-0.1S0.8
G1X-0.2S0
G1X-0.1S0.8
G1X-0.4S0
G1X-0.1S0.8
G1X-0.3S0
G1X-0.1S0.8
G1X-2.4S0
G1X-0.1S0.8
G1X-0.3S0
G1X-0.1S0.8
G1X-0.7S0
G1X-0.1S0.8
G1X-0.4S0
G1X-0.1S0.8
G1X-0.6S0
G1X-0.1S0.8
G1X-2.3S0
G1X-0.1S0.8
G1X-0.9S0
G1X-0.1S0.8
G1X-0.8S0
G1X-0.1S0.8
G1X-2.8S0
G1X-0.1S0.8
G1X-0.9S0
G1X-0.1S0.8
G1X-0.2S0
G1X-0.1S0.8
G1X-1.7S0
G1X-0.1S0.8
G1X-0.3S0
G1X-0.1S0.8
G1X-0.5S0
G1X-0.1S0.8
G1X-0.2S0
G1X-0.1S0.8
G1X-1.2S0
G1X-0.1S0.8
G1X-1.3S0
G1X-0.1S0.8
G1X0.8Y0.1S0
G1X0.1S0.8
G1X0.2S0
G1X0.1S0.8
G1X0.6S0
G1X0.1S0.8
G1X3.2S0
G1X0.1S0.8
G1X2.2S0
G1X0.1S0.8
G1X0.2S0
G1X0.1S0.8
G1X1S0
G1X0.1S0.8
G1X0.6S0
G1X0.1S0.8
G1X0.7S0
G1X0.1S0.8
G1X2.5S0
G1X0.1S0.8
G1X0.5S0
G1X0.1S0.8
G1X0.2S0
G1X0.1S0.8
G1X0.7S0
G1X0.1S0.8
G1X1S0
G1X0.1S0.8
G1X0.2S0
G1X0.1S0.8
G1X0.5S0
G1X0.1S0.8
G1X0.3S0
G1X0.1S0.8
G1X0.2S0
G1X0.1S0.8
G1X0.2S0
G1X0.1S0.8
G1X0.4S0
G1X0.1S0.8
G1X0.2S0
G1X0.1S0.8
G1X0.4S0
G1X0.1S0.8
G1X0.4S0
G1X0.1S0.8
G1X0.3S0
G1X0.1S0.8
G1X0.8S0
G1X0.1S0.8
G1X0.1S0
G1X0.1S0.8
G1X0.2S0
G1X0.1S0.8
G1X0.6S0
G1X0.1S0.8
G1X0.5S0
G1X0.1S0.8
G1X0.2S0
G1X0.1S0.8
G1X0.3S0
G1X0.1S0.8
G1X0.1S0
G1X0.1S0.8
G1X0.2S0
G1X0.1S0.8
G1X0.2S0
G1X0.1S0.8
G1X0.8S0
G1X0.1S0.8
G1X0.5S0
G1X0.1S0.8
G1X0.3S0
G1X0.1S0.8
G1X0.3S0
G1X0.1S0.8
G1X0.2S0
G1X0.1S0.8
G1X0.2S0
G1X0.1S0.8
G1X0.2S0
G1X0.1S0.8
G1X0.2S0
G1X0.1S0.8
G1X0.9S0
G1X0.1S0.8
G1X0.2S0
G1X0.1S0.8
G1X0.6S0
G1X0.1S0.8
G1X0.4S0
G1X0.1S0.8
G1X0.2S0
G1X0.1S0.8
G1X0.4S0
G1X0.1S0.8
G1X0.2S0
G1X0.1S0.8
G1X0.2S0
G1X0.1S0.8
G1X0.8S0
G1X0.1S0.8
G1X0.7S0
G1X0.1S0.8
G1X0.2S0
G1X0.1S0.8
G1X0.3S0
G1X0.1S0.8
G1X0.4S0
G1X0.1S0.8
G1X0.2S0
G1X0.1S0.8
G1X0.2S0
G1X0.1S0.8
G1X1.6S0
G1X0.1S0.8
G1X0.2S0
G1X0.1S0.8
G1X0.7S0
G1X0.1S0.8
G1X0.2S0
G1X0.1S0.8
G1X1.2S0
G1X0.1S0.8
G1X0.2S0
G1X0.1S0.8
G1X0.2S0
G1X0.1S0.8
G1X0.2S0
G1X0.1S0.8
G1X0.2S0
G1X0.1S0.8
G1X2.8S0
G1X0.1S0.8
G1X0.2S0
G1X0.1S0.8
G1X0.2S0
G1X0.1S0.8
G1X2S0
G1X0.1S0.8
G1X1.4S0
G1X0.1S0.8
G1X1S0
G1X0.1S0.8
G1X0.2S0
G1X0.1S0.8
G1X0.2S0
G1X0.1S0.8
G1X0.6S0
G1X0.1S0.8
G1X0.2S0
G1X0.1S0.8
G1X1.3S0
G1X0.1S0.8
G1X0.7S0
G1X0.1S0.8
G1X1.7S0
G1X0.1S0.8
G1X0.2S0
G1X0.1S0.8
G1X1.4S0
G1X0.1S0.8
G1X0.3S0
G1X0.1S0.8
G1X0.6S0
G1X0.1S0.8
G1X0.2S0
G1X0.1S0.8
G1X0.2S0
G1X0.1S0.8
G1X0.2S0
G1X0.1S0.8
G1X1.3S0
G1X0.1S0.8
G1X0.2S0
G1X0.1S0.8
G1X0.2S0
G1X0.1S0.8
G1X1.1S0
G1X0.1S0.8
G1X0.4S0
G1X0.1S0.8
G1X0.8S0
G1X0.1S0.8
G1X0.5S0
G1X0.1S0.8
G1X0.3S0
G1X0.1S0.8
G1X1.1S0
G1X0.1S0.8
G1X0.2S0
G1X0.1S0.8
G1X0.3S0
G1X0.1S0.8
G1X0.6S0
G1X0.1S0.8
G1X0.3S0
G1X0.1S0.8
G1X0.2S0
G1X0.1S0.8
G1X1.1S0
G1X0.1S0.8
G1X0.8S0
G1X0.1S0.8
G1X0.5S0
G1X0.1S0.8
G1X0.2S0
G1X0.1S0.8
G1X0.7S0
G1X0.1S0.8
G1X1.1S0
G1X0.1S0.8
G1X0.2S0
G1X0.1S0.8
G1X0.2S0
G1X0.1S0.8
G1X0.5S0
G1X0.1S0.8
G1X0.2S0
G1X0.1S0.8
G1X1S0
G1X0.1S0.8
G1X0.2S0
G1X0.1S0.8
G1X2.1S0
G1X0.1S0.8
G1X1.6S0
G1X0.1S0.8
G1X0.2S0
G1X0.1S0.8
G1X2.2S0
G1X0.1S0.8
G1X2.5S0
G1X0.1S0.8
G1X0.9Y0.1S0
G1X-0.1S0.8
G1X-0.4S0
G1X-0.1S0.8
G1X-1S0
G1X-0.1S0.8
G1X-0.2S0
G1X-0.1S0.8
G1X-1.2S0
G1X-0.1S0.8
G1X-0.5S0
G1X-0.1S0.8
G1X-0.2S0
G1X-0.1S0.8
G1X-0.7S0
G1X-0.1S0.8
G1X-0.2S0
G1X-0.1S0.8
G1X-1.2S0
G1X-0.1S0.8
G1X-0.5S0
G1X-0.1S0.8
G1X-0.4S0
G1X-0.1S0.8
G1X-0.5S0
G1X-0.1S0.8
G1X-0.8S0
G1X-0.1S0.8
G1X-0.2S0
G1X-0.1S0.8
G1X-0.2S0
G1X-0.1S0.8
G1X-1.3S0
G1X-0.1S0.8
G1X-2.4S0
G1X-0.1S0.8
G1X-0.2S0
G1X-0.1S0.8
G1X-1.5S0
G1X-0.1S0.8
G1X-0.5S0
G1X-0.1S0.8
G1X-0.2S0
G1X-0.1S0.8
G1X-3.8S0
G1X-0.1S0.8
G1X-0.2S0
G1X-0.1S0.8
G1X-0.3S0
G1X-0.1S0.8
G1X-0.9S0
G1X-0.1S0.8
G1X-0.4S0
G1X-0.1S0.8
G1X-0.3S0
G1X-0.1S0.8
G1X-0.4S0
G1X-0.1S0.8
G1X-0.4S0
G1X-0.1S0.8
G1X-0.2S0
G1X-0.1S0.8
G1X-0.2S0
G1X-0.1S0.8
G1X-1.1S0
G1X-0.1S0.8
G1X-0.2S0
G1X-0.1S0.8
G1X-0.3S0
G1X-0.1S0.8
G1X-1.6S0
G1X-0.1S0.8
G1X-1.1S0
G1X-0.1S0.8
G1X-0.2S0
G1X-0.1S0.8
G1X-0.3S0
G1X-0.1S0.8
G1X-0.9S0
G1X-0.1S0.8
G1X-0.4S0
G1X-0.1S0.8
G1X-1S0
G1X-0.1S0.8
G1X-0.2S0
G1X-0.1S0.8
G1X-0.7S0
G1X-0.1S0.8
G1X-0.2S0
G1X-0.1S0.8
G1X-1.2S0
G1X-0.1S0.8
G1X-1S0
G1X-0.1S0.8
G1X-0.2S0
G1X-0.1S0.8
G1X-0.2S0
G1X-0.1S0.8
G1X-0.5S0
G1X-0.1S0.8
G1X-0.2S0
G1X-0.1S0.8
G1X-0.2S0
G1X-0.1S0.8
G1X-0.2S0
G1X-0.1S0.8
G1X-3.6S0
G1X-0.1S0.8
G1X-0.5S0
G1X-0.1S0.8
G1X-0.2S0
G1X-0.1S0.8
G1X-0.2S0
G1X-0.1S0.8
G1X-0.2S0
G1X-0.1S0.8
G1X-0.2S0
G1X-0.1S0.8
G1X-1.9S0
G1X-0.1S0.8
G1X-0.2S0
G1X-0.1S0.8
G1X-0.2S0
G1X-0.1S0.8
G1X-1S0
G1X-0.1S0.8
G1X-1.1S0
G1X-0.1S0.8
G1X-0.2S0
G1X-0.1S0.8
G1X-2.8S0
G1X-0.1S0.8
G1X-3.5S0
G1X-0.1S0.8
G1X-0.1S0
G1X-0.1S0.8
G1X-0.5S0
G1X-0.1S0.8
G1X-0.2S0
G1X-0.1S0.8
G1X-0.3S0
G1X-0.1S0.8
G1X-1.6S0
G1X-0.1S0.8
G1X-0.5S0
G1X-0.1S0.8
G1X-0.2S0
G1X-0.1S0.8
G1X-0.4S0
G1X-0.2S0.8
G1X-0.1S0
G1X-0.1S0.8
G1X-0.1S0
G1X-0.1S0.8
G1X-0.2S0
G1X-0.1S0.8
G1X-0.2S0
G1X-0.1S0.8
G1X-0.1S0
G1X-0.1S0.8
G1X-0.5S0
G1X-0.1S0.8
G1X-0.4S0
G1X-0.1S0.8
G1X-0.1S0
G1X-0.1S0.8
G1X-0.3S0
G1X-0.1S0.8
G1X-0.2S0
G1X-0.1S0.8
G1X-0.2S0
G1X-0.1S0.8
G1X-0.7S0
G1X-0.1S0.8
G1X-0.2S0
G1X-0.1S0.8
G1X-1.2S0
G1X-0.1S0.8
G1X-0.7S0
G1X-0.1S0.8
G1X-2.5S0
G1X-0.1S0.8
G1X-0.2S0
G1X-0.1S0.8
G1X-0.7S0
G1X-0.1S0.8
G1X-0.8S0
G1X-0.1S0.8
G1X-0.6S0
G1X-0.1S0.8
G1X-0.2S0
G1X-0.1S0.8
G1X-0.5S0
G1X-0.1S0.8
G1X-0.3S0
G1X-0.1S0.8
G1X-0.5S0
G1X-0.1S0.8
G1X-5.7S0
G1X-0.1S0.8
G1X-0.4S0
G1X-0.1S0.8
G1X-2S0
G1X-0.1S0.8
G1X-1.7S0
G1X-0.1S0.8
G1X-0.4Y0.1S0
G1X0.1S0.8
G1X1.4S0
G1X0.1S0.8
G1X0.9S0
G1X0.1S0.8
G1X0.4S0
G1X0.1S0.8
G1X0.2S0
G1X0.1S0.8
G1X0.2S0
G1X0.1S0.8
G1X0.3S0
G1X0.1S0.8
G1X1.3S0
G1X0.1S0.8
G1X0.9S0
G1X0.1S0.8
G1X0.2S0
G1X0.1S0.8
G1X0.2S0
G1X0.1S0.8
G1X0.9S0
G1X0.1S0.8
G1X0.2S0
G1X0.1S0.8
G1X0.7S0
G1X0.1S0.8
G1X0.6S0
G1X0.1S0.8
G1X4.5S0
G1X0.1S0.8
G1X0.9S0
G1X0.1S0.8
G1X0.3S0
G1X0.1S0.8
G1X0.3S0
G1X0.1S0.8
G1X0.2S0
G1X0.1S0.8
G1X0.3S0
G1X0.1S0.8
G1X0.4S0
G1X0.1S0.8
G1X0.6S0
G1X0.1S0.8
G1X0.6S0
G1X0.1S0.8
G1X0.2S0
G1X0.1S0.8
G1X0.2S0
G1X0.1S0.8
G1X0.7S0
G1X0.1S0.8
G1X0.2S0
G1X0.1S0.8
G1X1S0
G1X0.1S0.8
G1X0.5S0
G1X0.1S0.8
G1X0.2S0
G1X0.1S0.8
G1X0.3S0
G1X0.2S0.8
G1X0.5S0
G1X0.1S0.8
G1X1.1S0
G1X0.1S0.8
G1X0.2S0
G1X0.1S0.8
G1X0.5S0
G1X0.1S0.8
G1X0.6S0
G1X0.1S0.8
G1X0.2S0
G1X0.1S0.8
G1X0.2S0
G1X0.1S0.8
G1X0.2S0
G1X0.1S0.8
G1X2.3S0
G1X0.1S0.8
G1X0.4S0
G1X0.1S0.8
G1X0.2S0
G1X0.1S0.8
G1X1S0
G1X0.1S0.8
G1X0.2S0
G1X0.1S0.8
G1X0.5S0
G1X0.1S0.8
G1X0.9S0
G1X0.1S0.8
G1X0.4S0
G1X0.1S0.8
G1X0.6S0
G1X0.1S0.8
G1X0.3S0
G1X0.1S0.8
G1X0.2S0
G1X0.1S0.8
G1X0.8S0
G1X0.1S0.8
G1X1.1S0
G1X0.1S0.8
G1X4.8S0
G1X0.1S0.8
G1X0.5S0
G1X0.1S0.8
G1X1.1S0
G1X0.1S0.8
G1X0.2S0
G1X0.1S0.8
G1X0.2S0
G1X0.1S0.8
G1X0.2S0
G1X0.1S0.8
G1X0.2S0
G1X0.1S0.8
G1X0.2S0
G1X0.1S0.8
G1X0.2S0
G1X0.1S0.8
G1X3.7S0
G1X0.1S0.8
G1X0.5S0
G1X0.1S0.8
G1X0.2S0
G1X0.1S0.8
G1X0.7S0
G1X0.1S0.8
G1X1.1S0
G1X0.1S0.8
G1X0.2S0
G1X0.1S0.8
G1X0.5S0
G1X0.1S0.8
G1X2.2S0
G1X0.1S0.8
G1X0.3S0
G1X0.1S0.8
G1X0.6S0
G1X0.1S0.8
G1X0.3S0
G1X0.1S0.8
G1X0.2S0
G1X0.1S0.8
G1X1.9S0
G1X0.1S0.8
G1X3.3S0
G1X0.1S0.8
G1X0.2S0
G1X0.1S0.8
G1X1.8S0
G1X0.1S0.8
G1X0.3S0
G1X0.1S0.8
G1X0.2S0
G1X0.1S0.8
G1X0.3S0
G1X0.1S0.8
G1X0.9S0
G1X0.1S0.8
G1X0.2S0
G1X0.1S0.8
G1X0.2S0
G1X0.1S0.8
G1X2.1S0
G1X0.1S0.8
G1X0.2S0
G1X0.1S0.8
G1X1S0
G1X0.1S0.8
G1X0.2S0
G1X0.1S0.8
G1X0.9S0
G1X0.1S0.8
G1X1.1S0
G1X0.1S0.8
G1X0.2S0
G1X0.1S0.8
G1X1.6S0
G1X0.1S0.8
G1X0.2S0
G1X0.1S0.8
G1X0.5S0
G1X0.1S0.8
G1X0.5S0
G1X0.1S0.8
G1X0.4S0
G1X0.1S0.8
G1X1.1S0
G1X0.1S0.8
G1X1S0
G1X0.1S0.8
G1X1.7S0
G1X0.1S0.8
G1X0.4S0
G1X0.1S0.8
G1X0.8S0
G1X0.1S0.8
G1X1.5S0
G1X0.1S0.8
G1X-1.3Y0.1S0
G1X-0.1S0.8
G1X-5S0
G1X-0.1S0.8
G1X-0.2S0
G1X-0.1S0.8
G1X-3.4S0
G1X-0.1S0.8
G1X-0.2S0
G1X-0.1S0.8
G1X-1.1S0
G1X-0.1S0.8
G1X-0.2S0
G1X-0.1S0.8
G1X-0.6S0
G1X-0.1S0.8
G1X-0.2S0
G1X-0.1S0.8
G1X-1.3S0
G1X-0.1S0.8
G1X-0.8S0
G1X-0.1S0.8
G1X-0.2S0
G1X-0.1S0.8
G1X-0.4S0
G1X-0.1S0.8
G1X-0.7S0
G1X-0.1S0.8
G1X-1.2S0
G1X-0.1S0.8
G1X-0.2S0
G1X-0.1S0.8
G1X-1.5S0
G1X-0.1S0.8
G1X-0.2S0
G1X-0.1S0.8
G1X-0.7S0
G1X-0.1S0.8
G1X-0.3S0
G1X-0.1S0.8
G1X-0.7S0
G1X-0.1S0.8
G1X-0.2S0
G1X-0.1S0.8
G1X-0.3S0
G1X-0.1S0.8
G1X-0.3S0
G1X-0.1S0.8
G1X-0.4S0
G1X-0.1S0.8
G1X-0.3S0
G1X-0.1S0.8
G1X-0.5S0
G1X-0.1S0.8
G1X-0.2S0
G1X-0.1S0.8
G1X-0.5S0
G1X-0.1S0.8
G1X-0.2S0
G1X-0.1S0.8
G1X-0.3S0
G1X-0.1S0.8
G1X-0.3S0
G1X-0.1S0.8
G1X-0.2S0
G1X-0.1S0.8
G1X-1.2S0
G1X-0.1S0.8
G1X-1.3S0
G1X-0.1S0.8
G1X-0.3S0
G1X-0.1S0.8
G1X-0.2S0
G1X-0.1S0.8
G1X-0.2S0
G1X-0.1S0.8
G1X-2.3S0
G1X-0.1S0.8
G1X-1.6S0
G1X-0.1S0.8
G1X-0.6S0
G1X-0.1S0.8
G1X-0.2S0
G1X-0.1S0.8
G1X-0.2S0
G1X-0.1S0.8
G1X-1.1S0
G1X-0.1S0.8
G1X-3.7S0
G1X-0.1S0.8
G1X-0.2S0
G1X-0.1S0.8
G1X-0.2S0
G1X-0.1S0.8
G1X-2.4S0
G1X-0.1S0.8
G1X-0.2S0
G1X-0.1S0.8
G1X-0.2S0
G1X-0.1S0.8
G1X-0.2S0
G1X-0.1S0.8
G1X-0.2S0
G1X-0.1S0.8
G1X-0.2S0
G1X-0.1S0.8
G1X-1S0
G1X-0.1S0.8
G1X-0.2S0
G1X-0.1S0.8
G1X-0.8S0
G1X-0.1S0.8
G1X-0.2S0
G1X-0.1S0.8
G1X-2.2S0
G1X-0.1S0.8
G1X-0.5S0
G1X-0.1S0.8
G1X-0.5S0
G1X-0.1S0.8
G1X-0.9S0
G1X-0.1S0.8
G1X-0.6S0
G1X-0.1S0.8
G1X-0.2S0
G1X-0.1S0.8
G1X-0.2S0
G1X-0.1S0.8
G1X-0.8S0
G1X-0.1S0.8
G1X-0.4S0
G1X-0.1S0.8
G1X-0.4S0
G1X-0.1S0.8
G1X-0.2S0
G1X-0.1S0.8
G1X-0.4S0
G1X-0.1S0.8
G1X-0.2S0
G1X-0.1S0.8
G1X-0.2S0
G1X-0.1S0.8
G1X-0.4S0
G1X-0.1S0.8
G1X-0.7S0
G1X-0.1S0.8
G1X-0.2S0
G1X-0.1S0.8
G1X-0.2S0
G1X-0.1S0.8
G1X-0.2S0
G1X-0.1S0.8
G1X-0.5S0
G1X-0.1S0.8
G1X-0.3S0
G1X-0.1S0.8
G1X-0.2S0
G1X-0.2S0.8
G1X-0.1S0
G1X-0.1S0.8
G1X-0.3S0
G1X-0.2S0.8
G1X-0.1S0
G1X-0.1S0.8
G1X-0.5S0
G1X-0.1S0.8
G1X-0.5S0
G1X-0.1S0.8
G1X-0.3S0
G1X-0.1S0.8
G1X-0.2S0
G1X-0.1S0.8
G1X-0.2S0
G1X-0.1S0.8
G1X-0.2S0
G1X-0.1S0.8
G1X-0.7S0
G1X-0.1S0.8
G1X-0.1S0
G1X-0.1S0.8
G1X-1.1S0
G1X-0.1S0.8
G1X-0.5S0
G1X-0.1S0.8
G1X-0.5S0
G1X-0.1S0.8
G1X-2.4S0
G1X-0.1S0.8
G1X-0.9S0
G1X-0.1S0.8
G1X-0.7S0
G1X-0.1S0.8
G1X-0.8S0
G1X-0.1S0.8
G1X-0.9S0
G1X-0.1S0.8
G1X-0.7S0
G1X-0.1S0.8
G1X-0.6S0
G1X-0.1S0.8
G1X-0.7S0
G1X-0.1S0.8
G1X-2.5S0
G1X-0.1S0.8
G1X-0.2S0
G1X-0.1S0.8
G1X-3.8S0
G1X-0.1S0.8
G1X-0.5S0
G1X-0.1S0.8
G1X-0.4S0
G1X-0.1S0.8
G1X-0.4Y0.1S0
G1X0.1S0.8
G1X1.7S0
G1X0.1S0.8
G1X0.5S0
G1X0.1S0.8
G1X1.7S0
G1X0.1S0.8
G1X0.5S0
G1X0.1S0.8
G1X2.1S0
G1X0.1S0.8
G1X0.2S0
G1X0.1S0.8
G1X2.7S0
G1X0.1S0.8
G1X0.8S0
G1X0.1S0.8
G1X1.7S0
G1X0.1S0.8
G1X0.7S0
G1X0.1S0.8
G1X0.2S0
G1X0.1S0.8
G1X0.5S0
G1X0.1S0.8
G1X0.2S0
G1X0.1S0.8
G1X0.3S0
G1X0.1S0.8
G1X0.3S0
G1X0.1S0.8
G1X0.3S0
G1X0.1S0.8
G1X0.3S0
G1X0.1S0.8
G1X1.1S0
G1X0.1S0.8
G1X0.4S0
G1X0.1S0.8
G1X0.1S0
G1X0.1S0.8
G1X0.2S0
G1X0.1S0.8
G1X0.2S0
G1X0.1S0.8
G1X0.5S0
G1X0.1S0.8
G1X0.2S0
G1X0.1S0.8
G1X0.6S0
G1X0.1S0.8
G1X0.9S0
G1X0.1S0.8
G1X0.1S0
G1X0.2S0.8
G1X0.3S0
G1X0.1S0.8
G1X0.1S0
G1X0.1S0.8
G1X0.6S0
G1X0.1S0.8
G1X0.7S0
G1X0.1S0.8
G1X0.1S0
G1X0.1S0.8
G1X0.3S0
G1X0.1S0.8
G1X0.2S0
G1X0.1S0.8
G1X1.3S0
G1X0.1S0.8
G1X1.7S0
G1X0.1S0.8
G1X0.8S0
G1X0.1S0.8
G1X3.1S0
G1X0.1S0.8
G1X0.2S0
G1X0.1S0.8
G1X0.5S0
G1X0.1S0.8
G1X1.2S0
G1X0.1S0.8
G1X0.3S0
G1X0.1S0.8
G1X0.5S0
G1X0.1S0.8
G1X0.2S0
G1X0.1S0.8
G1X1.2S0
G1X0.1S0.8
G1X1.1S0
G1X0.1S0.8
G1X0.3S0
G1X0.1S0.8
G1X2.1S0
G1X0.1S0.8
G1X0.2S0
G1X0.1S0.8
G1X0.2S0
G1X0.1S0.8
G1X0.2S0
G1X0.1S0.8
G1X0.7S0
G1X0.1S0.8
G1X3.4S0
G1X0.1S0.8
G1X0.2S0
G1X0.1S0.8
G1X0.2S0
G1X0.1S0.8
G1X0.2S0
G1X0.1S0.8
G1X0.7S0
G1X0.1S0.8
G1X0.2S0
G1X0.1S0.8
G1X0.2S0
G1X0.1S0.8
G1X2.3S0
G1X0.1S0.8
G1X0.2S0
G1X0.1S0.8
G1X0.8S0
G1X0.1S0.8
G1X0.2S0
G1X0.1S0.8
G1X0.7S0
G1X0.1S0.8
G1X0.5S0
G1X0.1S0.8
G1X1.6S0
G1X0.1S0.8
G1X0.2S0
G1X0.1S0.8
G1X1.3S0
G1X0.1S0.8
G1X1S0
G1X0.1S0.8
G1X1.2S0
G1X0.1S0.8
G1X0.7S0
G1X0.1S0.8
G1X0.9S0
G1X0.1S0.8
G1X2.4S0
G1X0.1S0.8
G1X0.2S0
G1X0.1S0.8
G1X0.2S0
G1X0.1S0.8
G1X0.9S0
G1X0.1S0.8
G1X0.5S0
G1X0.1S0.8
G1X2.4S0
G1X0.1S0.8
G1X2.4S0
G1X0.1S0.8
G1X0.2S0
G1X0.1S0.8
G1X0.3S0
G1X0.1S0.8
G1X0.9S0
G1X0.1S0.8
G1X0.9S0
G1X0.1S0.8
G1X1.4S0
G1X0.1S0.8
G1X0.2S0
G1X0.1S0.8
G1X0.2S0
G1X0.1S0.8
G1X0.6S0
G1X0.1S0.8
G1X0.2S0
G1X0.1S0.8
G1X0.3S0
G1X0.1S0.8
G1X0.4S0
G1X0.1S0.8
G1X1.1S0
G1X0.1S0.8
G1X0.4S0
G1X0.1S0.8
G1X0.2S0
G1X0.1S0.8
G1X0.2S0
G1X0.1S0.8
G1X0.5S0
G1X0.1S0.8
G1X1S0
G1X0.1S0.8
G1X2.6S0
G1X0.1S0.8
G1X0.2S0
G1X0.1S0.8
G1X0.2S0
G1X0.1S0.8
G1X-0.9Y0.1S0
G1X-0.1S0.8
G1X-1S0
G1X-0.1S0.8
G1X-0.5S0
G1X-0.1S0.8
G1X-0.2S0
G1X-0.1S0.8
G1X-0.7S0
G1X-0.1S0.8
G1X-0.2S0
G1X-0.1S0.8
G1X-0.6S0
G1X-0.1S0.8
G1X-1.9S0
G1X-0.1S0.8
G1X-0.2S0
G1X-0.1S0.8
G1X-0.5S0
G1X-0.1S0.8
G1X-1.2S0
G1X-0.1S0.8
G1X-1.7S0
G1X-0.1S0.8
G1X-0.2S0
G1X-0.1S0.8
G1X-1.6S0
G1X-0.1S0.8
G1X-0.2S0
G1X-0.1S0.8
G1X-1.3S0
G1X-0.1S0.8
G1X-0.2S0
G1X-0.1S0.8
G1X-0.2S0
G1X-0.1S0.8
G1X-0.7S0
G1X-0.1S0.8
G1X-0.3S0
G1X-0.1S0.8
G1X-0.7S0
G1X-0.1S0.8
G1X-0.2S0
G1X-0.1S0.8
G1X-0.2S0
G1X-0.1S0.8
G1X-0.2S0
G1X-0.1S0.8
G1X-0.7S0
G1X-0.1S0.8
G1X-0.5S0
G1X-0.1S0.8
G1X-2.4S0
G1X-0.1S0.8
G1X-0.2S0
G1X-0.1S0.8
G1X-0.7S0
G1X-0.1S0.8
G1X-0.3S0
G1X-0.1S0.8
G1X-0.6S0
G1X-0.1S0.8
G1X-0.3S0
G1X-0.1S0.8
G1X-1.9S0
G1X-0.1S0.8
G1X-0.9S0
G1X-0.1S0.8
G1X-0.2S0
G1X-0.1S0.8
G1X-0.5S0
G1X-0.1S0.8
G1X-0.3S0
G1X-0.1S0.8
G1X-0.2S0
G1X-0.1S0.8
G1X-1S0
G1X-0.1S0.8
G1X-1.5S0
G1X-0.1S0.8
G1X-0.4S0
G1X-0.1S0.8
G1X-0.2S0
G1X-0.1S0.8
G1X-1S0
G1X-0.1S0.8
G1X-0.9S0
G1X-0.1S0.8
G1X-0.2S0
G1X-0.1S0.8
G1X-0.3S0
G1X-0.1S0.8
G1X-0.2S0
G1X-0.1S0.8
G1X-2S0
G1X-0.1S0.8
G1X-1.5S0
G1X-0.1S0.8
G1X-0.2S0
G1X-0.1S0.8
G1X-0.2S0
G1X-0.1S0.8
G1X-0.2S0
G1X-0.1S0.8
G1X-0.2S0
G1X-0.1S0.8
G1X-0.2S0
G1X-0.1S0.8
G1X-0.2S0
G1X-0.1S0.8
G1X-0.9S0
G1X-0.1S0.8
G1X-0.7S0
G1X-0.1S0.8
G1X-4.6S0
G1X-0.1S0.8
G1X-1.2S0
G1X-0.1S0.8
G1X-0.8S0
G1X-0.1S0.8
G1X-1S0
G1X-0.1S0.8
G1X-0.2S0
G1X-0.1S0.8
G1X-0.8S0
G1X-0.1S0.8
G1X-1S0
G1X-0.1S0.8
G1X-0.2S0
G1X-0.1S0.8
G1X-0.4S0
G1X-0.1S0.8
G1X-0.3S0
G1X-0.1S0.8
G1X-0.2S0
G1X-0.1S0.8
G1X-0.2S0
G1X-0.1S0.8
G1X-0.4S0
G1X-0.1S0.8
G1X-0.8S0
G1X-0.1S0.8
G1X-0.7S0
G1X-0.1S0.8
G1X-0.4S0
G1X-0.1S0.8
G1X-0.2S0
G1X-0.1S0.8
G1X-0.3S0
G1X-0.1S0.8
G1X-0.3S0
G1X-0.1S0.8
G1X-0.2S0
G1X-0.1S0.8
G1X-0.2S0
G1X-0.1S0.8
G1X-0.2S0
G1X-0.1S0.8
G1X-0.3S0
G1X-0.1S0.8
G1X-0.4S0
G1X-0.1S0.8
G1X-0.5S0
G1X-0.1S0.8
G1X-0.2S0
G1X-0.1S0.8
G1X-0.1S0
G1X-0.1S0.8
G1X-0.3S0
G1X-0.1S0.8
G1X-0.1S0
G1X-0.1S0.8
G1X-0.1S0
G1X-0.1S0.8
G1X-0.3S0
G1X-0.1S0.8
G1X-0.6S0
G1X-0.1S0.8
G1X-0.1S0
G1X-0.1S0.8
G1X-0.1S0
G1X-0.1S0.8
G1X-0.5S0
G1X-0.1S0.8
G1X-0.2S0
G1X-0.1S0.8
G1X-2S0
G1X-0.1S0.8
G1X-0.5S0
G1X-0.1S0.8
G1X-0.1S0
G1X-0.1S0.8
G1X-0.2S0
G1X-0.1S0.8
G1X-3.5S0
G1X-0.1S0.8
G1X-1S0
G1X-0.1S0.8
G1X-0.6S0
G1X-0.1S0.8
G1X-1.8S0
G1X-0.1S0.8
G1X-0.7S0
G1X-0.1S0.8
G1X-0.9S0
G1X-0.1S0.8
G1X-0.8S0
G1X-0.1S0.8
G1X-2.1S0
G1X-0.1S0.8
G1X-0.9S0
G1X-0.1S0.8
G1X-1.3S0
G1X-0.1S0.8
G1X-1.4S0
G1X-0.1S0.8
G1X-0.8S0
G1X-0.1S0.8
G1X0.6Y0.1S0
G1X0.1S0.8
G1X0.5S0
G1X0.1S0.8
G1X0.2S0
G1X0.1S0.8
G1X0.2S0
G1X0.1S0.8
G1X1.1S0
G1X0.1S0.8
G1X0.2S0
G1X0.1S0.8
G1X0.8S0
G1X0.1S0.8
G1X1.2S0
G1X0.1S0.8
G1X0.5S0
G1X0.1S0.8
G1X0.2S0
G1X0.1S0.8
G1X0.2S0
G1X0.1S0.8
G1X1.5S0
G1X0.1S0.8
G1X0.8S0
G1X0.1S0.8
G1X0.8S0
G1X0.1S0.8
G1X0.5S0
G1X0.1S0.8
G1X1.8S0
G1X0.1S0.8
G1X1S0
G1X0.1S0.8
G1X0.3S0
G1X0.1S0.8
G1X0.2S0
G1X0.1S0.8
G1X0.4S0
G1X0.1S0.8
G1X0.2S0
G1X0.1S0.8
G1X0.3S0
G1X0.1S0.8
G1X0.3S0
G1X0.1S0.8
G1X0.3S0
G1X0.1S0.8
G1X1.3S0
G1X0.1S0.8
G1X0.8S0
G1X0.1S0.8
G1X0.2S0
G1X0.1S0.8
G1X0.2S0
G1X0.1S0.8
G1X0.1S0
G1X0.1S0.8
G1X0.2S0
G1X0.1S0.8
G1X0.9S0
G1X0.1S0.8
G1X0.7S0
G1X0.1S0.8
G1X0.2S0
G1X0.1S0.8
G1X0.3S0
G1X0.1S0.8
G1X0.5S0
G1X0.1S0.8
G1X0.1S0
G1X0.1S0.8
G1X0.1S0
G1X0.1S0.8
G1X0.2S0
G1X0.1S0.8
G1X0.2S0
G1X0.1S0.8
G1X0.1S0
G1X0.1S0.8
G1X0.4S0
G1X0.1S0.8
G1X0.6S0
G1X0.1S0.8
G1X0.5S0
G1X0.1S0.8
G1X0.8S0
G1X0.1S0.8
G1X0.7S0
G1X0.1S0.8
G1X0.4S0
G1X0.1S0.8
G1X0.2S0
G1X0.1S0.8
G1X0.4S0
G1X0.1S0.8
G1X0.8S0
G1X0.1S0.8
G1X1.4S0
G1X0.1S0.8
G1X0.8S0
G1X0.1S0.8
G1X1.2S0
G1X0.1S0.8
G1X1.2S0
G1X0.1S0.8
G1X1.6S0
G1X0.1S0.8
G1X0.2S0
G1X0.1S0.8
G1X0.9S0
G1X0.1S0.8
G1X0.2S0
G1X0.1S0.8
G1X0.8S0
G1X0.1S0.8
G1X0.2S0
G1X0.1S0.8
G1X0.3S0
G1X0.1S0.8
G1X0.3S0
G1X0.1S0.8
G1X0.2S0
G1X0.1S0.8
G1X0.2S0
G1X0.1S0.8
G1X1.7S0
G1X0.1S0.8
G1X0.7S0
G1X0.1S0.8
G1X0.2S0
G1X0.1S0.8
G1X4S0
G1X0.1S0.8
G1X1S0
G1X0.1S0.8
G1X0.2S0
G1X0.1S0.8
G1X1.6S0
G1X0.1S0.8
G1X0.9S0
G1X0.1S0.8
G1X0.4S0
G1X0.1S0.8
G1X1.6S0
G1X0.1S0.8
G1X0.2S0
G1X0.1S0.8
G1X0.2S0
G1X0.1S0.8
G1X0.6S0
G1X0.1S0.8
G1X1.6S0
G1X0.1S0.8
G1X0.8S0
G1X0.1S0.8
G1X0.2S0
G1X0.1S0.8
G1X0.6S0
G1X0.1S0.8
G1X0.2S0
G1X0.1S0.8
G1X0.2S0
G1X0.1S0.8
G1X0.3S0
G1X0.1S0.8
G1X0.2S0
G1X0.1S0.8
G1X2.1S0
G1X0.1S0.8
G1X0.2S0
G1X0.1S0.8
G1X0.7S0
G1X0.1S0.8
G1X0.2S0
G1X0.1S0.8
G1X0.5S0
G1X0.1S0.8
G1X0.2S0
G1X0.1S0.8
G1X0.2S0
G1X0.1S0.8
G1X0.2S0
G1X0.1S0.8
G1X1.3S0
G1X0.1S0.8
G1X2.8S0
G1X0.1S0.8
G1X1.5S0
G1X0.1S0.8
G1X0.2S0
G1X0.1S0.8
G1X1.4S0
G1X0.1S0.8
G1X0.2S0
G1X0.1S0.8
G1X0.2S0
G1X0.1S0.8
G1X1.1S0
G1X0.1S0.8
G1X2.2S0
G1X0.1S0.8
G1X1.5S0
G1X0.1S0.8
G1X0.4S0
G1X0.1S0.8
G1X4.1S0
G1X0.1S0.8
G1X0.2S0
G1X0.1S0.8
G1X1.4Y0.1S0
G1X-0.1S0.8
G1X-0.2S0
G1X-0.1S0.8
G1X-1.9S0
G1X-0.1S0.8
G1X-0.9S0
G1X-0.1S0.8
G1X-1.9S0
G1X-0.1S0.8
G1X-0.2S0
G1X-0.1S0.8
G1X-1.4S0
G1X-0.1S0.8
G1X-0.2S0
G1X-0.1S0.8
G1X-0.2S0
G1X-0.1S0.8
G1X-0.6S0
G1X-0.1S0.8
G1X-0.2S0
G1X-0.1S0.8
G1X-0.6S0
G1X-0.1S0.8
G1X-0.2S0
G1X-0.1S0.8
G1X-0.2S0
G1X-0.1S0.8
G1X-2.4S0
G1X-0.1S0.8
G1X-0.5S0
G1X-0.1S0.8
G1X-0.2S0
G1X-0.1S0.8
G1X-0.7S0
G1X-0.1S0.8
G1X-0.9S0
G1X-0.1S0.8
G1X-1.1S0
G1X-0.1S0.8
G1X-0.2S0
G1X-0.1S0.8
G1X-1.3S0
G1X-0.1S0.8
G1X-0.8S0
G1X-0.1S0.8
G1X-0.4S0
G1X-0.1S0.8
G1X-1.4S0
G1X-0.1S0.8
G1X-0.8S0
G1X-0.1S0.8
G1X-1.1S0
G1X-0.1S0.8
G1X-0.2S0
G1X-0.1S0.8
G1X-0.2S0
G1X-0.1S0.8
G1X-0.4S0
G1X-0.1S0.8
G1X-0.3S0
G1X-0.1S0.8
G1X-1.9S0
G1X-0.1S0.8
G1X-1.8S0
G1X-0.1S0.8
G1X-0.3S0
G1X-0.1S0.8
G1X-0.3S0
G1X-0.1S0.8
G1X-0.2S0
G1X-0.1S0.8
G1X-0.5S0
G1X-0.1S0.8
G1X-1S0
G1X-0.1S0.8
G1X-0.2S0
G1X-0.1S0.8
G1X-2.3S0
G1X-0.1S0.8
G1X-1.1S0
G1X-0.1S0.8
G1X-0.4S0
G1X-0.1S0.8
G1X-1S0
G1X-0.1S0.8
G1X-0.2S0
G1X-0.1S0.8
G1X-0.7S0
G1X-0.1S0.8
G1X-0.2S0
G1X-0.1S0.8
G1X-0.2S0
G1X-0.1S0.8
G1X-0.2S0
G1X-0.1S0.8
G1X-0.2S0
G1X-0.1S0.8
G1X-4.2S0
G1X-0.1S0.8
G1X-0.2S0
G1X-0.1S0.8
G1X-0.3S0
G1X-0.1S0.8
G1X-2.2S0
G1X-0.1S0.8
G1X-0.2S0
G1X-0.1S0.8
G1X-1.2S0
G1X-0.1S0.8
G1X-1.2S0
G1X-0.1S0.8
G1X-0.2S0
G1X-0.1S0.8
G1X-0.3S0
G1X-0.1S0.8
G1X-0.6S0
G1X-0.1S0.8
G1X-0.5S0
G1X-0.1S0.8
G1X-0.9S0
G1X-0.1S0.8
G1X-0.2S0
G1X-0.1S0.8
G1X-1.5S0
G1X-0.1S0.8
G1X-0.2S0
G1X-0.1S0.8
G1X-0.3S0
G1X-0.1S0.8
G1X-0.7S0
G1X-0.1S0.8
G1X-0.2S0
G1X-0.1S0.8
G1X-1.9S0
G1X-0.1S0.8
G1X-0.5S0
G1X-0.1S0.8
G1X-0.2S0
G1X-0.1S0.8
G1X-0.5S0
G1X-0.1S0.8
G1X-0.3S0
G1X-0.1S0.8
G1X-0.2S0
G1X-0.1S0.8
G1X-0.1S0
G1X-0.1S0.8
G1X-0.4S0
G1X-0.1S0.8
G1X-0.3S0
G1X-0.1S0.8
G1X-1S0
G1X-0.1S0.8
G1X-0.2S0
G1X-0.1S0.8
G1X-0.3S0
G1X-0.1S0.8
G1X-0.2S0
G1X-0.1S0.8
G1X-0.4S0
G1X-0.1S0.8
G1X-0.2S0
G1X-0.1S0.8
G1X-0.3S0
G1X-0.1S0.8
G1X-0.2S0
G1X-0.1S0.8
G1X-0.2S0
G1X-0.1S0.8
G1X-1.5S0
G1X-0.1S0.8
G1X-1.3S0
G1X-0.1S0.8
G1X-0.2S0
G1X-0.1S0.8
G1X-0.4S0
G1X-0.1S0.8
G1X-0.5S0
G1X-0.1S0.8
G1X-0.8S0
G1X-0.1S0.8
G1X-1.6S0
G1X-0.1S0.8
G1X-0.9S0
G1X-0.1S0.8
G1X-0.8S0
G1X-0.1S0.8
G1X-2.3S0
G1X-0.1S0.8
G1X-2.7S0
G1X-0.1S0.8
G1X-2.1S0
G1X-0.1S0.8
G1X-3.5Y0.1S0
G1X0.1S0.8
G1X0.2S0
G1X0.1S0.8
G1X1.6S0
G1X0.1S0.8
G1X0.4S0
G1X0.1S0.8
G1X1.8S0
G1X0.1S0.8
G1X0.4S0
G1X0.1S0.8
G1X2.3S0
G1X0.1S0.8
G1X0.3S0
G1X0.1S0.8
G1X1.5S0
G1X0.1S0.8
G1X0.2S0
G1X0.1S0.8
G1X1.5S0
G1X0.1S0.8
G1X0.8S0
G1X0.1S0.8
G1X0.9S0
G1X0.1S0.8
G1X0.2S0
G1X0.1S0.8
G1X0.3S0
G1X0.1S0.8
G1X1.1S0
G1X0.1S0.8
G1X0.6S0
G1X0.1S0.8
G1X1.2S0
G1X0.1S0.8
G1X0.2S0
G1X0.1S0.8
G1X0.1S0
G1X0.1S0.8
G1X0.2S0
G1X0.1S0.8
G1X0.4S0
G1X0.1S0.8
G1X0.2S0
G1X0.1S0.8
G1X0.2S0
G1X0.1S0.8
G1X0.2S0
G1X0.1S0.8
G1X0.2S0
G1X0.1S0.8
G1X0.5S0
G1X0.1S0.8
G1X0.3S0
G1X0.1S0.8
G1X0.5S0
G1X0.1S0.8
G1X0.2S0
G1X0.1S0.8
G1X0.5S0
G1X0.1S0.8
G1X0.3S0
G1X0.1S0.8
G1X0.2S0
G1X0.1S0.8
G1X0.2S0
G1X0.1S0.8
G1X0.1S0
G1X0.2S0.8
G1X0.2S0
G1X0.1S0.8
G1X0.4S0
G1X0.1S0.8
G1X0.1S0
G1X0.1S0.8
G1X0.4S0
G1X0.1S0.8
G1X0.5S0
G1X0.1S0.8
G1X0.3S0
G1X0.1S0.8
G1X1.2S0
G1X0.1S0.8
G1X0.2S0
G1X0.1S0.8
G1X0.2S0
G1X0.1S0.8
G1X0.3S0
G1X0.1S0.8
G1X0.2S0
G1X0.1S0.8
G1X0.2S0
G1X0.1S0.8
G1X0.7S0
G1X0.1S0.8
G1X1.5S0
G1X0.1S0.8
G1X0.2S0
G1X0.1S0.8
G1X0.2S0
G1X0.1S0.8
G1X1.2S0
G1X0.1S0.8
G1X0.2S0
G1X0.1S0.8
G1X0.6S0
G1X0.1S0.8
G1X0.5S0
G1X0.1S0.8
G1X1.3S0
G1X0.1S0.8
G1X1.2S0
G1X0.1S0.8
G1X4.5S0
G1X0.1S0.8
G1X0.2S0
G1X0.1S0.8
G1X0.3S0
G1X0.1S0.8
G1X0.2S0
G1X0.1S0.8
G1X0.7S0
G1X0.1S0.8
G1X0.2S0
G1X0.1S0.8
G1X0.2S0
G1X0.1S0.8
G1X0.2S0
G1X0.1S0.8
G1X0.2S0
G1X0.1S0.8
G1X0.2S0
G1X0.1S0.8
G1X0.2S0
G1X0.1S0.8
G1X2.9S0
G1X0.1S0.8
G1X1.4S0
G1X0.1S0.8
G1X0.2S0
G1X0.1S0.8
G1X0.2S0
G1X0.1S0.8
G1X0.6S0
G1X0.1S0.8
G1X0.2S0
G1X0.1S0.8
G1X0.2S0
G1X0.1S0.8
G1X0.4S0
G1X0.1S0.8
G1X0.2S0
G1X0.1S0.8
G1X0.2S0
G1X0.1S0.8
G1X4S0
G1X0.1S0.8
G1X0.2S0
G1X0.1S0.8
G1X0.2S0
G1X0.1S0.8
G1X1.2S0
G1X0.1S0.8
G1X0.5S0
G1X0.1S0.8
G1X2.7S0
G1X0.1S0.8
G1X0.2S0
G1X0.1S0.8
G1X0.8S0
G1X0.1S0.8
G1X1.3S0
G1X0.1S0.8
G1X1.2S0
G1X0.1S0.8
G1X1.1S0
G1X0.1S0.8
G1X0.3S0
G1X0.1S0.8
G1X0.9S0
G1X0.1S0.8
G1X0.2S0
G1X0.1S0.8
G1X0.8S0
G1X0.1S0.8
G1X0.2S0
G1X0.1S0.8
G1X1.7S0
G1X0.1S0.8
G1X0.5S0
G1X0.1S0.8
G1X0.8S0
G1X0.1S0.8
G1X0.2S0
G1X0.1S0.8
G1X0.2S0
G1X0.1S0.8
G1X1.5S0
G1X0.1S0.8
G1X0.8S0
G1X0.1S0.8
G1X1.2S0
G1X0.1S0.8
G1X0.2S0
G1X0.1S0.8
G1X0.3S0
G1X0.1S0.8
G1X1.1S0
G1X0.1S0.8
G1X0.2S0
G1X0.1S0.8
G1X0.2S0
G1X0.1S0.8
G1X0.2S0
G1X0.1S0.8
G1X0.3S0
G1X0.1S0.8
G1X2.5S0
G1X0.1S0.8
G1X0.4S0
G1X0.1S0.8
G1X-0.9Y0.1S0
G1X-0.1S0.8
G1X-0.4S0
G1X-0.1S0.8
G1X-0.6S0
G1X-0.1S0.8
G1X-0.2S0
G1X-0.1S0.8
G1X-2.6S0
G1X-0.1S0.8
G1X-0.2S0
G1X-0.1S0.8
G1X-1.8S0
G1X-0.1S0.8
G1X-0.8S0
G1X-0.1S0.8
G1X-1.5S0
G1X-0.1S0.8
G1X-1.1S0
G1X-0.1S0.8
G1X-0.2S0
G1X-0.1S0.8
G1X-1.7S0
G1X-0.1S0.8
G1X-0.2S0
G1X-0.1S0.8
G1X-1.3S0
G1X-0.1S0.8
G1X-2.3S0
G1X-0.1S0.8
G1X-1.4S0
G1X-0.1S0.8
G1X-0.3S0
G1X-0.1S0.8
G1X-0.4S0
G1X-0.1S0.8
G1X-0.2S0
G1X-0.1S0.8
G1X-0.2S0
G1X-0.1S0.8
G1X-0.2S0
G1X-0.1S0.8
G1X-0.5S0
G1X-0.1S0.8
G1X-0.2S0
G1X-0.1S0.8
G1X-0.8S0
G1X-0.1S0.8
G1X-1S0
G1X-0.1S0.8
G1X-0.3S0
G1X-0.1S0.8
G1X-0.3S0
G1X-0.1S0.8
G1X-0.2S0
G1X-0.1S0.8
G1X-0.5S0
G1X-0.1S0.8
G1X-0.6S0
G1X-0.1S0.8
G1X-0.2S0
G1X-0.1S0.8
G1X-0.2S0
G1X-0.1S0.8
G1X-1.2S0
G1X-0.1S0.8
G1X-0.3S0
G1X-0.1S0.8
G1X-0.4S0
G1X-0.1S0.8
G1X-0.6S0
G1X-0.1S0.8
G1X-0.4S0
G1X-0.1S0.8
G1X-0.2S0
G1X-0.1S0.8
G1X-0.2S0
G1X-0.1S0.8
G1X-1.7S0
G1X-0.1S0.8
G1X-2.6S0
G1X-0.1S0.8
G1X-0.3S0
G1X-0.1S0.8
G1X-0.2S0
G1X-0.1S0.8
G1X-1.3S0
G1X-0.1S0.8
G1X-4S0
G1X-0.1S0.8
G1X-2.7S0
G1X-0.1S0.8
G1X-0.3S0
G1X-0.1S0.8
G1X-0.2S0
G1X-0.1S0.8
G1X-0.2S0
G1X-0.1S0.8
G1X-0.2S0
G1X-0.1S0.8
G1X-0.2S0
G1X-0.1S0.8
G1X-1S0
G1X-0.1S0.8
G1X-0.2S0
G1X-0.1S0.8
G1X-0.6S0
G1X-0.1S0.8
G1X-0.2S0
G1X-0.1S0.8
G1X-0.2S0
G1X-0.1S0.8
G1X-0.9S0
G1X-0.1S0.8
G1X-3.1S0
G1X-0.1S0.8
G1X-1.7S0
G1X-0.1S0.8
G1X-0.3S0
G1X-0.1S0.8
G1X-0.6S0
G1X-0.1S0.8
G1X-1.2S0
G1X-0.1S0.8
G1X-1S0
G1X-0.1S0.8
G1X-0.1S0
G1X-0.1S0.8
G1X-0.2S0
G1X-0.1S0.8
G1X-0.2S0
G1X-0.1S0.8
G1X-0.7S0
G1X-0.1S0.8
G1X-0.6S0
G1X-0.1S0.8
G1X-0.5S0
G1X-0.1S0.8
G1X-0.2S0
G1X-0.1S0.8
G1X-0.4S0
G1X-0.1S0.8
G1X-0.2S0
G1X-0.1S0.8
G1X-0.4S0
G1X-0.1S0.8
G1X-0.2S0
G1X-0.1S0.8
G1X-0.2S0
G1X-0.1S0.8
G1X-0.2S0
G1X-0.1S0.8
G1X-0.4S0
G1X-0.1S0.8
G1X-1.1S0
G1X-0.1S0.8
G1X-1.5S0
G1X-0.1S0.8
G1X-1.3S0
G1X-0.1S0.8
G1X-0.3S0
G1X-0.1S0.8
G1X-0.8S0
G1X-0.1S0.8
G1X-0.6S0
G1X-0.1S0.8
G1X-0.4S0
G1X-0.1S0.8
G1X-1.5S0
G1X-0.1S0.8
G1X-0.9S0
G1X-0.1S0.8
G1X-1S0
G1X-0.1S0.8
G1X-0.2S0
G1X-0.1S0.8
G1X-1.2S0
G1X-0.1S0.8
G1X-0.7S0
G1X-0.1S0.8
G1X-1S0
G1X-0.1S0.8
G1X-0.4S0
G1X-0.1S0.8
G1X-1.1S0
G1X-0.1S0.8
G1X-1S0
G1X-0.1S0.8
G1X-0.2S0
G1X-0.1S0.8
G1X-0.5S0
G1X-0.1S0.8
G1X-0.3S0
G1X-0.1S0.8
G1X-1.3S0
G1X-0.1S0.8
G1X-0.3S0
G1X-0.1S0.8
G1X-0.2S0
G1X-0.1S0.8
G1X1Y0.1S0
G1X0.1S0.8
G1X0.4S0
G1X0.1S0.8
G1X2.4S0
G1X0.1S0.8
G1X0.8S0
G1X0.1S0.8
G1X0.3S0
G1X0.1S0.8
G1X2.2S0
G1X0.1S0.8
G1X0.7S0
G1X0.1S0.8
G1X1.5S0
G1X0.1S0.8
G1X2S0
G1X0.1S0.8
G1X1.4S0
G1X0.1S0.8
G1X0.5S0
G1X0.1S0.8
G1X0.9S0
G1X0.1S0.8
G1X0.9S0
G1X0.1S0.8
G1X0.2S0
G1X0.1S0.8
G1X0.4S0
G1X0.1S0.8
G1X0.6S0
G1X0.1S0.8
G1X0.2S0
G1X0.1S0.8
G1X0.2S0
G1X0.1S0.8
G1X0.2S0
G1X0.1S0.8
G1X0.4S0
G1X0.1S0.8
G1X0.1S0
G1X0.1S0.8
G1X0.2S0
G1X0.1S0.8
G1X0.2S0
G1X0.1S0.8
G1X0.2S0
G1X0.1S0.8
G1X0.6S0
G1X0.1S0.8
G1X0.5S0
G1X0.1S0.8
G1X0.2S0
G1X0.1S0.8
G1X0.8S0
G1X0.1S0.8
G1X0.4S0
G1X0.1S0.8
G1X0.2S0
G1X0.1S0.8
G1X0.2S0
G1X0.1S0.8
G1X0.1S0
G1X0.1S0.8
G1X0.2S0
G1X0.1S0.8
G1X0.3S0
G1X0.1S0.8
G1X0.2S0
G1X0.1S0.8
G1X1S0
G1X0.1S0.8
G1X0.3S0
G1X0.1S0.8
G1X0.2S0
G1X0.1S0.8
G1X0.9S0
G1X0.1S0.8
G1X0.8S0
G1X0.1S0.8
G1X0.9S0
G1X0.1S0.8
G1X0.2S0
G1X0.1S0.8
G1X0.2S0
G1X0.1S0.8
G1X1.2S0
G1X0.1S0.8
G1X0.2S0
G1X0.1S0.8
G1X0.2S0
G1X0.1S0.8
G1X0.5S0
G1X0.1S0.8
G1X0.2S0
G1X0.1S0.8
G1X0.3S0
G1X0.1S0.8
G1X0.2S0
G1X0.1S0.8
G1X0.3S0
G1X0.1S0.8
G1X0.5S0
G1X0.1S0.8
G1X0.2S0
G1X0.1S0.8
G1X1.2S0
G1X0.1S0.8
G1X0.9S0
G1X0.1S0.8
G1X0.2S0
G1X0.1S0.8
G1X2.3S0
G1X0.1S0.8
G1X0.2S0
G1X0.1S0.8
G1X0.2S0
G1X0.1S0.8
G1X0.2S0
G1X0.1S0.8
G1X3.9S0
G1X0.1S0.8
G1X0.2S0
G1X0.1S0.8
G1X0.2S0
G1X0.1S0.8
G1X0.2S0
G1X0.1S0.8
G1X0.3S0
G1X0.1S0.8
G1X0.6S0
G1X0.1S0.8
G1X0.2S0
G1X0.1S0.8
G1X0.2S0
G1X0.1S0.8
G1X1.3S0
G1X0.1S0.8
G1X1S0
G1X0.1S0.8
G1X0.2S0
G1X0.1S0.8
G1X2S0
G1X0.1S0.8
G1X0.2S0
G1X0.1S0.8
G1X1.8S0
G1X0.1S0.8
G1X1.5S0
G1X0.1S0.8
G1X1.8S0
G1X0.1S0.8
G1X2.2S0
G1X0.1S0.8
G1X0.2S0
G1X0.1S0.8
G1X0.2S0
G1X0.1S0.8
G1X4.1S0
G1X0.1S0.8
G1X0.5S0
G1X0.1S0.8
G1X0.2S0
G1X0.1S0.8
G1X1.1S0
G1X0.1S0.8
G1X0.2S0
G1X0.1S0.8
G1X2.1S0
G1X0.1S0.8
G1X0.9S0
G1X0.1S0.8
G1X0.2S0
G1X0.1S0.8
G1X0.3S0
G1X0.1S0.8
G1X0.2S0
G1X0.1S0.8
G1X2.2S0
G1X0.1S0.8
G1X0.2S0
G1X0.1S0.8
G1X0.2S0
G1X0.1S0.8
G1X0.9S0
G1X0.1S0.8
G1X0.7S0
G1X0.1S0.8
G1X0.2S0
G1X0.1S0.8
G1X0.2S0
G1X0.1S0.8
G1X0.5S0
G1X0.1S0.8
G1X1S0
G1X0.1S0.8
G1X1.9S0
G1X0.1S0.8
G1X1S0
G1X0.1S0.8
G1X2.1S0
G1X0.1S0.8
G1X-0.3Y0.1S0
G1X-0.1S0.8
G1X-0.3S0
G1X-0.1S0.8
G1X-0.2S0
G1X-0.1S0.8
G1X-0.5S0
G1X-0.1S0.8
G1X-2S0
G1X-0.1S0.8
G1X-0.2S0
G1X-0.1S0.8
G1X-0.6S0
G1X-0.1S0.8
G1X-0.2S0
G1X-0.1S0.8
G1X-1.1S0
G1X-0.1S0.8
G1X-0.4S0
G1X-0.1S0.8
G1X-1.3S0
G1X-0.1S0.8
G1X-0.9S0
G1X-0.1S0.8
G1X-1.5S0
G1X-0.1S0.8
G1X-0.2S0
G1X-0.1S0.8
G1X-0.2S0
G1X-0.1S0.8
G1X-0.3S0
G1X-0.1S0.8
G1X-0.3S0
G1X-0.1S0.8
G1X-0.7S0
G1X-0.1S0.8
G1X-1.7S0
G1X-0.1S0.8
G1X-0.2S0
G1X-0.1S0.8
G1X-0.7S0
G1X-0.1S0.8
G1X-0.3S0
G1X-0.1S0.8
G1X-0.8S0
G1X-0.1S0.8
G1X-0.2S0
G1X-0.1S0.8
G1X-1.1S0
G1X-0.1S0.8
G1X-0.7S0
G1X-0.1S0.8
G1X-0.4S0
G1X-0.1S0.8
G1X-0.5S0
G1X-0.1S0.8
G1X-0.6S0
G1X-0.1S0.8
G1X-0.2S0
G1X-0.1S0.8
G1X-0.4S0
G1X-0.1S0.8
G1X-0.2S0
G1X-0.1S0.8
G1X-0.2S0
G1X-0.1S0.8
G1X-1.5S0
G1X-0.1S0.8
G1X-0.3S0
G1X-0.1S0.8
G1X-0.4S0
G1X-0.1S0.8
G1X-0.2S0
G1X-0.1S0.8
G1X-0.2S0
G1X-0.1S0.8
G1X-1.2S0
G1X-0.1S0.8
G1X-0.2S0
G1X-0.1S0.8
G1X-0.2S0
G1X-0.1S0.8
G1X-0.7S0
G1X-0.1S0.8
G1X-0.4S0
G1X-0.1S0.8
G1X-1.1S0
G1X-0.1S0.8
G1X-0.9S0
G1X-0.1S0.8
G1X-0.9S0
G1X-0.1S0.8
G1X-0.2S0
G1X-0.1S0.8
G1X-0.4S0
G1X-0.1S0.8
G1X-0.2S0
G1X-0.1S0.8
G1X-0.2S0
G1X-0.1S0.8
G1X-0.7S0
G1X-0.1S0.8
G1X-0.2S0
G1X-0.1S0.8
G1X-0.2S0
G1X-0.1S0.8
G1X-0.6S0
G1X-0.1S0.8
G1X-0.6S0
G1X-0.1S0.8
G1X-3.1S0
G1X-0.1S0.8
G1X-0.3S0
G1X-0.1S0.8
G1X-0.2S0
G1X-0.1S0.8
G1X-0.2S0
G1X-0.1S0.8
G1X-0.2S0
G1X-0.1S0.8
G1X-0.2S0
G1X-0.1S0.8
G1X-0.2S0
G1X-0.1S0.8
G1X-0.5S0
G1X-0.1S0.8
G1X-0.2S0
G1X-0.1S0.8
G1X-0.2S0
G1X-0.1S0.8
G1X-0.2S0
G1X-0.1S0.8
G1X-3.2S0
G1X-0.1S0.8
G1X-5.4S0
G1X-0.1S0.8
G1X-1.2S0
G1X-0.1S0.8
G1X-0.2S0
G1X-0.1S0.8
G1X-0.2S0
G1X-0.1S0.8
G1X-1.2S0
G1X-0.1S0.8
G1X-0.2S0
G1X-0.1S0.8
G1X-0.6S0
G1X-0.1S0.8
G1X-0.2S0
G1X-0.1S0.8
G1X-0.4S0
G1X-0.1S0.8
G1X-0.2S0
G1X-0.1S0.8
G1X-0.7S0
G1X-0.1S0.8
G1X-0.7S0
G1X-0.1S0.8
G1X-0.2S0
G1X-0.1S0.8
G1X-1.1S0
G1X-0.1S0.8
G1X-0.7S0
G1X-0.1S0.8
G1X-0.3S0
G1X-0.1S0.8
G1X-0.4S0
G1X-0.2S0.8
G1X-0.1S0
G1X-0.2S0.8
G1X-0.2S0
G1X-0.1S0.8
G1X-0.2S0
G1X-0.1S0.8
G1X-0.2S0
G1X-0.1S0.8
G1X-0.2S0
G1X-0.1S0.8
G1X-0.2S0
G1X-0.1S0.8
G1X-0.1S0
G1X-0.1S0.8
G1X-0.6S0
G1X-0.1S0.8
G1X-0.8S0
G1X-0.1S0.8
G1X-1.2S0
G1X-0.1S0.8
G1X-0.6S0
G1X-0.1S0.8
G1X-1S0
G1X-0.1S0.8
G1X-0.7S0
G1X-0.1S0.8
G1X-0.2S0
G1X-0.1S0.8
G1X-1.1S0
G1X-0.1S0.8
G1X-0.2S0
G1X-0.1S0.8
G1X-0.2S0
G1X-0.1S0.8
G1X-0.2S0
G1X-0.1S0.8
G1X-0.8S0
G1X-0.1S0.8
G1X-0.3S0
G1X-0.1S0.8
G1X-0.6S0
G1X-0.1S0.8
G1X-1.3S0
G1X-0.1S0.8
G1X-1.9S0
G1X-0.1S0.8
G1X-0.4S0
G1X-0.1S0.8
G1X-0.4S0
G1X-0.1S0.8
G1X-3.1S0
G1X-0.1S0.8
G1X-0.9S0
G1X-0.1S0.8
G1X-2S0
G1X-0.1S0.8
G1X-0.2S0
G1X-0.1S0.8
G1X-0.2S0
G1X-0.1S0.8
G1X0.9Y0.1S0
G1X0.1S0.8
G1X0.2S0
G1X0.1S0.8
G1X0.2S0
G1X0.1S0.8
G1X0.5S0
G1X0.1S0.8
G1X0.9S0
G1X0.1S0.8
G1X0.2S0
G1X0.1S0.8
G1X1.1S0
G1X0.1S0.8
G1X0.6S0
G1X0.1S0.8
G1X1.1S0
G1X0.1S0.8
G1X2.2S0
G1X0.1S0.8
G1X0.7S0
G1X0.1S0.8
G1X0.5S0
G1X0.1S0.8
G1X4.4S0
G1X0.1S0.8
G1X0.2S0
G1X0.1S0.8
G1X0.8S0
G1X0.1S0.8
G1X0.2S0
G1X0.1S0.8
G1X0.4S0
G1X0.1S0.8
G1X0.1S0
G1X0.1S0.8
G1X1S0
G1X0.1S0.8
G1X0.5S0
G1X0.1S0.8
G1X0.2S0
G1X0.1S0.8
G1X0.2S0
G1X0.1S0.8
G1X0.5S0
G1X0.1S0.8
G1X0.2S0
G1X0.1S0.8
G1X0.5S0
G1X0.1S0.8
G1X0.2S0
G1X0.1S0.8
G1X0.4S0
G1X0.1S0.8
G1X0.4S0
G1X0.1S0.8
G1X0.2S0
G1X0.1S0.8
G1X1S0
G1X0.1S0.8
G1X0.2S0
G1X0.1S0.8
G1X0.2S0
G1X0.1S0.8
G1X0.4S0
G1X0.1S0.8
G1X0.7S0
G1X0.1S0.8
G1X0.2S0
G1X0.1S0.8
G1X0.2S0
G1X0.1S0.8
G1X0.6S0
G1X0.1S0.8
G1X0.2S0
G1X0.1S0.8
G1X0.8S0
G1X0.1S0.8
G1X1.6S0
G1X0.1S0.8
G1X0.9S0
G1X0.1S0.8
G1X0.4S0
G1X0.1S0.8
G1X3.1S0
G1X0.1S0.8
G1X1S0
G1X0.1S0.8
G1X0.9S0
G1X0.1S0.8
G1X0.2S0
G1X0.1S0.8
G1X0.2S0
G1X0.1S0.8
G1X0.6S0
G1X0.1S0.8
G1X0.2S0
G1X0.1S0.8
G1X1.4S0
G1X0.1S0.8
G1X0.2S0
G1X0.1S0.8
G1X0.2S0
G1X0.1S0.8
G1X0.2S0
G1X0.1S0.8
G1X0.2S0
G1X0.1S0.8
G1X2.7S0
G1X0.1S0.8
G1X4S0
G1X0.1S0.8
G1X1.5S0
G1X0.1S0.8
G1X5.1S0
G1X0.1S0.8
G1X0.2S0
G1X0.1S0.8
G1X0.6S0
G1X0.1S0.8
G1X0.4S0
G1X0.1S0.8
G1X1.1S0
G1X0.1S0.8
G1X1.3S0
G1X0.1S0.8
G1X0.2S0
G1X0.1S0.8
G1X0.2S0
G1X0.1S0.8
G1X1.2S0
G1X0.1S0.8
G1X0.8S0
G1X0.1S0.8
G1X0.8S0
G1X0.1S0.8
G1X1.9S0
G1X0.1S0.8
G1X0.2S0
G1X0.1S0.8
G1X0.4S0
G1X0.1S0.8
G1X0.5S0
G1X0.1S0.8
G1X0.4S0
G1X0.1S0.8
G1X1.3S0
G1X0.1S0.8
G1X2.1S0
G1X0.1S0.8
G1X1.3S0
G1X0.1S0.8
G1X0.2S0
G1X0.1S0.8
G1X0.2S0
G1X0.1S0.8
G1X1S0
G1X0.1S0.8
G1X1.9S0
G1X0.1S0.8
G1X1.4S0
G1X0.1S0.8
G1X0.2S0
G1X0.1S0.8
G1X0.6S0
G1X0.1S0.8
G1X0.4S0
G1X0.1S0.8
G1X0.2S0
G1X0.1S0.8
G1X1.1S0
G1X0.1S0.8
G1X0.2S0
G1X0.1S0.8
G1X1.1S0
G1X0.1S0.8
G1X1.3S0
G1X0.1S0.8
G1X0.4S0
G1X0.1S0.8
G1X1.2Y0.1S0
G1X-0.1S0.8
G1X-0.5S0
G1X-0.1S0.8
G1X-1.4S0
G1X-0.1S0.8
G1X-1.8S0
G1X-0.1S0.8
G1X-1.1S0
G1X-0.1S0.8
G1X-0.2S0
G1X-0.1S0.8
G1X-0.7S0
G1X-0.1S0.8
G1X-0.6S0
G1X-0.1S0.8
G1X-1.1S0
G1X-0.1S0.8
G1X-0.2S0
G1X-0.1S0.8
G1X-0.2S0
G1X-0.1S0.8
G1X-1.3S0
G1X-0.1S0.8
G1X-0.3S0
G1X-0.1S0.8
G1X-0.7S0
G1X-0.1S0.8
G1X-0.4S0
G1X-0.1S0.8
G1X-1.2S0
G1X-0.1S0.8
G1X-0.6S0
G1X-0.1S0.8
G1X-1.2S0
G1X-0.1S0.8
G1X-0.2S0
G1X-0.1S0.8
G1X-1.1S0
G1X-0.1S0.8
G1X-0.2S0
G1X-0.1S0.8
G1X-0.4S0
G1X-0.1S0.8
G1X-2.7S0
G1X-0.1S0.8
G1X-0.2S0
G1X-0.1S0.8
G1X-0.7S0
G1X-0.1S0.8
G1X-0.5S0
G1X-0.1S0.8
G1X-0.2S0
G1X-0.1S0.8
G1X-0.7S0
G1X-0.1S0.8
G1X-2.7S0
G1X-0.1S0.8
G1X-1.4S0
G1X-0.1S0.8
G1X-0.2S0
G1X-0.1S0.8
G1X-0.4S0
G1X-0.1S0.8
G1X-1.7S0
G1X-0.1S0.8
G1X-0.2S0
G1X-0.1S0.8
G1X-0.2S0
G1X-0.1S0.8
G1X-0.7S0
G1X-0.1S0.8
G1X-0.9S0
G1X-0.1S0.8
G1X-0.2S0
G1X-0.1S0.8
G1X-1S0
G1X-0.1S0.8
G1X-0.2S0
G1X-0.1S0.8
G1X-1.2S0
G1X-0.1S0.8
G1X-0.2S0
G1X-0.1S0.8
G1X-0.2S0
G1X-0.1S0.8
G1X-0.5S0
G1X-0.1S0.8
G1X-0.2S0
G1X-0.1S0.8
G1X-0.2S0
G1X-0.1S0.8
G1X-0.3S0
G1X-0.1S0.8
G1X-0.2S0
G1X-0.1S0.8
G1X-4.1S0
G1X-0.1S0.8
G1X-0.3S0
G1X-0.1S0.8
G1X-0.3S0
G1X-0.1S0.8
G1X-2.3S0
G1X-0.1S0.8
G1X-0.2S0
G1X-0.1S0.8
G1X-0.9S0
G1X-0.1S0.8
G1X-1.2S0
G1X-0.1S0.8
G1X-0.2S0
G1X-0.1S0.8
G1X-0.4S0
G1X-0.1S0.8
G1X-0.2S0
G1X-0.1S0.8
G1X-0.2S0
G1X-0.1S0.8
G1X-0.5S0
G1X-0.1S0.8
G1X-0.2S0
G1X-0.1S0.8
G1X-0.3S0
G1X-0.1S0.8
G1X-0.2S0
G1X-0.1S0.8
G1X-0.2S0
G1X-0.1S0.8
G1X-0.2S0
G1X-0.1S0.8
G1X-0.3S0
G1X-0.1S0.8
G1X-0.5S0
G1X-0.1S0.8
G1X-0.4S0
G1X-0.1S0.8
G1X-1.9S0
G1X-0.1S0.8
G1X-0.2S0
G1X-0.1S0.8
G1X-0.2S0
G1X-0.1S0.8
G1X-0.6S0
G1X-0.1S0.8
G1X-0.3S0
G1X-0.1S0.8
G1X-0.8S0
G1X-0.1S0.8
G1X-0.5S0
G1X-0.1S0.8
G1X-0.3S0
G1X-0.1S0.8
G1X-0.3S0
G1X-0.2S0.8
G1X-0.2S0
G1X-0.1S0.8
G1X-0.2S0
G1X-0.1S0.8
G1X-0.5S0
G1X-0.1S0.8
G1X-0.4S0
G1X-0.1S0.8
G1X-0.2S0
G1X-0.1S0.8
G1X-0.1S0
G1X-0.1S0.8
G1X-0.5S0
G1X-0.1S0.8
G1X-0.2S0
G1X-0.1S0.8
G1X-0.7S0
G1X-0.1S0.8
G1X-0.3S0
G1X-0.1S0.8
G1X-0.2S0
G1X-0.1S0.8
G1X-0.5S0
G1X-0.1S0.8
G1X-0.2S0
G1X-0.1S0.8
G1X-1.4S0
G1X-0.1S0.8
G1X-0.2S0
G1X-0.1S0.8
G1X-0.2S0
G1X-0.1S0.8
G1X-1.7S0
G1X-0.1S0.8
G1X-0.8S0
G1X-0.1S0.8
G1X-1.3S0
G1X-0.1S0.8
G1X-0.2S0
G1X-0.1S0.8
G1X-1S0
G1X-0.1S0.8
G1X-0.6S0
G1X-0.1S0.8
G1X-0.3S0
G1X-0.1S0.8
G1X-1.3S0
G1X-0.1S0.8
G1X-0.7S0
G1X-0.1S0.8
G1X-2S0
G1X-0.1S0.8
G1X-0.2S0
G1X-0.1S0.8
G1X-0.2S0
G1X-0.1S0.8
G1X-1.2S0
G1X-0.1S0.8
G1X-0.2S0
G1X-0.1S0.8
G1X-2.1S0
G1X-0.1S0.8
G1X-1.6Y0.1S0
G1X0.1S0.8
G1X0.3S0
G1X0.1S0.8
G1X1.7S0
G1X0.1S0.8
G1X0.2S0
G1X0.1S0.8
G1X0.9S0
G1X0.1S0.8
G1X1.1S0
G1X0.1S0.8
G1X1.8S0
G1X0.1S0.8
G1X0.2S0
G1X0.1S0.8
G1X0.2S0
G1X0.1S0.8
G1X0.2S0
G1X0.1S0.8
G1X0.2S0
G1X0.1S0.8
G1X3.2S0
G1X0.1S0.8
G1X0.5S0
G1X0.1S0.8
G1X0.2S0
G1X0.1S0.8
G1X1S0
G1X0.1S0.8
G1X0.2S0
G1X0.1S0.8
G1X0.2S0
G1X0.1S0.8
G1X0.2S0
G1X0.1S0.8
G1X0.6S0
G1X0.1S0.8
G1X0.6S0
G1X0.1S0.8
G1X0.6S0
G1X0.1S0.8
G1X0.2S0
G1X0.1S0.8
G1X1.4S0
G1X0.1S0.8
G1X0.1S0
G1X0.1S0.8
G1X0.2S0
G1X0.1S0.8
G1X0.2S0
G1X0.1S0.8
G1X0.7S0
G1X0.1S0.8
G1X0.6S0
G1X0.1S0.8
G1X0.5S0
G1X0.1S0.8
G1X0.1S0
G1X0.2S0.8
G1X0.4S0
G1X0.1S0.8
G1X0.2S0
G1X0.1S0.8
G1X0.2S0
G1X0.1S0.8
G1X0.2S0
G1X0.1S0.8
G1X0.2S0
G1X0.1S0.8
G1X0.1S0
G1X0.1S0.8
G1X0.4S0
G1X0.1S0.8
G1X0.5S0
G1X0.1S0.8
G1X0.6S0
G1X0.1S0.8
G1X0.8S0
G1X0.1S0.8
G1X0.3S0
G1X0.1S0.8
G1X0.3S0
G1X0.1S0.8
G1X1.1S0
G1X0.1S0.8
G1X1S0
G1X0.1S0.8
G1X0.2S0
G1X0.1S0.8
G1X0.3S0
G1X0.1S0.8
G1X0.2S0
G1X0.1S0.8
G1X0.2S0
G1X0.1S0.8
G1X1.2S0
G1X0.1S0.8
G1X7.1S0
G1X0.1S0.8
G1X0.2S0
G1X0.1S0.8
G1X2.8S0
G1X0.1S0.8
G1X0.3S0
G1X0.1S0.8
G1X0.3S0
G1X0.1S0.8
G1X0.2S0
G1X0.1S0.8
G1X0.5S0
G1X0.1S0.8
G1X0.2S0
G1X0.1S0.8
G1X0.2S0
G1X0.1S0.8
G1X0.2S0
G1X0.1S0.8
G1X0.2S0
G1X0.1S0.8
G1X0.2S0
G1X0.1S0.8
G1X0.2S0
G1X0.1S0.8
G1X3.1S0
G1X0.1S0.8
G1X0.5S0
G1X0.1S0.8
G1X0.9S0
G1X0.1S0.8
G1X0.2S0
G1X0.1S0.8
G1X1.1S0
G1X0.1S0.8
G1X0.8S0
G1X0.1S0.8
G1X2S0
G1X0.1S0.8
G1X0.2S0
G1X0.1S0.8
G1X1.5S0
G1X0.1S0.8
G1X0.4S0
G1X0.1S0.8
G1X0.2S0
G1X0.1S0.8
G1X0.6S0
G1X0.1S0.8
G1X0.9S0
G1X0.1S0.8
G1X0.2S0
G1X0.1S0.8
G1X0.2S0
G1X0.1S0.8
G1X0.2S0
G1X0.1S0.8
G1X0.8S0
G1X0.1S0.8
G1X1.6S0
G1X0.1S0.8
G1X0.2S0
G1X0.1S0.8
G1X0.7S0
G1X0.1S0.8
G1X0.7S0
G1X0.1S0.8
G1X0.4S0
G1X0.1S0.8
G1X0.6S0
G1X0.1S0.8
G1X1.8S0
G1X0.1S0.8
G1X0.2S0
G1X0.1S0.8
G1X0.8S0
G1X0.1S0.8
G1X0.2S0
G1X0.1S0.8
G1X1S0
G1X0.1S0.8
G1X2.5S0
G1X0.1S0.8
G1X0.9S0
G1X0.1S0.8
G1X0.2S0
G1X0.1S0.8
G1X0.2S0
G1X0.1S0.8
G1X1.3S0
G1X0.1S0.8
G1X2.9S0
G1X0.1S0.8
G1X1.1S0
G1X0.1S0.8
G1X0.7S0
G1X0.1S0.8
G1X0.2S0
G1X0.1S0.8
G1X1.1S0
G1X0.1S0.8
G1X0.4S0
G1X0.1S0.8
G1X0.5S0
G1X0.1S0.8
G1X0.8S0
G1X0.1S0.8
G1X0.2S0
G1X0.1S0.8
G1X0.2S0
G1X0.1S0.8
G1X0.3Y0.1S0
G1X-0.1S0.8
G1X-1.1S0
G1X-0.1S0.8
G1X-2S0
G1X-0.1S0.8
G1X-0.4S0
G1X-0.1S0.8
G1X-1S0
G1X-0.1S0.8
G1X-0.6S0
G1X-0.1S0.8
G1X-0.2S0
G1X-0.1S0.8
G1X-0.2S0
G1X-0.1S0.8
G1X-0.9S0
G1X-0.1S0.8
G1X-0.2S0
G1X-0.1S0.8
G1X-0.4S0
G1X-0.1S0.8
G1X-0.2S0
G1X-0.1S0.8
G1X-0.4S0
G1X-0.1S0.8
G1X-0.2S0
G1X-0.1S0.8
G1X-1.3S0
G1X-0.1S0.8
G1X-1.4S0
G1X-0.1S0.8
G1X-0.6S0
G1X-0.1S0.8
G1X-0.4S0
G1X-0.1S0.8
G1X-0.3S0
G1X-0.1S0.8
G1X-0.2S0
G1X-0.1S0.8
G1X-0.2S0
G1X-0.1S0.8
G1X-0.2S0
G1X-0.1S0.8
G1X-1.2S0
G1X-0.1S0.8
G1X-2.9S0
G1X-0.1S0.8
G1X-1S0
G1X-0.1S0.8
G1X-0.4S0
G1X-0.1S0.8
G1X-0.4S0
G1X-0.1S0.8
G1X-0.2S0
G1X-0.1S0.8
G1X-1.8S0
G1X-0.1S0.8
G1X-0.2S0
G1X-0.1S0.8
G1X-0.5S0
G1X-0.1S0.8
G1X-0.8S0
G1X-0.1S0.8
G1X-1.5S0
G1X-0.1S0.8
G1X-0.2S0
G1X-0.1S0.8
G1X-0.6S0
G1X-0.1S0.8
G1X-1.8S0
G1X-0.1S0.8
G1X-0.4S0
G1X-0.1S0.8
G1X-1S0
G1X-0.1S0.8
G1X-0.2S0
G1X-0.1S0.8
G1X-0.9S0
G1X-0.1S0.8
G1X-0.8S0
G1X-0.1S0.8
G1X-1.2S0
G1X-0.1S0.8
G1X-1.7S0
G1X-0.1S0.8
G1X-5.5S0
G1X-0.1S0.8
G1X-2.8S0
G1X-0.1S0.8
G1X-1S0
G1X-0.1S0.8
G1X-1.3S0
G1X-0.1S0.8
G1X-0.2S0
G1X-0.1S0.8
G1X-0.2S0
G1X-0.1S0.8
G1X-0.3S0
G1X-0.1S0.8
G1X-0.2S0
G1X-0.1S0.8
G1X-0.2S0
G1X-0.1S0.8
G1X-0.2S0
G1X-0.1S0.8
G1X-1.9S0
G1X-0.1S0.8
G1X-0.6S0
G1X-0.1S0.8
G1X-1.2S0
G1X-0.1S0.8
G1X-0.9S0
G1X-0.1S0.8
G1X-0.4S0
G1X-0.1S0.8
G1X-1.9S0
G1X-0.1S0.8
G1X-0.9S0
G1X-0.1S0.8
G1X-0.2S0
G1X-0.1S0.8
G1X-0.2S0
G1X-0.1S0.8
G1X-0.3S0
G1X-0.1S0.8
G1X-0.9S0
G1X-0.1S0.8
G1X-0.2S0
G1X-0.1S0.8
G1X-0.6S0
G1X-0.1S0.8
G1X-0.5S0
G1X-0.2S0.8
G1X-0.2S0
G1X-0.1S0.8
G1X-0.2S0
G1X-0.1S0.8
G1X-0.3S0
G1X-0.1S0.8
G1X-0.7S0
G1X-0.1S0.8
G1X-0.5S0
G1X-0.1S0.8
G1X-0.5S0
G1X-0.1S0.8
G1X-0.2S0
G1X-0.1S0.8
G1X-0.4S0
G1X-0.1S0.8
G1X-0.2S0
G1X-0.1S0.8
G1X-0.5S0
G1X-0.1S0.8
G1X-1.2S0
G1X-0.1S0.8
G1X-0.2S0
G1X-0.1S0.8
G1X-0.3S0
G1X-0.1S0.8
G1X-0.2S0
G1X-0.1S0.8
G1X-0.7S0
G1X-0.1S0.8
G1X-0.2S0
G1X-0.1S0.8
G1X-1.1S0
G1X-0.1S0.8
G1X-2S0
G1X-0.1S0.8
G1X-2.5S0
G1X-0.1S0.8
G1X-0.4S0
G1X-0.1S0.8
G1X-0.7S0
G1X-0.1S0.8
G1X-3.3S0
G1X-0.1S0.8
G1X-1.7S0
G1X-0.1S0.8
G1X-0.3S0
G1X-0.1S0.8
G1X-0.8S0
G1X-0.1S0.8
G1X-0.7S0
G1X-0.1S0.8
G1X-0.2S0
G1X-0.1S0.8
G1X0.6Y0.1S0
G1X0.1S0.8
G1X2.8S0
G1X0.1S0.8
G1X1.9S0
G1X0.1S0.8
G1X2.3S0
G1X0.1S0.8
G1X1.2S0
G1X0.1S0.8
G1X0.3S0
G1X0.1S0.8
G1X0.3S0
G1X0.1S0.8
G1X1.8S0
G1X0.1S0.8
G1X2S0
G1X0.1S0.8
G1X0.2S0
G1X0.1S0.8
G1X1.1S0
G1X0.1S0.8
G1X1.8S0
G1X0.1S0.8
G1X0.2S0
G1X0.1S0.8
G1X0.2S0
G1X0.1S0.8
G1X0.3S0
G1X0.2S0.8
G1X0.4S0
G1X0.1S0.8
G1X0.2S0
G1X0.1S0.8
G1X0.3S0
G1X0.1S0.8
G1X0.6S0
G1X0.1S0.8
G1X0.2S0
G1X0.1S0.8
G1X0.2S0
G1X0.1S0.8
G1X0.2S0
G1X0.1S0.8
G1X0.1S0
G1X0.1S0.8
G1X0.2S0
G1X0.1S0.8
G1X0.4S0
G1X0.1S0.8
G1X0.8S0
G1X0.1S0.8
G1X0.2S0
G1X0.1S0.8
G1X0.2S0
G1X0.1S0.8
G1X0.2S0
G1X0.1S0.8
G1X0.5S0
G1X0.1S0.8
G1X0.2S0
G1X0.1S0.8
G1X1.9S0
G1X0.1S0.8
G1X0.2S0
G1X0.1S0.8
G1X0.8S0
G1X0.1S0.8
G1X0.2S0
G1X0.1S0.8
G1X0.6S0
G1X0.1S0.8
G1X1.1S0
G1X0.1S0.8
G1X0.3S0
G1X0.1S0.8
G1X0.5S0
G1X0.1S0.8
G1X0.2S0
G1X0.1S0.8
G1X0.2S0
G1X0.1S0.8
G1X0.6S0
G1X0.1S0.8
G1X0.6S0
G1X0.1S0.8
G1X0.2S0
G1X0.1S0.8
G1X0.2S0
G1X0.1S0.8
G1X0.2S0
G1X0.1S0.8
G1X0.2S0
G1X0.1S0.8
G1X2.8S0
G1X0.1S0.8
G1X1.1S0
G1X0.1S0.8
G1X0.2S0
G1X0.1S0.8
G1X0.8S0
G1X0.1S0.8
G1X0.2S0
G1X0.1S0.8
G1X0.2S0
G1X0.1S0.8
G1X4.1S0
G1X0.1S0.8
G1X0.2S0
G1X0.1S0.8
G1X0.2S0
G1X0.1S0.8
G1X0.2S0
G1X0.1S0.8
G1X0.4S0
G1X0.1S0.8
G1X0.3S0
G1X0.1S0.8
G1X0.2S0
G1X0.1S0.8
G1X0.3S0
G1X0.1S0.8
G1X1.2S0
G1X0.1S0.8
G1X0.2S0
G1X0.1S0.8
G1X1.2S0
G1X0.1S0.8
G1X0.2S0
G1X0.1S0.8
G1X0.9S0
G1X0.1S0.8
G1X0.8S0
G1X0.1S0.8
G1X0.2S0
G1X0.1S0.8
G1X0.9S0
G1X0.1S0.8
G1X1.6S0
G1X0.1S0.8
G1X0.5S0
G1X0.1S0.8
G1X3.7S0
G1X0.1S0.8
G1X0.8S0
G1X0.1S0.8
G1X0.8S0
G1X0.1S0.8
G1X0.7S0
G1X0.1S0.8
G1X0.2S0
G1X0.1S0.8
G1X2.3S0
G1X0.1S0.8
G1X0.7S0
G1X0.1S0.8
G1X0.3S0
G1X0.1S0.8
G1X0.2S0
G1X0.1S0.8
G1X0.7S0
G1X0.1S0.8
G1X0.2S0
G1X0.1S0.8
G1X1.1S0
G1X0.1S0.8
G1X0.2S0
G1X0.1S0.8
G1X2.1S0
G1X0.1S0.8
G1X1.1S0
G1X0.1S0.8
G1X1.5S0
G1X0.1S0.8
G1X0.2S0
G1X0.1S0.8
G1X0.2S0
G1X0.1S0.8
G1X1S0
G1X0.1S0.8
G1X1.4S0
G1X0.1S0.8
G1X0.2S0
G1X0.1S0.8
G1X1.9S0
G1X0.1S0.8
G1X3.1S0
G1X0.1S0.8
G1X1.1Y0.1S0
G1X-0.1S0.8
G1X-1.4S0
G1X-0.1S0.8
G1X-0.2S0
G1X-0.1S0.8
G1X-0.2S0
G1X-0.1S0.8
G1X-0.2S0
G1X-0.1S0.8
G1X-0.2S0
G1X-0.1S0.8
G1X-0.3S0
G1X-0.1S0.8
G1X-0.8S0
G1X-0.1S0.8
G1X-0.6S0
G1X-0.1S0.8
G1X-0.2S0
G1X-0.1S0.8
G1X-0.5S0
G1X-0.1S0.8
G1X-0.4S0
G1X-0.1S0.8
G1X-0.7S0
G1X-0.1S0.8
G1X-0.2S0
G1X-0.1S0.8
G1X-0.2S0
G1X-0.1S0.8
G1X-2.7S0
G1X-0.1S0.8
G1X-0.2S0
G1X-0.1S0.8
G1X-0.2S0
G1X-0.1S0.8
G1X-0.2S0
G1X-0.1S0.8
G1X-0.5S0
G1X-0.1S0.8
G1X-0.2S0
G1X-0.1S0.8
G1X-0.7S0
G1X-0.1S0.8
G1X-1.4S0
G1X-0.1S0.8
G1X-1.5S0
G1X-0.1S0.8
G1X-0.9S0
G1X-0.1S0.8
G1X-1.5S0
G1X-0.1S0.8
G1X-0.6S0
G1X-0.1S0.8
G1X-0.3S0
G1X-0.1S0.8
G1X-0.4S0
G1X-0.1S0.8
G1X-0.8S0
G1X-0.1S0.8
G1X-0.6S0
G1X-0.1S0.8
G1X-0.2S0
G1X-0.1S0.8
G1X-1.7S0
G1X-0.1S0.8
G1X-0.8S0
G1X-0.1S0.8
G1X-0.2S0
G1X-0.1S0.8
G1X-0.2S0
G1X-0.1S0.8
G1X-0.2S0
G1X-0.1S0.8
G1X-0.2S0
G1X-0.1S0.8
G1X-0.5S0
G1X-0.1S0.8
G1X-0.2S0
G1X-0.1S0.8
G1X-0.4S0
G1X-0.1S0.8
G1X-0.2S0
G1X-0.1S0.8
G1X-0.5S0
G1X-0.1S0.8
G1X-0.9S0
G1X-0.1S0.8
G1X-0.6S0
G1X-0.1S0.8
G1X-2.1S0
G1X-0.1S0.8
G1X-0.9S0
G1X-0.1S0.8
G1X-1.2S0
G1X-0.1S0.8
G1X-0.2S0
G1X-0.1S0.8
G1X-1.2S0
G1X-0.1S0.8
G1X-0.2S0
G1X-0.1S0.8
G1X-3.2S0
G1X-0.1S0.8
G1X-0.2S0
G1X-0.1S0.8
G1X-0.2S0
G1X-0.1S0.8
G1X-0.2S0
G1X-0.1S0.8
G1X-0.2S0
G1X-0.1S0.8
G1X-0.2S0
G1X-0.1S0.8
G1X-0.6S0
G1X-0.1S0.8
G1X-0.2S0
G1X-0.1S0.8
G1X-0.2S0
G1X-0.1S0.8
G1X-0.2S0
G1X-0.1S0.8
G1X-0.2S0
G1X-0.1S0.8
G1X-1.4S0
G1X-0.1S0.8
G1X-4.3S0
G1X-0.1S0.8
G1X-1.8S0
G1X-0.1S0.8
G1X-2.9S0
G1X-0.1S0.8
G1X-0.2S0
G1X-0.1S0.8
G1X-0.8S0
G1X-0.1S0.8
G1X-0.7S0
G1X-0.1S0.8
G1X-0.2S0
G1X-0.1S0.8
G1X-0.9S0
G1X-0.1S0.8
G1X-0.4S0
G1X-0.1S0.8
G1X-0.4S0
G1X-0.1S0.8
G1X-0.3S0
G1X-0.1S0.8
G1X-0.1S0
G1X-0.1S0.8
G1X-0.6S0
G1X-0.1S0.8
G1X-1.1S0
G1X-0.1S0.8
G1X-0.4S0
G1X-0.1S0.8
G1X-0.2S0
G1X-0.1S0.8
G1X-0.3S0
G1X-0.1S0.8
G1X-0.2S0
G1X-0.1S0.8
G1X-0.2S0
G1X-0.1S0.8
G1X-0.6S0
G1X-0.1S0.8
G1X-0.2S0
G1X-0.1S0.8
G1X-0.2S0
G1X-0.2S0.8
G1X-0.5S0
G1X-0.1S0.8
G1X-2S0
G1X-0.1S0.8
G1X-0.2S0
G1X-0.1S0.8
G1X-0.3S0
G1X-0.1S0.8
G1X-0.2S0
G1X-0.1S0.8
G1X-0.5S0
G1X-0.1S0.8
G1X-0.6S0
G1X-0.1S0.8
G1X-0.2S0
G1X-0.1S0.8
G1X-0.2S0
G1X-0.1S0.8
G1X-0.6S0
G1X-0.1S0.8
G1X-0.2S0
G1X-0.1S0.8
G1X-0.2S0
G1X-0.1S0.8
G1X-0.2S0
G1X-0.1S0.8
G1X-0.2S0
G1X-0.1S0.8
G1X-0.2S0
G1X-0.1S0.8
G1X-1.1S0
G1X-0.1S0.8
G1X-0.4S0
G1X-0.1S0.8
G1X-1.7S0
G1X-0.1S0.8
G1X-1.3S0
G1X-0.1S0.8
G1X-2S0
G1X-0.1S0.8
G1X-0.3S0
G1X-0.1S0.8
G1X-0.2S0
G1X-0.1S0.8
G1X-0.6S0
G1X-0.1S0.8
G1X-0.7S0
G1X-0.1S0.8
G1X-1.4S0
G1X-0.1S0.8
G1X-0.5S0
G1X-0.1S0.8
G1X-1.1S0
G1X-0.1S0.8
G1X-0.2S0
G1X-0.1S0.8
G1X-0.2S0
G1X-0.1S0.8
G1X1Y0.1S0
G1X0.1S0.8
G1X1.6S0
G1X0.1S0.8
G1X0.2S0
G1X0.1S0.8
G1X0.4S0
G1X0.1S0.8
G1X0.6S0
G1X0.1S0.8
G1X2.5S0
G1X0.1S0.8
G1X0.3S0
G1X0.1S0.8
G1X0.3S0
G1X0.1S0.8
G1X0.2S0
G1X0.1S0.8
G1X1.1S0
G1X0.1S0.8
G1X3.1S0
G1X0.1S0.8
G1X3.7S0
G1X0.1S0.8
G1X0.6S0
G1X0.1S0.8
G1X0.2S0
G1X0.1S0.8
G1X0.6S0
G1X0.1S0.8
G1X0.6S0
G1X0.1S0.8
G1X0.2S0
G1X0.1S0.8
G1X0.2S0
G1X0.1S0.8
G1X0.3S0
G1X0.1S0.8
G1X0.1S0
G1X0.1S0.8
G1X0.2S0
G1X0.1S0.8
G1X0.4S0
G1X0.1S0.8
G1X0.2S0
G1X0.1S0.8
G1X0.8S0
G1X0.1S0.8
G1X0.1S0
G1X0.1S0.8
G1X0.2S0
G1X0.1S0.8
G1X0.6S0
G1X0.1S0.8
G1X0.4S0
G1X0.1S0.8
G1X0.2S0
G1X0.2S0.8
G1X0.5S0
G1X0.1S0.8
G1X0.2S0
G1X0.1S0.8
G1X0.2S0
G1X0.1S0.8
G1X0.6S0
G1X0.1S0.8
G1X0.7S0
G1X0.1S0.8
G1X0.3S0
G1X0.1S0.8
G1X0.3S0
G1X0.1S0.8
G1X0.6S0
G1X0.1S0.8
G1X0.2S0
G1X0.1S0.8
G1X1.5S0
G1X0.1S0.8
G1X0.3S0
G1X0.1S0.8
G1X1.1S0
G1X0.1S0.8
G1X0.4S0
G1X0.1S0.8
G1X1S0
G1X0.1S0.8
G1X0.2S0
G1X0.1S0.8
G1X2.7S0
G1X0.1S0.8
G1X0.2S0
G1X0.1S0.8
G1X0.3S0
G1X0.1S0.8
G1X0.2S0
G1X0.1S0.8
G1X0.2S0
G1X0.1S0.8
G1X0.3S0
G1X0.1S0.8
G1X0.2S0
G1X0.1S0.8
G1X0.4S0
G1X0.1S0.8
G1X0.2S0
G1X0.1S0.8
G1X4.1S0
G1X0.1S0.8
G1X2.1S0
G1X0.1S0.8
G1X1.3S0
G1X0.1S0.8
G1X2.2S0
G1X0.1S0.8
G1X1.4S0
G1X0.1S0.8
G1X1.2S0
G1X0.1S0.8
G1X0.9S0
G1X0.1S0.8
G1X0.7S0
G1X0.1S0.8
G1X0.2S0
G1X0.1S0.8
G1X0.2S0
G1X0.1S0.8
G1X0.7S0
G1X0.1S0.8
G1X0.6S0
G1X0.1S0.8
G1X1.7S0
G1X0.1S0.8
G1X0.8S0
G1X0.1S0.8
G1X1.7S0
G1X0.1S0.8
G1X0.8S0
G1X0.1S0.8
G1X0.4S0
G1X0.1S0.8
G1X0.2S0
G1X0.1S0.8
G1X0.2S0
G1X0.1S0.8
G1X1.5S0
G1X0.1S0.8
G1X0.2S0
G1X0.1S0.8
G1X4.8S0
G1X0.1S0.8
G1X0.2S0
G1X0.1S0.8
G1X1.2S0
G1X0.1S0.8
G1X0.3S0
G1X0.1S0.8
G1X0.3S0
G1X0.1S0.8
G1X4.3S0
G1X0.1S0.8
G1X0.2S0
G1X0.1S0.8
G1X0.2S0
G1X0.1S0.8
G1X0.3S0
G1X0.1S0.8
G1X1.4S0
G1X0.1S0.8
G1X0.4S0
G1X0.1S0.8
G1X0.5S0
G1X0.1S0.8
G1X1.5S0
G1X0.1S0.8
G1X0.2S0
G1X0.1S0.8
G1X2.6S0
G1X0.1S0.8
G1X0.2S0
G1X0.1S0.8
G1X0.6Y0.1S0
G1X-0.1S0.8
G1X-1.3S0
G1X-0.1S0.8
G1X-3.1S0
G1X-0.1S0.8
G1X-2.2S0
G1X-0.1S0.8
G1X-0.8S0
G1X-0.1S0.8
G1X-1.5S0
G1X-0.1S0.8
G1X-0.2S0
G1X-0.1S0.8
G1X-0.2S0
G1X-0.1S0.8
G1X-0.2S0
G1X-0.1S0.8
G1X-1.4S0
G1X-0.1S0.8
G1X-0.6S0
G1X-0.1S0.8
G1X-0.2S0
G1X-0.1S0.8
G1X-2.2S0
G1X-0.1S0.8
G1X-1.5S0
G1X-0.1S0.8
G1X-0.2S0
G1X-0.1S0.8
G1X-0.3S0
G1X-0.1S0.8
G1X-0.2S0
G1X-0.1S0.8
G1X-0.2S0
G1X-0.1S0.8
G1X-0.2S0
G1X-0.1S0.8
G1X-0.2S0
G1X-0.1S0.8
G1X-0.4S0
G1X-0.1S0.8
G1X-0.2S0
G1X-0.1S0.8
G1X-0.7S0
G1X-0.1S0.8
G1X-1.1S0
G1X-0.1S0.8
G1X-0.2S0
G1X-0.1S0.8
G1X-0.4S0
G1X-0.1S0.8
G1X-1.2S0
G1X-0.1S0.8
G1X-0.8S0
G1X-0.1S0.8
G1X-3.7S0
G1X-0.1S0.8
G1X-0.6S0
G1X-0.1S0.8
G1X-2.8S0
G1X-0.1S0.8
G1X-0.9S0
G1X-0.1S0.8
G1X-0.9S0
G1X-0.1S0.8
G1X-0.2S0
G1X-0.1S0.8
G1X-1.1S0
G1X-0.1S0.8
G1X-0.2S0
G1X-0.1S0.8
G1X-1.3S0
G1X-0.1S0.8
G1X-0.2S0
G1X-0.1S0.8
G1X-0.2S0
G1X-0.1S0.8
G1X-0.2S0
G1X-0.1S0.8
G1X-0.6S0
G1X-0.1S0.8
G1X-0.3S0
G1X-0.1S0.8
G1X-0.2S0
G1X-0.1S0.8
G1X-4.2S0
G1X-0.1S0.8
G1X-0.2S0
G1X-0.1S0.8
G1X-0.2S0
G1X-0.1S0.8
G1X-0.2S0
G1X-0.1S0.8
G1X-0.8S0
G1X-0.1S0.8
G1X-0.2S0
G1X-0.1S0.8
G1X-3.8S0
G1X-0.1S0.8
G1X-0.2S0
G1X-0.1S0.8
G1X-0.2S0
G1X-0.1S0.8
G1X-0.2S0
G1X-0.1S0.8
G1X-0.2S0
G1X-0.1S0.8
G1X-0.4S0
G1X-0.1S0.8
G1X-0.7S0
G1X-0.1S0.8
G1X-0.2S0
G1X-0.1S0.8
G1X-0.2S0
G1X-0.1S0.8
G1X-1.1S0
G1X-0.1S0.8
G1X-1.6S0
G1X-0.1S0.8
G1X-0.2S0
G1X-0.1S0.8
G1X-1.3S0
G1X-0.1S0.8
G1X-2.2S0
G1X-0.1S0.8
G1X-0.2S0
G1X-0.1S0.8
G1X-0.7S0
G1X-0.1S0.8
G1X-0.2S0
G1X-0.1S0.8
G1X-0.9S0
G1X-0.1S0.8
G1X-0.2S0
G1X-0.1S0.8
G1X-0.2S0
G1X-0.1S0.8
G1X-0.3S0
G1X-0.1S0.8
G1X-0.3S0
G1X-0.1S0.8
G1X-0.2S0
G1X-0.1S0.8
G1X-0.1S0
G1X-0.1S0.8
G1X-0.5S0
G1X-0.1S0.8
G1X-0.3S0
G1X-0.1S0.8
G1X-0.2S0
G1X-0.1S0.8
G1X-0.5S0
G1X-0.1S0.8
G1X-0.3S0
G1X-0.1S0.8
G1X-1.2S0
G1X-0.1S0.8
G1X-1.1S0
G1X-0.1S0.8
G1X-0.7S0
G1X-0.1S0.8
G1X-0.4S0
G1X-0.1S0.8
G1X-0.2S0
G1X-0.1S0.8
G1X-0.8S0
G1X-0.1S0.8
G1X-0.8S0
G1X-0.1S0.8
G1X-0.2S0
G1X-0.1S0.8
G1X-0.8S0
G1X-0.1S0.8
G1X-0.6S0
G1X-0.1S0.8
G1X-0.2S0
G1X-0.1S0.8
G1X-0.2S0
G1X-0.1S0.8
G1X-0.3S0
G1X-0.1S0.8
G1X-1.4S0
G1X-0.1S0.8
G1X-3.4S0
G1X-0.1S0.8
G1X-2.8S0
G1X-0.1S0.8
G1X-0.4S0
G1X-0.1S0.8
G1X-0.2S0
G1X-0.1S0.8
G1X-1.3Y0.1S0
G1X0.1S0.8
G1X0.2S0
G1X0.1S0.8
G1X0.3S0
G1X0.1S0.8
G1X2.5S0
G1X0.1S0.8
G1X0.4S0
G1X0.1S0.8
G1X0.7S0
G1X0.1S0.8
G1X1.2S0
G1X0.1S0.8
G1X0.4S0
G1X0.1S0.8
G1X2.3S0
G1X0.1S0.8
G1X0.5S0
G1X0.1S0.8
G1X1.8S0
G1X0.1S0.8
G1X1.8S0
G1X0.1S0.8
G1X0.2S0
G1X0.1S0.8
G1X0.4S0
G1X0.1S0.8
G1X0.2S0
G1X0.1S0.8
G1X0.8S0
G1X0.1S0.8
G1X0.4S0
G1X0.1S0.8
G1X0.2S0
G1X0.1S0.8
G1X0.4S0
G1X0.1S0.8
G1X0.3S0
G1X0.1S0.8
G1X0.9S0
G1X0.1S0.8
G1X0.1S0
G1X0.1S0.8
G1X0.1S0
G1X0.1S0.8
G1X0.2S0
G1X0.1S0.8
G1X0.7S0
G1X0.1S0.8
G1X0.7S0
G1X0.1S0.8
G1X0.4S0
G1X0.1S0.8
G1X0.2S0
G1X0.1S0.8
G1X0.3S0
G1X0.1S0.8
G1X0.6S0
G1X0.1S0.8
G1X0.3S0
G1X0.1S0.8
G1X0.5S0
G1X0.1S0.8
G1X0.1S0
G1X0.1S0.8
G1X0.1S0
G1X0.1S0.8
G1X0.5S0
G1X0.1S0.8
G1X0.4S0
G1X0.1S0.8
G1X0.2S0
G1X0.1S0.8
G1X0.5S0
G1X0.1S0.8
G1X0.2S0
G1X0.1S0.8
G1X0.2S0
G1X0.1S0.8
G1X0.2S0
G1X0.1S0.8
G1X0.9S0
G1X0.1S0.8
G1X1S0
G1X0.1S0.8
G1X0.2S0
G1X0.1S0.8
G1X0.7S0
G1X0.1S0.8
G1X0.4S0
G1X0.1S0.8
G1X0.3S0
G1X0.1S0.8
G1X0.2S0
G1X0.1S0.8
G1X0.8S0
G1X0.1S0.8
G1X3.9S0
G1X0.1S0.8
G1X0.2S0
G1X0.1S0.8
G1X3.8S0
G1X0.1S0.8
G1X0.2S0
G1X0.1S0.8
G1X1.4S0
G1X0.1S0.8
G1X0.2S0
G1X0.1S0.8
G1X0.2S0
G1X0.1S0.8
G1X0.2S0
