(fatigue-test)
(T1  D=3.175 CR=0 TAPER=118deg - ZMIN=-20 - 钻孔)
(T2  D=3.175 CR=0 TAPER=118deg - ZMIN=-20 - 钻孔)
(T3  D=3.175 CR=0 TAPER=118deg - ZMIN=-20 - 钻孔)
(T4  D=3.175 CR=0 TAPER=118deg - ZMIN=-20 - 钻孔)
(T5  D=3.175 CR=0 TAPER=118deg - ZMIN=-20 - 钻孔)
(T6  D=3.175 CR=0 TAPER=118deg - ZMIN=-20 - 钻孔)
G90 G94
G17
G21
G10L2P0Z-50

(Drill)
T1 M6
S10000 M3
G54
G0 X12 Y8
Z15
Z5
Z2
G1 Z-0.794 F2000
G0 Z5
Z1.206
G1 Z-1.587 F2000
G0 Z5
Z0.413
G1 Z-2.381 F2000
G0 Z5
Z-0.381
G1 Z-3.175 F2000
G0 Z5
Z-1.175
G1 Z-3.969 F2000
G0 Z5
Z-1.969
G1 Z-4.762 F2000
G0 Z5
Z-2.762
G1 Z-5.556 F2000
G0 Z5
Z-3.556
G1 Z-6.35 F2000
G0 Z5
Z-4.35
G1 Z-7.144 F2000
G0 Z5
Z-5.144
G1 Z-7.937 F2000
G0 Z5
Z-5.937
G1 Z-8.731 F2000
G0 Z5
Z-6.731
G1 Z-9.525 F2000
G0 Z5
Z-7.525
G1 Z-10.319 F2000
G0 Z5
Z-8.319
G1 Z-11.112 F2000
G0 Z5
Z-9.112
G1 Z-11.906 F2000
G0 Z5
Z-9.906
G1 Z-12.7 F2000
G0 Z5
Z-10.7
G1 Z-13.494 F2000
G0 Z5
Z-11.494
G1 Z-14.287 F2000
G0 Z5
Z-12.287
G1 Z-15.081 F2000
G0 Z5
Z-13.081
G1 Z-15.875 F2000
G0 Z5
Z-13.875
G1 Z-16.669 F2000
G0 Z5
Z-14.669
G1 Z-17.462 F2000
G0 Z5
Z-15.462
G1 Z-18.256 F2000
G0 Z5
Z-16.256
G1 Z-19.05 F2000
G0 Z5
Z-17.05
G1 Z-19.844 F2000
G0 Z5
Z-17.844
G1 Z-20 F2000
G0 Z5
Y208
Z2
G1 Z-0.794 F2000
G0 Z5
Z1.206
G1 Z-1.587 F2000
G0 Z5
Z0.413
G1 Z-2.381 F2000
G0 Z5
Z-0.381
G1 Z-3.175 F2000
G0 Z5
Z-1.175
G1 Z-3.969 F2000
G0 Z5
Z-1.969
G1 Z-4.762 F2000
G0 Z5
Z-2.762
G1 Z-5.556 F2000
G0 Z5
Z-3.556
G1 Z-6.35 F2000
G0 Z5
Z-4.35
G1 Z-7.144 F2000
G0 Z5
Z-5.144
G1 Z-7.937 F2000
G0 Z5
Z-5.937
G1 Z-8.731 F2000
G0 Z5
Z-6.731
G1 Z-9.525 F2000
G0 Z5
Z-7.525
G1 Z-10.319 F2000
G0 Z5
Z-8.319
G1 Z-11.112 F2000
G0 Z5
Z-9.112
G1 Z-11.906 F2000
G0 Z5
Z-9.906
G1 Z-12.7 F2000
G0 Z5
Z-10.7
G1 Z-13.494 F2000
G0 Z5
Z-11.494
G1 Z-14.287 F2000
G0 Z5
Z-12.287
G1 Z-15.081 F2000
G0 Z5
Z-13.081
G1 Z-15.875 F2000
G0 Z5
Z-13.875
G1 Z-16.669 F2000
G0 Z5
Z-14.669
G1 Z-17.462 F2000
G0 Z5
Z-15.462
G1 Z-18.256 F2000
G0 Z5
Z-16.256
G1 Z-19.05 F2000
G0 Z5
Z-17.05
G1 Z-19.844 F2000
G0 Z5
Z-17.844
G1 Z-20 F2000
G0 Z5
X312
Z2
G1 Z-0.794 F2000
G0 Z5
Z1.206
G1 Z-1.587 F2000
G0 Z5
Z0.413
G1 Z-2.381 F2000
G0 Z5
Z-0.381
G1 Z-3.175 F2000
G0 Z5
Z-1.175
G1 Z-3.969 F2000
G0 Z5
Z-1.969
G1 Z-4.762 F2000
G0 Z5
Z-2.762
G1 Z-5.556 F2000
G0 Z5
Z-3.556
G1 Z-6.35 F2000
G0 Z5
Z-4.35
G1 Z-7.144 F2000
G0 Z5
Z-5.144
G1 Z-7.937 F2000
G0 Z5
Z-5.937
G1 Z-8.731 F2000
G0 Z5
Z-6.731
G1 Z-9.525 F2000
G0 Z5
Z-7.525
G1 Z-10.319 F2000
G0 Z5
Z-8.319
G1 Z-11.112 F2000
G0 Z5
Z-9.112
G1 Z-11.906 F2000
G0 Z5
Z-9.906
G1 Z-12.7 F2000
G0 Z5
Z-10.7
G1 Z-13.494 F2000
G0 Z5
Z-11.494
G1 Z-14.287 F2000
G0 Z5
Z-12.287
G1 Z-15.081 F2000
G0 Z5
Z-13.081
G1 Z-15.875 F2000
G0 Z5
Z-13.875
G1 Z-16.669 F2000
G0 Z5
Z-14.669
G1 Z-17.462 F2000
G0 Z5
Z-15.462
G1 Z-18.256 F2000
G0 Z5
Z-16.256
G1 Z-19.05 F2000
G0 Z5
Z-17.05
G1 Z-19.844 F2000
G0 Z5
Z-17.844
G1 Z-20 F2000
G0 Z5
Y8
Z2
G1 Z-0.794 F2000
G0 Z5
Z1.206
G1 Z-1.587 F2000
G0 Z5
Z0.413
G1 Z-2.381 F2000
G0 Z5
Z-0.381
G1 Z-3.175 F2000
G0 Z5
Z-1.175
G1 Z-3.969 F2000
G0 Z5
Z-1.969
G1 Z-4.762 F2000
G0 Z5
Z-2.762
G1 Z-5.556 F2000
G0 Z5
Z-3.556
G1 Z-6.35 F2000
G0 Z5
Z-4.35
G1 Z-7.144 F2000
G0 Z5
Z-5.144
G1 Z-7.937 F2000
G0 Z5
Z-5.937
G1 Z-8.731 F2000
G0 Z5
Z-6.731
G1 Z-9.525 F2000
G0 Z5
Z-7.525
G1 Z-10.319 F2000
G0 Z5
Z-8.319
G1 Z-11.112 F2000
G0 Z5
Z-9.112
G1 Z-11.906 F2000
G0 Z5
Z-9.906
G1 Z-12.7 F2000
G0 Z5
Z-10.7
G1 Z-13.494 F2000
G0 Z5
Z-11.494
G1 Z-14.287 F2000
G0 Z5
Z-12.287
G1 Z-15.081 F2000
G0 Z5
Z-13.081
G1 Z-15.875 F2000
G0 Z5
Z-13.875
G1 Z-16.669 F2000
G0 Z5
Z-14.669
G1 Z-17.462 F2000
G0 Z5
Z-15.462
G1 Z-18.256 F2000
G0 Z5
Z-16.256
G1 Z-19.05 F2000
G0 Z5
Z-17.05
G1 Z-19.844 F2000
G0 Z5
Z-17.844
G1 Z-20 F2000
G0 Z5
Z15

(Bore)
S12000 M3
X84.381 Y158.318
Z15
Z-3
G1 Z-4.682 F3000
G18 G3 X84.064 Z-5 I-0.317 K0
G1 X83.905
G17 G3 X83.588 Y158 I0 J-0.318
X90.412 Y158 Z-5.1 I3.412 J0
X83.588 Y158 Z-5.2 I-3.412 J0
X90.412 Y158 Z-5.3 I3.412 J0
X83.588 Y158 Z-5.4 I-3.412 J0
X90.412 Y158 Z-5.5 I3.412 J0
X83.588 Y158 Z-5.6 I-3.412 J0
X90.412 Y158 Z-5.7 I3.412 J0
X83.588 Y158 Z-5.8 I-3.412 J0
X90.412 Y158 Z-5.9 I3.412 J0
X83.588 Y158 Z-6 I-3.412 J0
X90.412 Y158 Z-6.1 I3.412 J0
X83.588 Y158 Z-6.2 I-3.412 J0
X90.412 Y158 Z-6.3 I3.412 J0
X83.588 Y158 Z-6.4 I-3.412 J0
X90.412 Y158 Z-6.5 I3.412 J0
X83.588 Y158 Z-6.6 I-3.412 J0
X90.412 Y158 Z-6.7 I3.412 J0
X83.588 Y158 Z-6.8 I-3.412 J0
X90.412 Y158 Z-6.9 I3.412 J0
X83.588 Y158 Z-7 I-3.412 J0
X90.412 Y158 Z-7.1 I3.412 J0
X83.588 Y158 Z-7.2 I-3.412 J0
X90.412 Y158 Z-7.3 I3.412 J0
X83.588 Y158 Z-7.4 I-3.412 J0
X90.412 Y158 Z-7.5 I3.412 J0
X83.588 Y158 Z-7.6 I-3.412 J0
X90.412 Y158 Z-7.7 I3.412 J0
X83.588 Y158 Z-7.8 I-3.412 J0
X90.412 Y158 Z-7.9 I3.412 J0
X83.588 Y158 Z-8 I-3.412 J0
X90.412 Y158 Z-8.1 I3.412 J0
X83.588 Y158 Z-8.2 I-3.412 J0
X90.412 Y158 Z-8.3 I3.412 J0
X83.588 Y158 Z-8.4 I-3.412 J0
X90.412 Y158 Z-8.5 I3.412 J0
X83.588 Y158 Z-8.6 I-3.412 J0
X90.412 Y158 Z-8.7 I3.412 J0
X83.588 Y158 Z-8.8 I-3.412 J0
X90.412 Y158 Z-8.9 I3.412 J0
X83.588 Y158 Z-9 I-3.412 J0
X90.412 Y158 Z-9.1 I3.412 J0
X83.588 Y158 Z-9.2 I-3.412 J0
X90.412 Y158 Z-9.3 I3.412 J0
X83.588 Y158 Z-9.4 I-3.412 J0
X90.412 Y158 Z-9.5 I3.412 J0
X83.588 Y158 Z-9.6 I-3.412 J0
X90.412 Y158 Z-9.7 I3.412 J0
X83.588 Y158 Z-9.8 I-3.412 J0
X90.412 Y158 Z-9.9 I3.412 J0
X83.588 Y158 Z-10 I-3.412 J0
X90.412 Y158 I3.412 J0
X83.588 Y158 I-3.412 J0
X83.905 Y157.682 I0.317 J0
G1 X84.064
G18 G2 X84.381 Z-9.682 I0 K0.318
G0 Z5
X86.881 Y158.318
Z-8
G1 Z-9.682 F3000
G3 X86.564 Z-10 I-0.317 K0
G1 X86.405
G17 G3 X86.088 Y158 I0 J-0.318
X87.912 Y158 Z-10.1 I0.912 J0
X86.088 Y158 Z-10.2 I-0.912 J0
X87.912 Y158 Z-10.3 I0.912 J0
X86.088 Y158 Z-10.4 I-0.912 J0
X87.912 Y158 Z-10.5 I0.912 J0
X86.088 Y158 Z-10.6 I-0.912 J0
X87.912 Y158 Z-10.7 I0.912 J0
X86.088 Y158 Z-10.8 I-0.912 J0
X87.912 Y158 Z-10.9 I0.912 J0
X86.088 Y158 Z-11 I-0.912 J0
X87.912 Y158 Z-11.1 I0.912 J0
X86.088 Y158 Z-11.2 I-0.912 J0
X87.912 Y158 Z-11.3 I0.912 J0
X86.088 Y158 Z-11.4 I-0.912 J0
X87.912 Y158 Z-11.5 I0.912 J0
X86.088 Y158 Z-11.6 I-0.912 J0
X87.912 Y158 Z-11.7 I0.912 J0
X86.088 Y158 Z-11.8 I-0.912 J0
X87.912 Y158 Z-11.9 I0.912 J0
X86.088 Y158 Z-12 I-0.912 J0
X87.912 Y158 Z-12.1 I0.912 J0
X86.088 Y158 Z-12.2 I-0.912 J0
X87.912 Y158 Z-12.3 I0.912 J0
X86.088 Y158 Z-12.4 I-0.912 J0
X87.912 Y158 Z-12.5 I0.912 J0
X86.088 Y158 Z-12.6 I-0.912 J0
X87.912 Y158 Z-12.7 I0.912 J0
X86.088 Y158 Z-12.8 I-0.912 J0
X87.912 Y158 Z-12.9 I0.912 J0
X86.088 Y158 Z-13 I-0.912 J0
X87.912 Y158 Z-13.1 I0.912 J0
X86.088 Y158 Z-13.2 I-0.912 J0
X87.912 Y158 Z-13.3 I0.912 J0
X86.088 Y158 Z-13.4 I-0.912 J0
X87.912 Y158 Z-13.5 I0.912 J0
X86.088 Y158 Z-13.6 I-0.912 J0
X87.912 Y158 Z-13.7 I0.912 J0
X86.088 Y158 Z-13.8 I-0.912 J0
X87.912 Y158 Z-13.9 I0.912 J0
X86.088 Y158 Z-14 I-0.912 J0
X87.912 Y158 Z-14.1 I0.912 J0
X86.088 Y158 Z-14.2 I-0.912 J0
X87.912 Y158 Z-14.3 I0.912 J0
X86.088 Y158 Z-14.4 I-0.912 J0
X87.912 Y158 Z-14.5 I0.912 J0
X86.088 Y158 Z-14.6 I-0.912 J0
X87.912 Y158 Z-14.7 I0.912 J0
X86.088 Y158 Z-14.8 I-0.912 J0
X87.912 Y158 Z-14.9 I0.912 J0
X86.088 Y158 Z-15 I-0.912 J0
X87.912 Y158 Z-15.1 I0.912 J0
X86.088 Y158 Z-15.2 I-0.912 J0
X87.912 Y158 Z-15.3 I0.912 J0
X86.088 Y158 Z-15.4 I-0.912 J0
X87.912 Y158 Z-15.5 I0.912 J0
X86.088 Y158 Z-15.6 I-0.912 J0
X87.912 Y158 Z-15.7 I0.912 J0
X86.088 Y158 Z-15.8 I-0.912 J0
X87.912 Y158 Z-15.9 I0.912 J0
X86.088 Y158 Z-16 I-0.912 J0
X87.912 Y158 Z-16.1 I0.912 J0
X86.088 Y158 Z-16.2 I-0.912 J0
X87.912 Y158 Z-16.3 I0.912 J0
X86.088 Y158 Z-16.4 I-0.912 J0
X87.912 Y158 Z-16.5 I0.912 J0
X86.088 Y158 Z-16.6 I-0.912 J0
X87.912 Y158 Z-16.7 I0.912 J0
X86.088 Y158 Z-16.8 I-0.912 J0
X87.912 Y158 Z-16.9 I0.912 J0
X86.088 Y158 Z-17 I-0.912 J0
X87.912 Y158 Z-17.1 I0.912 J0
X86.088 Y158 Z-17.2 I-0.912 J0
X87.912 Y158 Z-17.3 I0.912 J0
X86.088 Y158 Z-17.4 I-0.912 J0
X87.912 Y158 Z-17.5 I0.912 J0
X86.088 Y158 Z-17.6 I-0.912 J0
X87.912 Y158 Z-17.7 I0.912 J0
X86.088 Y158 Z-17.8 I-0.912 J0
X87.912 Y158 Z-17.9 I0.912 J0
X86.088 Y158 Z-18 I-0.912 J0
X87.912 Y158 Z-18.1 I0.912 J0
X86.088 Y158 Z-18.2 I-0.912 J0
X87.912 Y158 Z-18.3 I0.912 J0
X86.088 Y158 Z-18.4 I-0.912 J0
X87.912 Y158 Z-18.5 I0.912 J0
X86.088 Y158 Z-18.6 I-0.912 J0
X87.912 Y158 Z-18.7 I0.912 J0
X86.088 Y158 Z-18.8 I-0.912 J0
X87.912 Y158 Z-18.9 I0.912 J0
X86.088 Y158 Z-19 I-0.912 J0
X87.912 Y158 Z-19.1 I0.912 J0
X86.088 Y158 Z-19.2 I-0.912 J0
X87.912 Y158 Z-19.3 I0.912 J0
X86.088 Y158 Z-19.4 I-0.912 J0
X87.912 Y158 Z-19.5 I0.912 J0
X86.088 Y158 Z-19.6 I-0.912 J0
X87.912 Y158 Z-19.7 I0.912 J0
X86.088 Y158 Z-19.8 I-0.912 J0
X87.912 Y158 Z-19.9 I0.912 J0
X86.088 Y158 Z-20 I-0.912 J0
X87.912 Y158 I0.912 J0
X86.088 Y158 I-0.912 J0
X86.405 Y157.682 I0.317 J0
G1 X86.564
G18 G2 X86.881 Z-19.683 I0 K0.317
G0 Z5
X84.381 Y108.317
Z-3
G1 Z-4.682 F3000
G3 X84.064 Z-5 I-0.317 K0
G1 X83.905
G17 G3 X83.588 Y108 I0 J-0.317
X90.412 Y108 Z-5.1 I3.412 J0
X83.588 Y108 Z-5.2 I-3.412 J0
X90.412 Y108 Z-5.3 I3.412 J0
X83.588 Y108 Z-5.4 I-3.412 J0
X90.412 Y108 Z-5.5 I3.412 J0
X83.588 Y108 Z-5.6 I-3.412 J0
X90.412 Y108 Z-5.7 I3.412 J0
X83.588 Y108 Z-5.8 I-3.412 J0
X90.412 Y108 Z-5.9 I3.412 J0
X83.588 Y108 Z-6 I-3.412 J0
X90.412 Y108 Z-6.1 I3.412 J0
X83.588 Y108 Z-6.2 I-3.412 J0
X90.412 Y108 Z-6.3 I3.412 J0
X83.588 Y108 Z-6.4 I-3.412 J0
X90.412 Y108 Z-6.5 I3.412 J0
X83.588 Y108 Z-6.6 I-3.412 J0
X90.412 Y108 Z-6.7 I3.412 J0
X83.588 Y108 Z-6.8 I-3.412 J0
X90.412 Y108 Z-6.9 I3.412 J0
X83.588 Y108 Z-7 I-3.412 J0
X90.412 Y108 Z-7.1 I3.412 J0
X83.588 Y108 Z-7.2 I-3.412 J0
X90.412 Y108 Z-7.3 I3.412 J0
X83.588 Y108 Z-7.4 I-3.412 J0
X90.412 Y108 Z-7.5 I3.412 J0
X83.588 Y108 Z-7.6 I-3.412 J0
X90.412 Y108 Z-7.7 I3.412 J0
X83.588 Y108 Z-7.8 I-3.412 J0
X90.412 Y108 Z-7.9 I3.412 J0
X83.588 Y108 Z-8 I-3.412 J0
X90.412 Y108 Z-8.1 I3.412 J0
X83.588 Y108 Z-8.2 I-3.412 J0
X90.412 Y108 Z-8.3 I3.412 J0
X83.588 Y108 Z-8.4 I-3.412 J0
X90.412 Y108 Z-8.5 I3.412 J0
X83.588 Y108 Z-8.6 I-3.412 J0
X90.412 Y108 Z-8.7 I3.412 J0
X83.588 Y108 Z-8.8 I-3.412 J0
X90.412 Y108 Z-8.9 I3.412 J0
X83.588 Y108 Z-9 I-3.412 J0
X90.412 Y108 Z-9.1 I3.412 J0
X83.588 Y108 Z-9.2 I-3.412 J0
X90.412 Y108 Z-9.3 I3.412 J0
X83.588 Y108 Z-9.4 I-3.412 J0
X90.412 Y108 Z-9.5 I3.412 J0
X83.588 Y108 Z-9.6 I-3.412 J0
X90.412 Y108 Z-9.7 I3.412 J0
X83.588 Y108 Z-9.8 I-3.412 J0
X90.412 Y108 Z-9.9 I3.412 J0
X83.588 Y108 Z-10 I-3.412 J0
X90.412 Y108 I3.412 J0
X83.588 Y108 I-3.412 J0
X83.905 Y107.683 I0.317 J0
G1 X84.064
G18 G2 X84.381 Z-9.682 I0 K0.318
G0 Z5
X86.881 Y108.317
Z-8
G1 Z-9.682 F3000
G3 X86.564 Z-10 I-0.317 K0
G1 X86.405
G17 G3 X86.088 Y108 I0 J-0.317
X87.912 Y108 Z-10.1 I0.912 J0
X86.088 Y108 Z-10.2 I-0.912 J0
X87.912 Y108 Z-10.3 I0.912 J0
X86.088 Y108 Z-10.4 I-0.912 J0
X87.912 Y108 Z-10.5 I0.912 J0
X86.088 Y108 Z-10.6 I-0.912 J0
X87.912 Y108 Z-10.7 I0.912 J0
X86.088 Y108 Z-10.8 I-0.912 J0
X87.912 Y108 Z-10.9 I0.912 J0
X86.088 Y108 Z-11 I-0.912 J0
X87.912 Y108 Z-11.1 I0.912 J0
X86.088 Y108 Z-11.2 I-0.912 J0
X87.912 Y108 Z-11.3 I0.912 J0
X86.088 Y108 Z-11.4 I-0.912 J0
X87.912 Y108 Z-11.5 I0.912 J0
X86.088 Y108 Z-11.6 I-0.912 J0
X87.912 Y108 Z-11.7 I0.912 J0
X86.088 Y108 Z-11.8 I-0.912 J0
X87.912 Y108 Z-11.9 I0.912 J0
X86.088 Y108 Z-12 I-0.912 J0
X87.912 Y108 Z-12.1 I0.912 J0
X86.088 Y108 Z-12.2 I-0.912 J0
X87.912 Y108 Z-12.3 I0.912 J0
X86.088 Y108 Z-12.4 I-0.912 J0
X87.912 Y108 Z-12.5 I0.912 J0
X86.088 Y108 Z-12.6 I-0.912 J0
X87.912 Y108 Z-12.7 I0.912 J0
X86.088 Y108 Z-12.8 I-0.912 J0
X87.912 Y108 Z-12.9 I0.912 J0
X86.088 Y108 Z-13 I-0.912 J0
X87.912 Y108 Z-13.1 I0.912 J0
X86.088 Y108 Z-13.2 I-0.912 J0
X87.912 Y108 Z-13.3 I0.912 J0
X86.088 Y108 Z-13.4 I-0.912 J0
X87.912 Y108 Z-13.5 I0.912 J0
X86.088 Y108 Z-13.6 I-0.912 J0
X87.912 Y108 Z-13.7 I0.912 J0
X86.088 Y108 Z-13.8 I-0.912 J0
X87.912 Y108 Z-13.9 I0.912 J0
X86.088 Y108 Z-14 I-0.912 J0
X87.912 Y108 Z-14.1 I0.912 J0
X86.088 Y108 Z-14.2 I-0.912 J0
X87.912 Y108 Z-14.3 I0.912 J0
X86.088 Y108 Z-14.4 I-0.912 J0
X87.912 Y108 Z-14.5 I0.912 J0
X86.088 Y108 Z-14.6 I-0.912 J0
X87.912 Y108 Z-14.7 I0.912 J0
X86.088 Y108 Z-14.8 I-0.912 J0
X87.912 Y108 Z-14.9 I0.912 J0
X86.088 Y108 Z-15 I-0.912 J0
X87.912 Y108 Z-15.1 I0.912 J0
X86.088 Y108 Z-15.2 I-0.912 J0
X87.912 Y108 Z-15.3 I0.912 J0
X86.088 Y108 Z-15.4 I-0.912 J0
X87.912 Y108 Z-15.5 I0.912 J0
X86.088 Y108 Z-15.6 I-0.912 J0
X87.912 Y108 Z-15.7 I0.912 J0
X86.088 Y108 Z-15.8 I-0.912 J0
X87.912 Y108 Z-15.9 I0.912 J0
X86.088 Y108 Z-16 I-0.912 J0
X87.912 Y108 Z-16.1 I0.912 J0
X86.088 Y108 Z-16.2 I-0.912 J0
X87.912 Y108 Z-16.3 I0.912 J0
X86.088 Y108 Z-16.4 I-0.912 J0
X87.912 Y108 Z-16.5 I0.912 J0
X86.088 Y108 Z-16.6 I-0.912 J0
X87.912 Y108 Z-16.7 I0.912 J0
X86.088 Y108 Z-16.8 I-0.912 J0
X87.912 Y108 Z-16.9 I0.912 J0
X86.088 Y108 Z-17 I-0.912 J0
X87.912 Y108 Z-17.1 I0.912 J0
X86.088 Y108 Z-17.2 I-0.912 J0
X87.912 Y108 Z-17.3 I0.912 J0
X86.088 Y108 Z-17.4 I-0.912 J0
X87.912 Y108 Z-17.5 I0.912 J0
X86.088 Y108 Z-17.6 I-0.912 J0
X87.912 Y108 Z-17.7 I0.912 J0
X86.088 Y108 Z-17.8 I-0.912 J0
X87.912 Y108 Z-17.9 I0.912 J0
X86.088 Y108 Z-18 I-0.912 J0
X87.912 Y108 Z-18.1 I0.912 J0
X86.088 Y108 Z-18.2 I-0.912 J0
X87.912 Y108 Z-18.3 I0.912 J0
X86.088 Y108 Z-18.4 I-0.912 J0
X87.912 Y108 Z-18.5 I0.912 J0
X86.088 Y108 Z-18.6 I-0.912 J0
X87.912 Y108 Z-18.7 I0.912 J0
X86.088 Y108 Z-18.8 I-0.912 J0
X87.912 Y108 Z-18.9 I0.912 J0
X86.088 Y108 Z-19 I-0.912 J0
X87.912 Y108 Z-19.1 I0.912 J0
X86.088 Y108 Z-19.2 I-0.912 J0
X87.912 Y108 Z-19.3 I0.912 J0
X86.088 Y108 Z-19.4 I-0.912 J0
X87.912 Y108 Z-19.5 I0.912 J0
X86.088 Y108 Z-19.6 I-0.912 J0
X87.912 Y108 Z-19.7 I0.912 J0
X86.088 Y108 Z-19.8 I-0.912 J0
X87.912 Y108 Z-19.9 I0.912 J0
X86.088 Y108 Z-20 I-0.912 J0
X87.912 Y108 I0.912 J0
X86.088 Y108 I-0.912 J0
X86.405 Y107.683 I0.317 J0
G1 X86.564
G18 G2 X86.881 Z-19.683 I0 K0.317
G0 Z5
X84.381 Y58.318
Z-3
G1 Z-4.682 F3000
G3 X84.064 Z-5 I-0.317 K0
G1 X83.905
G17 G3 X83.588 Y58 I0 J-0.318
X90.412 Y58 Z-5.1 I3.412 J0
X83.588 Y58 Z-5.2 I-3.412 J0
X90.412 Y58 Z-5.3 I3.412 J0
X83.588 Y58 Z-5.4 I-3.412 J0
X90.412 Y58 Z-5.5 I3.412 J0
X83.588 Y58 Z-5.6 I-3.412 J0
X90.412 Y58 Z-5.7 I3.412 J0
X83.588 Y58 Z-5.8 I-3.412 J0
X90.412 Y58 Z-5.9 I3.412 J0
X83.588 Y58 Z-6 I-3.412 J0
X90.412 Y58 Z-6.1 I3.412 J0
X83.588 Y58 Z-6.2 I-3.412 J0
X90.412 Y58 Z-6.3 I3.412 J0
X83.588 Y58 Z-6.4 I-3.412 J0
X90.412 Y58 Z-6.5 I3.412 J0
X83.588 Y58 Z-6.6 I-3.412 J0
X90.412 Y58 Z-6.7 I3.412 J0
X83.588 Y58 Z-6.8 I-3.412 J0
X90.412 Y58 Z-6.9 I3.412 J0
X83.588 Y58 Z-7 I-3.412 J0
X90.412 Y58 Z-7.1 I3.412 J0
X83.588 Y58 Z-7.2 I-3.412 J0
X90.412 Y58 Z-7.3 I3.412 J0
X83.588 Y58 Z-7.4 I-3.412 J0
X90.412 Y58 Z-7.5 I3.412 J0
X83.588 Y58 Z-7.6 I-3.412 J0
X90.412 Y58 Z-7.7 I3.412 J0
X83.588 Y58 Z-7.8 I-3.412 J0
X90.412 Y58 Z-7.9 I3.412 J0
X83.588 Y58 Z-8 I-3.412 J0
X90.412 Y58 Z-8.1 I3.412 J0
X83.588 Y58 Z-8.2 I-3.412 J0
X90.412 Y58 Z-8.3 I3.412 J0
X83.588 Y58 Z-8.4 I-3.412 J0
X90.412 Y58 Z-8.5 I3.412 J0
X83.588 Y58 Z-8.6 I-3.412 J0
X90.412 Y58 Z-8.7 I3.412 J0
X83.588 Y58 Z-8.8 I-3.412 J0
X90.412 Y58 Z-8.9 I3.412 J0
X83.588 Y58 Z-9 I-3.412 J0
X90.412 Y58 Z-9.1 I3.412 J0
X83.588 Y58 Z-9.2 I-3.412 J0
X90.412 Y58 Z-9.3 I3.412 J0
X83.588 Y58 Z-9.4 I-3.412 J0
X90.412 Y58 Z-9.5 I3.412 J0
X83.588 Y58 Z-9.6 I-3.412 J0
X90.412 Y58 Z-9.7 I3.412 J0
X83.588 Y58 Z-9.8 I-3.412 J0
X90.412 Y58 Z-9.9 I3.412 J0
X83.588 Y58 Z-10 I-3.412 J0
X90.412 Y58 I3.412 J0
X83.588 Y58 I-3.412 J0
X83.905 Y57.682 I0.317 J0
G1 X84.064
G18 G2 X84.381 Z-9.682 I0 K0.318
G0 Z5
X86.881 Y58.318
Z-8
G1 Z-9.682 F3000
G3 X86.564 Z-10 I-0.317 K0
G1 X86.405
G17 G3 X86.088 Y58 I0 J-0.318
X87.912 Y58 Z-10.1 I0.912 J0
X86.088 Y58 Z-10.2 I-0.912 J0
X87.912 Y58 Z-10.3 I0.912 J0
X86.088 Y58 Z-10.4 I-0.912 J0
X87.912 Y58 Z-10.5 I0.912 J0
X86.088 Y58 Z-10.6 I-0.912 J0
X87.912 Y58 Z-10.7 I0.912 J0
X86.088 Y58 Z-10.8 I-0.912 J0
X87.912 Y58 Z-10.9 I0.912 J0
X86.088 Y58 Z-11 I-0.912 J0
X87.912 Y58 Z-11.1 I0.912 J0
X86.088 Y58 Z-11.2 I-0.912 J0
X87.912 Y58 Z-11.3 I0.912 J0
X86.088 Y58 Z-11.4 I-0.912 J0
X87.912 Y58 Z-11.5 I0.912 J0
X86.088 Y58 Z-11.6 I-0.912 J0
X87.912 Y58 Z-11.7 I0.912 J0
X86.088 Y58 Z-11.8 I-0.912 J0
X87.912 Y58 Z-11.9 I0.912 J0
X86.088 Y58 Z-12 I-0.912 J0
X87.912 Y58 Z-12.1 I0.912 J0
X86.088 Y58 Z-12.2 I-0.912 J0
X87.912 Y58 Z-12.3 I0.912 J0
X86.088 Y58 Z-12.4 I-0.912 J0
X87.912 Y58 Z-12.5 I0.912 J0
X86.088 Y58 Z-12.6 I-0.912 J0
X87.912 Y58 Z-12.7 I0.912 J0
X86.088 Y58 Z-12.8 I-0.912 J0
X87.912 Y58 Z-12.9 I0.912 J0
X86.088 Y58 Z-13 I-0.912 J0
X87.912 Y58 Z-13.1 I0.912 J0
X86.088 Y58 Z-13.2 I-0.912 J0
X87.912 Y58 Z-13.3 I0.912 J0
X86.088 Y58 Z-13.4 I-0.912 J0
X87.912 Y58 Z-13.5 I0.912 J0
X86.088 Y58 Z-13.6 I-0.912 J0
X87.912 Y58 Z-13.7 I0.912 J0
X86.088 Y58 Z-13.8 I-0.912 J0
X87.912 Y58 Z-13.9 I0.912 J0
X86.088 Y58 Z-14 I-0.912 J0
X87.912 Y58 Z-14.1 I0.912 J0
X86.088 Y58 Z-14.2 I-0.912 J0
X87.912 Y58 Z-14.3 I0.912 J0
X86.088 Y58 Z-14.4 I-0.912 J0
X87.912 Y58 Z-14.5 I0.912 J0
X86.088 Y58 Z-14.6 I-0.912 J0
X87.912 Y58 Z-14.7 I0.912 J0
X86.088 Y58 Z-14.8 I-0.912 J0
X87.912 Y58 Z-14.9 I0.912 J0
X86.088 Y58 Z-15 I-0.912 J0
X87.912 Y58 Z-15.1 I0.912 J0
X86.088 Y58 Z-15.2 I-0.912 J0
X87.912 Y58 Z-15.3 I0.912 J0
X86.088 Y58 Z-15.4 I-0.912 J0
X87.912 Y58 Z-15.5 I0.912 J0
X86.088 Y58 Z-15.6 I-0.912 J0
X87.912 Y58 Z-15.7 I0.912 J0
X86.088 Y58 Z-15.8 I-0.912 J0
X87.912 Y58 Z-15.9 I0.912 J0
X86.088 Y58 Z-16 I-0.912 J0
X87.912 Y58 Z-16.1 I0.912 J0
X86.088 Y58 Z-16.2 I-0.912 J0
X87.912 Y58 Z-16.3 I0.912 J0
X86.088 Y58 Z-16.4 I-0.912 J0
X87.912 Y58 Z-16.5 I0.912 J0
X86.088 Y58 Z-16.6 I-0.912 J0
X87.912 Y58 Z-16.7 I0.912 J0
X86.088 Y58 Z-16.8 I-0.912 J0
X87.912 Y58 Z-16.9 I0.912 J0
X86.088 Y58 Z-17 I-0.912 J0
X87.912 Y58 Z-17.1 I0.912 J0
X86.088 Y58 Z-17.2 I-0.912 J0
X87.912 Y58 Z-17.3 I0.912 J0
X86.088 Y58 Z-17.4 I-0.912 J0
X87.912 Y58 Z-17.5 I0.912 J0
X86.088 Y58 Z-17.6 I-0.912 J0
X87.912 Y58 Z-17.7 I0.912 J0
X86.088 Y58 Z-17.8 I-0.912 J0
X87.912 Y58 Z-17.9 I0.912 J0
X86.088 Y58 Z-18 I-0.912 J0
X87.912 Y58 Z-18.1 I0.912 J0
X86.088 Y58 Z-18.2 I-0.912 J0
X87.912 Y58 Z-18.3 I0.912 J0
X86.088 Y58 Z-18.4 I-0.912 J0
X87.912 Y58 Z-18.5 I0.912 J0
X86.088 Y58 Z-18.6 I-0.912 J0
X87.912 Y58 Z-18.7 I0.912 J0
X86.088 Y58 Z-18.8 I-0.912 J0
X87.912 Y58 Z-18.9 I0.912 J0
X86.088 Y58 Z-19 I-0.912 J0
X87.912 Y58 Z-19.1 I0.912 J0
X86.088 Y58 Z-19.2 I-0.912 J0
X87.912 Y58 Z-19.3 I0.912 J0
X86.088 Y58 Z-19.4 I-0.912 J0
X87.912 Y58 Z-19.5 I0.912 J0
X86.088 Y58 Z-19.6 I-0.912 J0
X87.912 Y58 Z-19.7 I0.912 J0
X86.088 Y58 Z-19.8 I-0.912 J0
X87.912 Y58 Z-19.9 I0.912 J0
X86.088 Y58 Z-20 I-0.912 J0
X87.912 Y58 I0.912 J0
X86.088 Y58 I-0.912 J0
X86.405 Y57.682 I0.317 J0
G1 X86.564
G18 G2 X86.881 Z-19.683 I0 K0.317
G0 Z5
X159.381 Y58.318
Z-3
G1 Z-4.682 F3000
G3 X159.064 Z-5 I-0.318 K0
G1 X158.905
G17 G3 X158.587 Y58 I0 J-0.318
X165.413 Y58 Z-5.1 I3.413 J0
X158.587 Y58 Z-5.2 I-3.413 J0
X165.413 Y58 Z-5.3 I3.413 J0
X158.587 Y58 Z-5.4 I-3.413 J0
X165.413 Y58 Z-5.5 I3.413 J0
X158.587 Y58 Z-5.6 I-3.413 J0
X165.413 Y58 Z-5.7 I3.413 J0
X158.587 Y58 Z-5.8 I-3.413 J0
X165.413 Y58 Z-5.9 I3.413 J0
X158.587 Y58 Z-6 I-3.413 J0
X165.413 Y58 Z-6.1 I3.413 J0
X158.587 Y58 Z-6.2 I-3.413 J0
X165.413 Y58 Z-6.3 I3.413 J0
X158.587 Y58 Z-6.4 I-3.413 J0
X165.413 Y58 Z-6.5 I3.413 J0
X158.587 Y58 Z-6.6 I-3.413 J0
X165.413 Y58 Z-6.7 I3.413 J0
X158.587 Y58 Z-6.8 I-3.413 J0
X165.413 Y58 Z-6.9 I3.413 J0
X158.587 Y58 Z-7 I-3.413 J0
X165.413 Y58 Z-7.1 I3.413 J0
X158.587 Y58 Z-7.2 I-3.413 J0
X165.413 Y58 Z-7.3 I3.413 J0
X158.587 Y58 Z-7.4 I-3.413 J0
X165.413 Y58 Z-7.5 I3.413 J0
X158.587 Y58 Z-7.6 I-3.413 J0
X165.413 Y58 Z-7.7 I3.413 J0
X158.587 Y58 Z-7.8 I-3.413 J0
X165.413 Y58 Z-7.9 I3.413 J0
X158.587 Y58 Z-8 I-3.413 J0
X165.413 Y58 Z-8.1 I3.413 J0
X158.587 Y58 Z-8.2 I-3.413 J0
X165.413 Y58 Z-8.3 I3.413 J0
X158.587 Y58 Z-8.4 I-3.413 J0
X165.413 Y58 Z-8.5 I3.413 J0
X158.587 Y58 Z-8.6 I-3.413 J0
X165.413 Y58 Z-8.7 I3.413 J0
X158.587 Y58 Z-8.8 I-3.413 J0
X165.413 Y58 Z-8.9 I3.413 J0
X158.587 Y58 Z-9 I-3.413 J0
X165.413 Y58 Z-9.1 I3.413 J0
X158.587 Y58 Z-9.2 I-3.413 J0
X165.413 Y58 Z-9.3 I3.413 J0
X158.587 Y58 Z-9.4 I-3.413 J0
X165.413 Y58 Z-9.5 I3.413 J0
X158.587 Y58 Z-9.6 I-3.413 J0
X165.413 Y58 Z-9.7 I3.413 J0
X158.587 Y58 Z-9.8 I-3.413 J0
X165.413 Y58 Z-9.9 I3.413 J0
X158.587 Y58 Z-10 I-3.413 J0
X165.413 Y58 I3.413 J0
X158.587 Y58 I-3.413 J0
X158.905 Y57.682 I0.318 J0
G1 X159.064
G18 G2 X159.381 Z-9.682 I0 K0.318
G0 Z5
X161.881 Y58.318
Z-8
G1 Z-9.682 F3000
G3 X161.564 Z-10 I-0.318 K0
G1 X161.405
G17 G3 X161.087 Y58 I0 J-0.318
X162.913 Y58 Z-10.1 I0.913 J0
X161.087 Y58 Z-10.2 I-0.913 J0
X162.913 Y58 Z-10.3 I0.913 J0
X161.087 Y58 Z-10.4 I-0.913 J0
X162.913 Y58 Z-10.5 I0.913 J0
X161.087 Y58 Z-10.6 I-0.913 J0
X162.913 Y58 Z-10.7 I0.913 J0
X161.087 Y58 Z-10.8 I-0.913 J0
X162.913 Y58 Z-10.9 I0.913 J0
X161.087 Y58 Z-11 I-0.913 J0
X162.913 Y58 Z-11.1 I0.913 J0
X161.087 Y58 Z-11.2 I-0.913 J0
X162.913 Y58 Z-11.3 I0.913 J0
X161.087 Y58 Z-11.4 I-0.913 J0
X162.913 Y58 Z-11.5 I0.913 J0
X161.087 Y58 Z-11.6 I-0.913 J0
X162.913 Y58 Z-11.7 I0.913 J0
X161.087 Y58 Z-11.8 I-0.913 J0
X162.913 Y58 Z-11.9 I0.913 J0
X161.087 Y58 Z-12 I-0.913 J0
X162.913 Y58 Z-12.1 I0.913 J0
X161.087 Y58 Z-12.2 I-0.913 J0
X162.913 Y58 Z-12.3 I0.913 J0
X161.087 Y58 Z-12.4 I-0.913 J0
X162.913 Y58 Z-12.5 I0.913 J0
X161.087 Y58 Z-12.6 I-0.913 J0
X162.913 Y58 Z-12.7 I0.913 J0
X161.087 Y58 Z-12.8 I-0.913 J0
X162.913 Y58 Z-12.9 I0.913 J0
X161.087 Y58 Z-13 I-0.913 J0
X162.913 Y58 Z-13.1 I0.913 J0
X161.087 Y58 Z-13.2 I-0.913 J0
X162.913 Y58 Z-13.3 I0.913 J0
X161.087 Y58 Z-13.4 I-0.913 J0
X162.913 Y58 Z-13.5 I0.913 J0
X161.087 Y58 Z-13.6 I-0.913 J0
X162.913 Y58 Z-13.7 I0.913 J0
X161.087 Y58 Z-13.8 I-0.913 J0
X162.913 Y58 Z-13.9 I0.913 J0
X161.087 Y58 Z-14 I-0.913 J0
X162.913 Y58 Z-14.1 I0.913 J0
X161.087 Y58 Z-14.2 I-0.913 J0
X162.913 Y58 Z-14.3 I0.913 J0
X161.087 Y58 Z-14.4 I-0.913 J0
X162.913 Y58 Z-14.5 I0.913 J0
X161.087 Y58 Z-14.6 I-0.913 J0
X162.913 Y58 Z-14.7 I0.913 J0
X161.087 Y58 Z-14.8 I-0.913 J0
X162.913 Y58 Z-14.9 I0.913 J0
X161.087 Y58 Z-15 I-0.913 J0
X162.913 Y58 Z-15.1 I0.913 J0
X161.087 Y58 Z-15.2 I-0.913 J0
X162.913 Y58 Z-15.3 I0.913 J0
X161.087 Y58 Z-15.4 I-0.913 J0
X162.913 Y58 Z-15.5 I0.913 J0
X161.087 Y58 Z-15.6 I-0.913 J0
X162.913 Y58 Z-15.7 I0.913 J0
X161.087 Y58 Z-15.8 I-0.913 J0
X162.913 Y58 Z-15.9 I0.913 J0
X161.087 Y58 Z-16 I-0.913 J0
X162.913 Y58 Z-16.1 I0.913 J0
X161.087 Y58 Z-16.2 I-0.913 J0
X162.913 Y58 Z-16.3 I0.913 J0
X161.087 Y58 Z-16.4 I-0.913 J0
X162.913 Y58 Z-16.5 I0.913 J0
X161.087 Y58 Z-16.6 I-0.913 J0
X162.913 Y58 Z-16.7 I0.913 J0
X161.087 Y58 Z-16.8 I-0.913 J0
X162.913 Y58 Z-16.9 I0.913 J0
X161.087 Y58 Z-17 I-0.913 J0
X162.913 Y58 Z-17.1 I0.913 J0
X161.087 Y58 Z-17.2 I-0.913 J0
X162.913 Y58 Z-17.3 I0.913 J0
X161.087 Y58 Z-17.4 I-0.913 J0
X162.913 Y58 Z-17.5 I0.913 J0
X161.087 Y58 Z-17.6 I-0.913 J0
X162.913 Y58 Z-17.7 I0.913 J0
X161.087 Y58 Z-17.8 I-0.913 J0
X162.913 Y58 Z-17.9 I0.913 J0
X161.087 Y58 Z-18 I-0.913 J0
X162.913 Y58 Z-18.1 I0.913 J0
X161.087 Y58 Z-18.2 I-0.913 J0
X162.913 Y58 Z-18.3 I0.913 J0
X161.087 Y58 Z-18.4 I-0.913 J0
X162.913 Y58 Z-18.5 I0.913 J0
X161.087 Y58 Z-18.6 I-0.913 J0
X162.913 Y58 Z-18.7 I0.913 J0
X161.087 Y58 Z-18.8 I-0.913 J0
X162.913 Y58 Z-18.9 I0.913 J0
X161.087 Y58 Z-19 I-0.913 J0
X162.913 Y58 Z-19.1 I0.913 J0
X161.087 Y58 Z-19.2 I-0.913 J0
X162.913 Y58 Z-19.3 I0.913 J0
X161.087 Y58 Z-19.4 I-0.913 J0
X162.913 Y58 Z-19.5 I0.913 J0
X161.087 Y58 Z-19.6 I-0.913 J0
X162.913 Y58 Z-19.7 I0.913 J0
X161.087 Y58 Z-19.8 I-0.913 J0
X162.913 Y58 Z-19.9 I0.913 J0
X161.087 Y58 Z-20 I-0.913 J0
X162.913 Y58 I0.913 J0
X161.087 Y58 I-0.913 J0
X161.405 Y57.682 I0.318 J0
G1 X161.564
G18 G2 X161.881 Z-19.683 I0 K0.317
G0 Z5
X159.381 Y108.317
Z-3
G1 Z-4.682 F3000
G3 X159.064 Z-5 I-0.318 K0
G1 X158.905
G17 G3 X158.587 Y108 I0 J-0.317
X165.413 Y108 Z-5.1 I3.413 J0
X158.587 Y108 Z-5.2 I-3.413 J0
X165.413 Y108 Z-5.3 I3.413 J0
X158.587 Y108 Z-5.4 I-3.413 J0
X165.413 Y108 Z-5.5 I3.413 J0
X158.587 Y108 Z-5.6 I-3.413 J0
X165.413 Y108 Z-5.7 I3.413 J0
X158.587 Y108 Z-5.8 I-3.413 J0
X165.413 Y108 Z-5.9 I3.413 J0
X158.587 Y108 Z-6 I-3.413 J0
X165.413 Y108 Z-6.1 I3.413 J0
X158.587 Y108 Z-6.2 I-3.413 J0
X165.413 Y108 Z-6.3 I3.413 J0
X158.587 Y108 Z-6.4 I-3.413 J0
X165.413 Y108 Z-6.5 I3.413 J0
X158.587 Y108 Z-6.6 I-3.413 J0
X165.413 Y108 Z-6.7 I3.413 J0
X158.587 Y108 Z-6.8 I-3.413 J0
X165.413 Y108 Z-6.9 I3.413 J0
X158.587 Y108 Z-7 I-3.413 J0
X165.413 Y108 Z-7.1 I3.413 J0
X158.587 Y108 Z-7.2 I-3.413 J0
X165.413 Y108 Z-7.3 I3.413 J0
X158.587 Y108 Z-7.4 I-3.413 J0
X165.413 Y108 Z-7.5 I3.413 J0
X158.587 Y108 Z-7.6 I-3.413 J0
X165.413 Y108 Z-7.7 I3.413 J0
X158.587 Y108 Z-7.8 I-3.413 J0
X165.413 Y108 Z-7.9 I3.413 J0
X158.587 Y108 Z-8 I-3.413 J0
X165.413 Y108 Z-8.1 I3.413 J0
X158.587 Y108 Z-8.2 I-3.413 J0
X165.413 Y108 Z-8.3 I3.413 J0
X158.587 Y108 Z-8.4 I-3.413 J0
X165.413 Y108 Z-8.5 I3.413 J0
X158.587 Y108 Z-8.6 I-3.413 J0
X165.413 Y108 Z-8.7 I3.413 J0
X158.587 Y108 Z-8.8 I-3.413 J0
X165.413 Y108 Z-8.9 I3.413 J0
X158.587 Y108 Z-9 I-3.413 J0
X165.413 Y108 Z-9.1 I3.413 J0
X158.587 Y108 Z-9.2 I-3.413 J0
X165.413 Y108 Z-9.3 I3.413 J0
X158.587 Y108 Z-9.4 I-3.413 J0
X165.413 Y108 Z-9.5 I3.413 J0
X158.587 Y108 Z-9.6 I-3.413 J0
X165.413 Y108 Z-9.7 I3.413 J0
X158.587 Y108 Z-9.8 I-3.413 J0
X165.413 Y108 Z-9.9 I3.413 J0
X158.587 Y108 Z-10 I-3.413 J0
X165.413 Y108 I3.413 J0
X158.587 Y108 I-3.413 J0
X158.905 Y107.683 I0.318 J0
G1 X159.064
G18 G2 X159.381 Z-9.682 I0 K0.318
G0 Z5
X161.881 Y108.317
Z-8
G1 Z-9.682 F3000
G3 X161.564 Z-10 I-0.318 K0
G1 X161.405
G17 G3 X161.087 Y108 I0 J-0.317
X162.913 Y108 Z-10.1 I0.913 J0
X161.087 Y108 Z-10.2 I-0.913 J0
X162.913 Y108 Z-10.3 I0.913 J0
X161.087 Y108 Z-10.4 I-0.913 J0
X162.913 Y108 Z-10.5 I0.913 J0
X161.087 Y108 Z-10.6 I-0.913 J0
X162.913 Y108 Z-10.7 I0.913 J0
X161.087 Y108 Z-10.8 I-0.913 J0
X162.913 Y108 Z-10.9 I0.913 J0
X161.087 Y108 Z-11 I-0.913 J0
X162.913 Y108 Z-11.1 I0.913 J0
X161.087 Y108 Z-11.2 I-0.913 J0
X162.913 Y108 Z-11.3 I0.913 J0
X161.087 Y108 Z-11.4 I-0.913 J0
X162.913 Y108 Z-11.5 I0.913 J0
X161.087 Y108 Z-11.6 I-0.913 J0
X162.913 Y108 Z-11.7 I0.913 J0
X161.087 Y108 Z-11.8 I-0.913 J0
X162.913 Y108 Z-11.9 I0.913 J0
X161.087 Y108 Z-12 I-0.913 J0
X162.913 Y108 Z-12.1 I0.913 J0
X161.087 Y108 Z-12.2 I-0.913 J0
X162.913 Y108 Z-12.3 I0.913 J0
X161.087 Y108 Z-12.4 I-0.913 J0
X162.913 Y108 Z-12.5 I0.913 J0
X161.087 Y108 Z-12.6 I-0.913 J0
X162.913 Y108 Z-12.7 I0.913 J0
X161.087 Y108 Z-12.8 I-0.913 J0
X162.913 Y108 Z-12.9 I0.913 J0
X161.087 Y108 Z-13 I-0.913 J0
X162.913 Y108 Z-13.1 I0.913 J0
X161.087 Y108 Z-13.2 I-0.913 J0
X162.913 Y108 Z-13.3 I0.913 J0
X161.087 Y108 Z-13.4 I-0.913 J0
X162.913 Y108 Z-13.5 I0.913 J0
X161.087 Y108 Z-13.6 I-0.913 J0
X162.913 Y108 Z-13.7 I0.913 J0
X161.087 Y108 Z-13.8 I-0.913 J0
X162.913 Y108 Z-13.9 I0.913 J0
X161.087 Y108 Z-14 I-0.913 J0
X162.913 Y108 Z-14.1 I0.913 J0
X161.087 Y108 Z-14.2 I-0.913 J0
X162.913 Y108 Z-14.3 I0.913 J0
X161.087 Y108 Z-14.4 I-0.913 J0
X162.913 Y108 Z-14.5 I0.913 J0
X161.087 Y108 Z-14.6 I-0.913 J0
X162.913 Y108 Z-14.7 I0.913 J0
X161.087 Y108 Z-14.8 I-0.913 J0
X162.913 Y108 Z-14.9 I0.913 J0
X161.087 Y108 Z-15 I-0.913 J0
X162.913 Y108 Z-15.1 I0.913 J0
X161.087 Y108 Z-15.2 I-0.913 J0
X162.913 Y108 Z-15.3 I0.913 J0
X161.087 Y108 Z-15.4 I-0.913 J0
X162.913 Y108 Z-15.5 I0.913 J0
X161.087 Y108 Z-15.6 I-0.913 J0
X162.913 Y108 Z-15.7 I0.913 J0
X161.087 Y108 Z-15.8 I-0.913 J0
X162.913 Y108 Z-15.9 I0.913 J0
X161.087 Y108 Z-16 I-0.913 J0
X162.913 Y108 Z-16.1 I0.913 J0
X161.087 Y108 Z-16.2 I-0.913 J0
X162.913 Y108 Z-16.3 I0.913 J0
X161.087 Y108 Z-16.4 I-0.913 J0
X162.913 Y108 Z-16.5 I0.913 J0
X161.087 Y108 Z-16.6 I-0.913 J0
X162.913 Y108 Z-16.7 I0.913 J0
X161.087 Y108 Z-16.8 I-0.913 J0
X162.913 Y108 Z-16.9 I0.913 J0
X161.087 Y108 Z-17 I-0.913 J0
X162.913 Y108 Z-17.1 I0.913 J0
X161.087 Y108 Z-17.2 I-0.913 J0
X162.913 Y108 Z-17.3 I0.913 J0
X161.087 Y108 Z-17.4 I-0.913 J0
X162.913 Y108 Z-17.5 I0.913 J0
X161.087 Y108 Z-17.6 I-0.913 J0
X162.913 Y108 Z-17.7 I0.913 J0
X161.087 Y108 Z-17.8 I-0.913 J0
X162.913 Y108 Z-17.9 I0.913 J0
X161.087 Y108 Z-18 I-0.913 J0
X162.913 Y108 Z-18.1 I0.913 J0
X161.087 Y108 Z-18.2 I-0.913 J0
X162.913 Y108 Z-18.3 I0.913 J0
X161.087 Y108 Z-18.4 I-0.913 J0
X162.913 Y108 Z-18.5 I0.913 J0
X161.087 Y108 Z-18.6 I-0.913 J0
X162.913 Y108 Z-18.7 I0.913 J0
X161.087 Y108 Z-18.8 I-0.913 J0
X162.913 Y108 Z-18.9 I0.913 J0
X161.087 Y108 Z-19 I-0.913 J0
X162.913 Y108 Z-19.1 I0.913 J0
X161.087 Y108 Z-19.2 I-0.913 J0
X162.913 Y108 Z-19.3 I0.913 J0
X161.087 Y108 Z-19.4 I-0.913 J0
X162.913 Y108 Z-19.5 I0.913 J0
X161.087 Y108 Z-19.6 I-0.913 J0
X162.913 Y108 Z-19.7 I0.913 J0
X161.087 Y108 Z-19.8 I-0.913 J0
X162.913 Y108 Z-19.9 I0.913 J0
X161.087 Y108 Z-20 I-0.913 J0
X162.913 Y108 I0.913 J0
X161.087 Y108 I-0.913 J0
X161.405 Y107.683 I0.318 J0
G1 X161.564
G18 G2 X161.881 Z-19.683 I0 K0.317
G0 Z5
X159.381 Y158.318
Z-3
G1 Z-4.682 F3000
G3 X159.064 Z-5 I-0.318 K0
G1 X158.905
G17 G3 X158.587 Y158 I0 J-0.318
X165.413 Y158 Z-5.1 I3.413 J0
X158.587 Y158 Z-5.2 I-3.413 J0
X165.413 Y158 Z-5.3 I3.413 J0
X158.587 Y158 Z-5.4 I-3.413 J0
X165.413 Y158 Z-5.5 I3.413 J0
X158.587 Y158 Z-5.6 I-3.413 J0
X165.413 Y158 Z-5.7 I3.413 J0
X158.587 Y158 Z-5.8 I-3.413 J0
X165.413 Y158 Z-5.9 I3.413 J0
X158.587 Y158 Z-6 I-3.413 J0
X165.413 Y158 Z-6.1 I3.413 J0
X158.587 Y158 Z-6.2 I-3.413 J0
X165.413 Y158 Z-6.3 I3.413 J0
X158.587 Y158 Z-6.4 I-3.413 J0
X165.413 Y158 Z-6.5 I3.413 J0
X158.587 Y158 Z-6.6 I-3.413 J0
X165.413 Y158 Z-6.7 I3.413 J0
X158.587 Y158 Z-6.8 I-3.413 J0
X165.413 Y158 Z-6.9 I3.413 J0
X158.587 Y158 Z-7 I-3.413 J0
X165.413 Y158 Z-7.1 I3.413 J0
X158.587 Y158 Z-7.2 I-3.413 J0
X165.413 Y158 Z-7.3 I3.413 J0
X158.587 Y158 Z-7.4 I-3.413 J0
X165.413 Y158 Z-7.5 I3.413 J0
X158.587 Y158 Z-7.6 I-3.413 J0
X165.413 Y158 Z-7.7 I3.413 J0
X158.587 Y158 Z-7.8 I-3.413 J0
X165.413 Y158 Z-7.9 I3.413 J0
X158.587 Y158 Z-8 I-3.413 J0
X165.413 Y158 Z-8.1 I3.413 J0
X158.587 Y158 Z-8.2 I-3.413 J0
X165.413 Y158 Z-8.3 I3.413 J0
X158.587 Y158 Z-8.4 I-3.413 J0
X165.413 Y158 Z-8.5 I3.413 J0
X158.587 Y158 Z-8.6 I-3.413 J0
X165.413 Y158 Z-8.7 I3.413 J0
X158.587 Y158 Z-8.8 I-3.413 J0
X165.413 Y158 Z-8.9 I3.413 J0
X158.587 Y158 Z-9 I-3.413 J0
X165.413 Y158 Z-9.1 I3.413 J0
X158.587 Y158 Z-9.2 I-3.413 J0
X165.413 Y158 Z-9.3 I3.413 J0
X158.587 Y158 Z-9.4 I-3.413 J0
X165.413 Y158 Z-9.5 I3.413 J0
X158.587 Y158 Z-9.6 I-3.413 J0
X165.413 Y158 Z-9.7 I3.413 J0
X158.587 Y158 Z-9.8 I-3.413 J0
X165.413 Y158 Z-9.9 I3.413 J0
X158.587 Y158 Z-10 I-3.413 J0
X165.413 Y158 I3.413 J0
X158.587 Y158 I-3.413 J0
X158.905 Y157.682 I0.318 J0
G1 X159.064
G18 G2 X159.381 Z-9.682 I0 K0.318
G0 Z5
X161.881 Y158.318
Z-8
G1 Z-9.682 F3000
G3 X161.564 Z-10 I-0.318 K0
G1 X161.405
G17 G3 X161.087 Y158 I0 J-0.318
X162.913 Y158 Z-10.1 I0.913 J0
X161.087 Y158 Z-10.2 I-0.913 J0
X162.913 Y158 Z-10.3 I0.913 J0
X161.087 Y158 Z-10.4 I-0.913 J0
X162.913 Y158 Z-10.5 I0.913 J0
X161.087 Y158 Z-10.6 I-0.913 J0
X162.913 Y158 Z-10.7 I0.913 J0
X161.087 Y158 Z-10.8 I-0.913 J0
X162.913 Y158 Z-10.9 I0.913 J0
X161.087 Y158 Z-11 I-0.913 J0
X162.913 Y158 Z-11.1 I0.913 J0
X161.087 Y158 Z-11.2 I-0.913 J0
X162.913 Y158 Z-11.3 I0.913 J0
X161.087 Y158 Z-11.4 I-0.913 J0
X162.913 Y158 Z-11.5 I0.913 J0
X161.087 Y158 Z-11.6 I-0.913 J0
X162.913 Y158 Z-11.7 I0.913 J0
X161.087 Y158 Z-11.8 I-0.913 J0
X162.913 Y158 Z-11.9 I0.913 J0
X161.087 Y158 Z-12 I-0.913 J0
X162.913 Y158 Z-12.1 I0.913 J0
X161.087 Y158 Z-12.2 I-0.913 J0
X162.913 Y158 Z-12.3 I0.913 J0
X161.087 Y158 Z-12.4 I-0.913 J0
X162.913 Y158 Z-12.5 I0.913 J0
X161.087 Y158 Z-12.6 I-0.913 J0
X162.913 Y158 Z-12.7 I0.913 J0
X161.087 Y158 Z-12.8 I-0.913 J0
X162.913 Y158 Z-12.9 I0.913 J0
X161.087 Y158 Z-13 I-0.913 J0
X162.913 Y158 Z-13.1 I0.913 J0
X161.087 Y158 Z-13.2 I-0.913 J0
X162.913 Y158 Z-13.3 I0.913 J0
X161.087 Y158 Z-13.4 I-0.913 J0
X162.913 Y158 Z-13.5 I0.913 J0
X161.087 Y158 Z-13.6 I-0.913 J0
X162.913 Y158 Z-13.7 I0.913 J0
X161.087 Y158 Z-13.8 I-0.913 J0
X162.913 Y158 Z-13.9 I0.913 J0
X161.087 Y158 Z-14 I-0.913 J0
X162.913 Y158 Z-14.1 I0.913 J0
X161.087 Y158 Z-14.2 I-0.913 J0
X162.913 Y158 Z-14.3 I0.913 J0
X161.087 Y158 Z-14.4 I-0.913 J0
X162.913 Y158 Z-14.5 I0.913 J0
X161.087 Y158 Z-14.6 I-0.913 J0
X162.913 Y158 Z-14.7 I0.913 J0
X161.087 Y158 Z-14.8 I-0.913 J0
X162.913 Y158 Z-14.9 I0.913 J0
X161.087 Y158 Z-15 I-0.913 J0
X162.913 Y158 Z-15.1 I0.913 J0
X161.087 Y158 Z-15.2 I-0.913 J0
X162.913 Y158 Z-15.3 I0.913 J0
X161.087 Y158 Z-15.4 I-0.913 J0
X162.913 Y158 Z-15.5 I0.913 J0
X161.087 Y158 Z-15.6 I-0.913 J0
X162.913 Y158 Z-15.7 I0.913 J0
X161.087 Y158 Z-15.8 I-0.913 J0
X162.913 Y158 Z-15.9 I0.913 J0
X161.087 Y158 Z-16 I-0.913 J0
X162.913 Y158 Z-16.1 I0.913 J0
X161.087 Y158 Z-16.2 I-0.913 J0
X162.913 Y158 Z-16.3 I0.913 J0
X161.087 Y158 Z-16.4 I-0.913 J0
X162.913 Y158 Z-16.5 I0.913 J0
X161.087 Y158 Z-16.6 I-0.913 J0
X162.913 Y158 Z-16.7 I0.913 J0
X161.087 Y158 Z-16.8 I-0.913 J0
X162.913 Y158 Z-16.9 I0.913 J0
X161.087 Y158 Z-17 I-0.913 J0
X162.913 Y158 Z-17.1 I0.913 J0
X161.087 Y158 Z-17.2 I-0.913 J0
X162.913 Y158 Z-17.3 I0.913 J0
X161.087 Y158 Z-17.4 I-0.913 J0
X162.913 Y158 Z-17.5 I0.913 J0
X161.087 Y158 Z-17.6 I-0.913 J0
X162.913 Y158 Z-17.7 I0.913 J0
X161.087 Y158 Z-17.8 I-0.913 J0
X162.913 Y158 Z-17.9 I0.913 J0
X161.087 Y158 Z-18 I-0.913 J0
X162.913 Y158 Z-18.1 I0.913 J0
X161.087 Y158 Z-18.2 I-0.913 J0
X162.913 Y158 Z-18.3 I0.913 J0
X161.087 Y158 Z-18.4 I-0.913 J0
X162.913 Y158 Z-18.5 I0.913 J0
X161.087 Y158 Z-18.6 I-0.913 J0
X162.913 Y158 Z-18.7 I0.913 J0
X161.087 Y158 Z-18.8 I-0.913 J0
X162.913 Y158 Z-18.9 I0.913 J0
X161.087 Y158 Z-19 I-0.913 J0
X162.913 Y158 Z-19.1 I0.913 J0
X161.087 Y158 Z-19.2 I-0.913 J0
X162.913 Y158 Z-19.3 I0.913 J0
X161.087 Y158 Z-19.4 I-0.913 J0
X162.913 Y158 Z-19.5 I0.913 J0
X161.087 Y158 Z-19.6 I-0.913 J0
X162.913 Y158 Z-19.7 I0.913 J0
X161.087 Y158 Z-19.8 I-0.913 J0
X162.913 Y158 Z-19.9 I0.913 J0
X161.087 Y158 Z-20 I-0.913 J0
X162.913 Y158 I0.913 J0
X161.087 Y158 I-0.913 J0
X161.405 Y157.682 I0.318 J0
G1 X161.564
G18 G2 X161.881 Z-19.683 I0 K0.317
G0 Z5
X234.381 Y158.318
Z-3
G1 Z-4.682 F3000
G3 X234.064 Z-5 I-0.318 K0
G1 X233.905
G17 G3 X233.587 Y158 I0 J-0.318
X240.413 Y158 Z-5.1 I3.413 J0
X233.587 Y158 Z-5.2 I-3.413 J0
X240.413 Y158 Z-5.3 I3.413 J0
X233.587 Y158 Z-5.4 I-3.413 J0
X240.413 Y158 Z-5.5 I3.413 J0
X233.587 Y158 Z-5.6 I-3.413 J0
X240.413 Y158 Z-5.7 I3.413 J0
X233.587 Y158 Z-5.8 I-3.413 J0
X240.413 Y158 Z-5.9 I3.413 J0
X233.587 Y158 Z-6 I-3.413 J0
X240.413 Y158 Z-6.1 I3.413 J0
X233.587 Y158 Z-6.2 I-3.413 J0
X240.413 Y158 Z-6.3 I3.413 J0
X233.587 Y158 Z-6.4 I-3.413 J0
X240.413 Y158 Z-6.5 I3.413 J0
X233.587 Y158 Z-6.6 I-3.413 J0
X240.413 Y158 Z-6.7 I3.413 J0
X233.587 Y158 Z-6.8 I-3.413 J0
X240.413 Y158 Z-6.9 I3.413 J0
X233.587 Y158 Z-7 I-3.413 J0
X240.413 Y158 Z-7.1 I3.413 J0
X233.587 Y158 Z-7.2 I-3.413 J0
X240.413 Y158 Z-7.3 I3.413 J0
X233.587 Y158 Z-7.4 I-3.413 J0
X240.413 Y158 Z-7.5 I3.413 J0
X233.587 Y158 Z-7.6 I-3.413 J0
X240.413 Y158 Z-7.7 I3.413 J0
X233.587 Y158 Z-7.8 I-3.413 J0
X240.413 Y158 Z-7.9 I3.413 J0
X233.587 Y158 Z-8 I-3.413 J0
X240.413 Y158 Z-8.1 I3.413 J0
X233.587 Y158 Z-8.2 I-3.413 J0
X240.413 Y158 Z-8.3 I3.413 J0
X233.587 Y158 Z-8.4 I-3.413 J0
X240.413 Y158 Z-8.5 I3.413 J0
X233.587 Y158 Z-8.6 I-3.413 J0
X240.413 Y158 Z-8.7 I3.413 J0
X233.587 Y158 Z-8.8 I-3.413 J0
X240.413 Y158 Z-8.9 I3.413 J0
X233.587 Y158 Z-9 I-3.413 J0
X240.413 Y158 Z-9.1 I3.413 J0
X233.587 Y158 Z-9.2 I-3.413 J0
X240.413 Y158 Z-9.3 I3.413 J0
X233.587 Y158 Z-9.4 I-3.413 J0
X240.413 Y158 Z-9.5 I3.413 J0
X233.587 Y158 Z-9.6 I-3.413 J0
X240.413 Y158 Z-9.7 I3.413 J0
X233.587 Y158 Z-9.8 I-3.413 J0
X240.413 Y158 Z-9.9 I3.413 J0
X233.587 Y158 Z-10 I-3.413 J0
X240.413 Y158 I3.413 J0
X233.587 Y158 I-3.413 J0
X233.905 Y157.682 I0.318 J0
G1 X234.064
G18 G2 X234.381 Z-9.682 I0 K0.318
G0 Z5
X236.881 Y158.318
Z-8
G1 Z-9.682 F3000
G3 X236.564 Z-10 I-0.318 K0
G1 X236.405
G17 G3 X236.087 Y158 I0 J-0.318
X237.913 Y158 Z-10.1 I0.913 J0
X236.087 Y158 Z-10.2 I-0.913 J0
X237.913 Y158 Z-10.3 I0.913 J0
X236.087 Y158 Z-10.4 I-0.913 J0
X237.913 Y158 Z-10.5 I0.913 J0
X236.087 Y158 Z-10.6 I-0.913 J0
X237.913 Y158 Z-10.7 I0.913 J0
X236.087 Y158 Z-10.8 I-0.913 J0
X237.913 Y158 Z-10.9 I0.913 J0
X236.087 Y158 Z-11 I-0.913 J0
X237.913 Y158 Z-11.1 I0.913 J0
X236.087 Y158 Z-11.2 I-0.913 J0
X237.913 Y158 Z-11.3 I0.913 J0
X236.087 Y158 Z-11.4 I-0.913 J0
X237.913 Y158 Z-11.5 I0.913 J0
X236.087 Y158 Z-11.6 I-0.913 J0
X237.913 Y158 Z-11.7 I0.913 J0
X236.087 Y158 Z-11.8 I-0.913 J0
X237.913 Y158 Z-11.9 I0.913 J0
X236.087 Y158 Z-12 I-0.913 J0
X237.913 Y158 Z-12.1 I0.913 J0
X236.087 Y158 Z-12.2 I-0.913 J0
X237.913 Y158 Z-12.3 I0.913 J0
X236.087 Y158 Z-12.4 I-0.913 J0
X237.913 Y158 Z-12.5 I0.913 J0
X236.087 Y158 Z-12.6 I-0.913 J0
X237.913 Y158 Z-12.7 I0.913 J0
X236.087 Y158 Z-12.8 I-0.913 J0
X237.913 Y158 Z-12.9 I0.913 J0
X236.087 Y158 Z-13 I-0.913 J0
X237.913 Y158 Z-13.1 I0.913 J0
X236.087 Y158 Z-13.2 I-0.913 J0
X237.913 Y158 Z-13.3 I0.913 J0
X236.087 Y158 Z-13.4 I-0.913 J0
X237.913 Y158 Z-13.5 I0.913 J0
X236.087 Y158 Z-13.6 I-0.913 J0
X237.913 Y158 Z-13.7 I0.913 J0
X236.087 Y158 Z-13.8 I-0.913 J0
X237.913 Y158 Z-13.9 I0.913 J0
X236.087 Y158 Z-14 I-0.913 J0
X237.913 Y158 Z-14.1 I0.913 J0
X236.087 Y158 Z-14.2 I-0.913 J0
X237.913 Y158 Z-14.3 I0.913 J0
X236.087 Y158 Z-14.4 I-0.913 J0
X237.913 Y158 Z-14.5 I0.913 J0
X236.087 Y158 Z-14.6 I-0.913 J0
X237.913 Y158 Z-14.7 I0.913 J0
X236.087 Y158 Z-14.8 I-0.913 J0
X237.913 Y158 Z-14.9 I0.913 J0
X236.087 Y158 Z-15 I-0.913 J0
X237.913 Y158 Z-15.1 I0.913 J0
X236.087 Y158 Z-15.2 I-0.913 J0
X237.913 Y158 Z-15.3 I0.913 J0
X236.087 Y158 Z-15.4 I-0.913 J0
X237.913 Y158 Z-15.5 I0.913 J0
X236.087 Y158 Z-15.6 I-0.913 J0
X237.913 Y158 Z-15.7 I0.913 J0
X236.087 Y158 Z-15.8 I-0.913 J0
X237.913 Y158 Z-15.9 I0.913 J0
X236.087 Y158 Z-16 I-0.913 J0
X237.913 Y158 Z-16.1 I0.913 J0
X236.087 Y158 Z-16.2 I-0.913 J0
X237.913 Y158 Z-16.3 I0.913 J0
X236.087 Y158 Z-16.4 I-0.913 J0
X237.913 Y158 Z-16.5 I0.913 J0
X236.087 Y158 Z-16.6 I-0.913 J0
X237.913 Y158 Z-16.7 I0.913 J0
X236.087 Y158 Z-16.8 I-0.913 J0
X237.913 Y158 Z-16.9 I0.913 J0
X236.087 Y158 Z-17 I-0.913 J0
X237.913 Y158 Z-17.1 I0.913 J0
X236.087 Y158 Z-17.2 I-0.913 J0
X237.913 Y158 Z-17.3 I0.913 J0
X236.087 Y158 Z-17.4 I-0.913 J0
X237.913 Y158 Z-17.5 I0.913 J0
X236.087 Y158 Z-17.6 I-0.913 J0
X237.913 Y158 Z-17.7 I0.913 J0
X236.087 Y158 Z-17.8 I-0.913 J0
X237.913 Y158 Z-17.9 I0.913 J0
X236.087 Y158 Z-18 I-0.913 J0
X237.913 Y158 Z-18.1 I0.913 J0
X236.087 Y158 Z-18.2 I-0.913 J0
X237.913 Y158 Z-18.3 I0.913 J0
X236.087 Y158 Z-18.4 I-0.913 J0
X237.913 Y158 Z-18.5 I0.913 J0
X236.087 Y158 Z-18.6 I-0.913 J0
X237.913 Y158 Z-18.7 I0.913 J0
X236.087 Y158 Z-18.8 I-0.913 J0
X237.913 Y158 Z-18.9 I0.913 J0
X236.087 Y158 Z-19 I-0.913 J0
X237.913 Y158 Z-19.1 I0.913 J0
X236.087 Y158 Z-19.2 I-0.913 J0
X237.913 Y158 Z-19.3 I0.913 J0
X236.087 Y158 Z-19.4 I-0.913 J0
X237.913 Y158 Z-19.5 I0.913 J0
X236.087 Y158 Z-19.6 I-0.913 J0
X237.913 Y158 Z-19.7 I0.913 J0
X236.087 Y158 Z-19.8 I-0.913 J0
X237.913 Y158 Z-19.9 I0.913 J0
X236.087 Y158 Z-20 I-0.913 J0
X237.913 Y158 I0.913 J0
X236.087 Y158 I-0.913 J0
X236.405 Y157.682 I0.318 J0
G1 X236.564
G18 G2 X236.881 Z-19.683 I0 K0.317
G0 Z5
X234.381 Y108.317
Z-3
G1 Z-4.682 F3000
G3 X234.064 Z-5 I-0.318 K0
G1 X233.905
G17 G3 X233.587 Y108 I0 J-0.317
X240.413 Y108 Z-5.1 I3.413 J0
X233.587 Y108 Z-5.2 I-3.413 J0
X240.413 Y108 Z-5.3 I3.413 J0
X233.587 Y108 Z-5.4 I-3.413 J0
X240.413 Y108 Z-5.5 I3.413 J0
X233.587 Y108 Z-5.6 I-3.413 J0
X240.413 Y108 Z-5.7 I3.413 J0
X233.587 Y108 Z-5.8 I-3.413 J0
X240.413 Y108 Z-5.9 I3.413 J0
X233.587 Y108 Z-6 I-3.413 J0
X240.413 Y108 Z-6.1 I3.413 J0
X233.587 Y108 Z-6.2 I-3.413 J0
X240.413 Y108 Z-6.3 I3.413 J0
X233.587 Y108 Z-6.4 I-3.413 J0
X240.413 Y108 Z-6.5 I3.413 J0
X233.587 Y108 Z-6.6 I-3.413 J0
X240.413 Y108 Z-6.7 I3.413 J0
X233.587 Y108 Z-6.8 I-3.413 J0
X240.413 Y108 Z-6.9 I3.413 J0
X233.587 Y108 Z-7 I-3.413 J0
X240.413 Y108 Z-7.1 I3.413 J0
X233.587 Y108 Z-7.2 I-3.413 J0
X240.413 Y108 Z-7.3 I3.413 J0
X233.587 Y108 Z-7.4 I-3.413 J0
X240.413 Y108 Z-7.5 I3.413 J0
X233.587 Y108 Z-7.6 I-3.413 J0
X240.413 Y108 Z-7.7 I3.413 J0
X233.587 Y108 Z-7.8 I-3.413 J0
X240.413 Y108 Z-7.9 I3.413 J0
X233.587 Y108 Z-8 I-3.413 J0
X240.413 Y108 Z-8.1 I3.413 J0
X233.587 Y108 Z-8.2 I-3.413 J0
X240.413 Y108 Z-8.3 I3.413 J0
X233.587 Y108 Z-8.4 I-3.413 J0
X240.413 Y108 Z-8.5 I3.413 J0
X233.587 Y108 Z-8.6 I-3.413 J0
X240.413 Y108 Z-8.7 I3.413 J0
X233.587 Y108 Z-8.8 I-3.413 J0
X240.413 Y108 Z-8.9 I3.413 J0
X233.587 Y108 Z-9 I-3.413 J0
X240.413 Y108 Z-9.1 I3.413 J0
X233.587 Y108 Z-9.2 I-3.413 J0
X240.413 Y108 Z-9.3 I3.413 J0
X233.587 Y108 Z-9.4 I-3.413 J0
X240.413 Y108 Z-9.5 I3.413 J0
X233.587 Y108 Z-9.6 I-3.413 J0
X240.413 Y108 Z-9.7 I3.413 J0
X233.587 Y108 Z-9.8 I-3.413 J0
X240.413 Y108 Z-9.9 I3.413 J0
X233.587 Y108 Z-10 I-3.413 J0
X240.413 Y108 I3.413 J0
X233.587 Y108 I-3.413 J0
X233.905 Y107.683 I0.318 J0
G1 X234.064
G18 G2 X234.381 Z-9.682 I0 K0.318
G0 Z5
X236.881 Y108.317
Z-8
G1 Z-9.682 F3000
G3 X236.564 Z-10 I-0.318 K0
G1 X236.405
G17 G3 X236.087 Y108 I0 J-0.317
X237.913 Y108 Z-10.1 I0.913 J0
X236.087 Y108 Z-10.2 I-0.913 J0
X237.913 Y108 Z-10.3 I0.913 J0
X236.087 Y108 Z-10.4 I-0.913 J0
X237.913 Y108 Z-10.5 I0.913 J0
X236.087 Y108 Z-10.6 I-0.913 J0
X237.913 Y108 Z-10.7 I0.913 J0
X236.087 Y108 Z-10.8 I-0.913 J0
X237.913 Y108 Z-10.9 I0.913 J0
X236.087 Y108 Z-11 I-0.913 J0
X237.913 Y108 Z-11.1 I0.913 J0
X236.087 Y108 Z-11.2 I-0.913 J0
X237.913 Y108 Z-11.3 I0.913 J0
X236.087 Y108 Z-11.4 I-0.913 J0
X237.913 Y108 Z-11.5 I0.913 J0
X236.087 Y108 Z-11.6 I-0.913 J0
X237.913 Y108 Z-11.7 I0.913 J0
X236.087 Y108 Z-11.8 I-0.913 J0
X237.913 Y108 Z-11.9 I0.913 J0
X236.087 Y108 Z-12 I-0.913 J0
X237.913 Y108 Z-12.1 I0.913 J0
X236.087 Y108 Z-12.2 I-0.913 J0
X237.913 Y108 Z-12.3 I0.913 J0
X236.087 Y108 Z-12.4 I-0.913 J0
X237.913 Y108 Z-12.5 I0.913 J0
X236.087 Y108 Z-12.6 I-0.913 J0
X237.913 Y108 Z-12.7 I0.913 J0
X236.087 Y108 Z-12.8 I-0.913 J0
X237.913 Y108 Z-12.9 I0.913 J0
X236.087 Y108 Z-13 I-0.913 J0
X237.913 Y108 Z-13.1 I0.913 J0
X236.087 Y108 Z-13.2 I-0.913 J0
X237.913 Y108 Z-13.3 I0.913 J0
X236.087 Y108 Z-13.4 I-0.913 J0
X237.913 Y108 Z-13.5 I0.913 J0
X236.087 Y108 Z-13.6 I-0.913 J0
X237.913 Y108 Z-13.7 I0.913 J0
X236.087 Y108 Z-13.8 I-0.913 J0
X237.913 Y108 Z-13.9 I0.913 J0
X236.087 Y108 Z-14 I-0.913 J0
X237.913 Y108 Z-14.1 I0.913 J0
X236.087 Y108 Z-14.2 I-0.913 J0
X237.913 Y108 Z-14.3 I0.913 J0
X236.087 Y108 Z-14.4 I-0.913 J0
X237.913 Y108 Z-14.5 I0.913 J0
X236.087 Y108 Z-14.6 I-0.913 J0
X237.913 Y108 Z-14.7 I0.913 J0
X236.087 Y108 Z-14.8 I-0.913 J0
X237.913 Y108 Z-14.9 I0.913 J0
X236.087 Y108 Z-15 I-0.913 J0
X237.913 Y108 Z-15.1 I0.913 J0
X236.087 Y108 Z-15.2 I-0.913 J0
X237.913 Y108 Z-15.3 I0.913 J0
X236.087 Y108 Z-15.4 I-0.913 J0
X237.913 Y108 Z-15.5 I0.913 J0
X236.087 Y108 Z-15.6 I-0.913 J0
X237.913 Y108 Z-15.7 I0.913 J0
X236.087 Y108 Z-15.8 I-0.913 J0
X237.913 Y108 Z-15.9 I0.913 J0
X236.087 Y108 Z-16 I-0.913 J0
X237.913 Y108 Z-16.1 I0.913 J0
X236.087 Y108 Z-16.2 I-0.913 J0
X237.913 Y108 Z-16.3 I0.913 J0
X236.087 Y108 Z-16.4 I-0.913 J0
X237.913 Y108 Z-16.5 I0.913 J0
X236.087 Y108 Z-16.6 I-0.913 J0
X237.913 Y108 Z-16.7 I0.913 J0
X236.087 Y108 Z-16.8 I-0.913 J0
X237.913 Y108 Z-16.9 I0.913 J0
X236.087 Y108 Z-17 I-0.913 J0
X237.913 Y108 Z-17.1 I0.913 J0
X236.087 Y108 Z-17.2 I-0.913 J0
X237.913 Y108 Z-17.3 I0.913 J0
X236.087 Y108 Z-17.4 I-0.913 J0
X237.913 Y108 Z-17.5 I0.913 J0
X236.087 Y108 Z-17.6 I-0.913 J0
X237.913 Y108 Z-17.7 I0.913 J0
X236.087 Y108 Z-17.8 I-0.913 J0
X237.913 Y108 Z-17.9 I0.913 J0
X236.087 Y108 Z-18 I-0.913 J0
X237.913 Y108 Z-18.1 I0.913 J0
X236.087 Y108 Z-18.2 I-0.913 J0
X237.913 Y108 Z-18.3 I0.913 J0
X236.087 Y108 Z-18.4 I-0.913 J0
X237.913 Y108 Z-18.5 I0.913 J0
X236.087 Y108 Z-18.6 I-0.913 J0
X237.913 Y108 Z-18.7 I0.913 J0
X236.087 Y108 Z-18.8 I-0.913 J0
X237.913 Y108 Z-18.9 I0.913 J0
X236.087 Y108 Z-19 I-0.913 J0
X237.913 Y108 Z-19.1 I0.913 J0
X236.087 Y108 Z-19.2 I-0.913 J0
X237.913 Y108 Z-19.3 I0.913 J0
X236.087 Y108 Z-19.4 I-0.913 J0
X237.913 Y108 Z-19.5 I0.913 J0
X236.087 Y108 Z-19.6 I-0.913 J0
X237.913 Y108 Z-19.7 I0.913 J0
X236.087 Y108 Z-19.8 I-0.913 J0
X237.913 Y108 Z-19.9 I0.913 J0
X236.087 Y108 Z-20 I-0.913 J0
X237.913 Y108 I0.913 J0
X236.087 Y108 I-0.913 J0
X236.405 Y107.683 I0.318 J0
G1 X236.564
G18 G2 X236.881 Z-19.683 I0 K0.317
G0 Z5
X234.381 Y58.318
Z-3
G1 Z-4.682 F3000
G3 X234.064 Z-5 I-0.318 K0
G1 X233.905
G17 G3 X233.587 Y58 I0 J-0.318
X240.413 Y58 Z-5.1 I3.413 J0
X233.587 Y58 Z-5.2 I-3.413 J0
X240.413 Y58 Z-5.3 I3.413 J0
X233.587 Y58 Z-5.4 I-3.413 J0
X240.413 Y58 Z-5.5 I3.413 J0
X233.587 Y58 Z-5.6 I-3.413 J0
X240.413 Y58 Z-5.7 I3.413 J0
X233.587 Y58 Z-5.8 I-3.413 J0
X240.413 Y58 Z-5.9 I3.413 J0
X233.587 Y58 Z-6 I-3.413 J0
X240.413 Y58 Z-6.1 I3.413 J0
X233.587 Y58 Z-6.2 I-3.413 J0
X240.413 Y58 Z-6.3 I3.413 J0
X233.587 Y58 Z-6.4 I-3.413 J0
X240.413 Y58 Z-6.5 I3.413 J0
X233.587 Y58 Z-6.6 I-3.413 J0
X240.413 Y58 Z-6.7 I3.413 J0
X233.587 Y58 Z-6.8 I-3.413 J0
X240.413 Y58 Z-6.9 I3.413 J0
X233.587 Y58 Z-7 I-3.413 J0
X240.413 Y58 Z-7.1 I3.413 J0
X233.587 Y58 Z-7.2 I-3.413 J0
X240.413 Y58 Z-7.3 I3.413 J0
X233.587 Y58 Z-7.4 I-3.413 J0
X240.413 Y58 Z-7.5 I3.413 J0
X233.587 Y58 Z-7.6 I-3.413 J0
X240.413 Y58 Z-7.7 I3.413 J0
X233.587 Y58 Z-7.8 I-3.413 J0
X240.413 Y58 Z-7.9 I3.413 J0
X233.587 Y58 Z-8 I-3.413 J0
X240.413 Y58 Z-8.1 I3.413 J0
X233.587 Y58 Z-8.2 I-3.413 J0
X240.413 Y58 Z-8.3 I3.413 J0
X233.587 Y58 Z-8.4 I-3.413 J0
X240.413 Y58 Z-8.5 I3.413 J0
X233.587 Y58 Z-8.6 I-3.413 J0
X240.413 Y58 Z-8.7 I3.413 J0
X233.587 Y58 Z-8.8 I-3.413 J0
X240.413 Y58 Z-8.9 I3.413 J0
X233.587 Y58 Z-9 I-3.413 J0
X240.413 Y58 Z-9.1 I3.413 J0
X233.587 Y58 Z-9.2 I-3.413 J0
X240.413 Y58 Z-9.3 I3.413 J0
X233.587 Y58 Z-9.4 I-3.413 J0
X240.413 Y58 Z-9.5 I3.413 J0
X233.587 Y58 Z-9.6 I-3.413 J0
X240.413 Y58 Z-9.7 I3.413 J0
X233.587 Y58 Z-9.8 I-3.413 J0
X240.413 Y58 Z-9.9 I3.413 J0
X233.587 Y58 Z-10 I-3.413 J0
X240.413 Y58 I3.413 J0
X233.587 Y58 I-3.413 J0
X233.905 Y57.682 I0.318 J0
G1 X234.064
G18 G2 X234.381 Z-9.682 I0 K0.318
G0 Z5
X236.881 Y58.318
Z-8
G1 Z-9.682 F3000
G3 X236.564 Z-10 I-0.318 K0
G1 X236.405
G17 G3 X236.087 Y58 I0 J-0.318
X237.913 Y58 Z-10.1 I0.913 J0
X236.087 Y58 Z-10.2 I-0.913 J0
X237.913 Y58 Z-10.3 I0.913 J0
X236.087 Y58 Z-10.4 I-0.913 J0
X237.913 Y58 Z-10.5 I0.913 J0
X236.087 Y58 Z-10.6 I-0.913 J0
X237.913 Y58 Z-10.7 I0.913 J0
X236.087 Y58 Z-10.8 I-0.913 J0
X237.913 Y58 Z-10.9 I0.913 J0
X236.087 Y58 Z-11 I-0.913 J0
X237.913 Y58 Z-11.1 I0.913 J0
X236.087 Y58 Z-11.2 I-0.913 J0
X237.913 Y58 Z-11.3 I0.913 J0
X236.087 Y58 Z-11.4 I-0.913 J0
X237.913 Y58 Z-11.5 I0.913 J0
X236.087 Y58 Z-11.6 I-0.913 J0
X237.913 Y58 Z-11.7 I0.913 J0
X236.087 Y58 Z-11.8 I-0.913 J0
X237.913 Y58 Z-11.9 I0.913 J0
X236.087 Y58 Z-12 I-0.913 J0
X237.913 Y58 Z-12.1 I0.913 J0
X236.087 Y58 Z-12.2 I-0.913 J0
X237.913 Y58 Z-12.3 I0.913 J0
X236.087 Y58 Z-12.4 I-0.913 J0
X237.913 Y58 Z-12.5 I0.913 J0
X236.087 Y58 Z-12.6 I-0.913 J0
X237.913 Y58 Z-12.7 I0.913 J0
X236.087 Y58 Z-12.8 I-0.913 J0
X237.913 Y58 Z-12.9 I0.913 J0
X236.087 Y58 Z-13 I-0.913 J0
X237.913 Y58 Z-13.1 I0.913 J0
X236.087 Y58 Z-13.2 I-0.913 J0
X237.913 Y58 Z-13.3 I0.913 J0
X236.087 Y58 Z-13.4 I-0.913 J0
X237.913 Y58 Z-13.5 I0.913 J0
X236.087 Y58 Z-13.6 I-0.913 J0
X237.913 Y58 Z-13.7 I0.913 J0
X236.087 Y58 Z-13.8 I-0.913 J0
X237.913 Y58 Z-13.9 I0.913 J0
X236.087 Y58 Z-14 I-0.913 J0
X237.913 Y58 Z-14.1 I0.913 J0
X236.087 Y58 Z-14.2 I-0.913 J0
X237.913 Y58 Z-14.3 I0.913 J0
X236.087 Y58 Z-14.4 I-0.913 J0
X237.913 Y58 Z-14.5 I0.913 J0
X236.087 Y58 Z-14.6 I-0.913 J0
X237.913 Y58 Z-14.7 I0.913 J0
X236.087 Y58 Z-14.8 I-0.913 J0
X237.913 Y58 Z-14.9 I0.913 J0
X236.087 Y58 Z-15 I-0.913 J0
X237.913 Y58 Z-15.1 I0.913 J0
X236.087 Y58 Z-15.2 I-0.913 J0
X237.913 Y58 Z-15.3 I0.913 J0
X236.087 Y58 Z-15.4 I-0.913 J0
X237.913 Y58 Z-15.5 I0.913 J0
X236.087 Y58 Z-15.6 I-0.913 J0
X237.913 Y58 Z-15.7 I0.913 J0
X236.087 Y58 Z-15.8 I-0.913 J0
X237.913 Y58 Z-15.9 I0.913 J0
X236.087 Y58 Z-16 I-0.913 J0
X237.913 Y58 Z-16.1 I0.913 J0
X236.087 Y58 Z-16.2 I-0.913 J0
X237.913 Y58 Z-16.3 I0.913 J0
X236.087 Y58 Z-16.4 I-0.913 J0
X237.913 Y58 Z-16.5 I0.913 J0
X236.087 Y58 Z-16.6 I-0.913 J0
X237.913 Y58 Z-16.7 I0.913 J0
X236.087 Y58 Z-16.8 I-0.913 J0
X237.913 Y58 Z-16.9 I0.913 J0
X236.087 Y58 Z-17 I-0.913 J0
X237.913 Y58 Z-17.1 I0.913 J0
X236.087 Y58 Z-17.2 I-0.913 J0
X237.913 Y58 Z-17.3 I0.913 J0
X236.087 Y58 Z-17.4 I-0.913 J0
X237.913 Y58 Z-17.5 I0.913 J0
X236.087 Y58 Z-17.6 I-0.913 J0
X237.913 Y58 Z-17.7 I0.913 J0
X236.087 Y58 Z-17.8 I-0.913 J0
X237.913 Y58 Z-17.9 I0.913 J0
X236.087 Y58 Z-18 I-0.913 J0
X237.913 Y58 Z-18.1 I0.913 J0
X236.087 Y58 Z-18.2 I-0.913 J0
X237.913 Y58 Z-18.3 I0.913 J0
X236.087 Y58 Z-18.4 I-0.913 J0
X237.913 Y58 Z-18.5 I0.913 J0
X236.087 Y58 Z-18.6 I-0.913 J0
X237.913 Y58 Z-18.7 I0.913 J0
X236.087 Y58 Z-18.8 I-0.913 J0
X237.913 Y58 Z-18.9 I0.913 J0
X236.087 Y58 Z-19 I-0.913 J0
X237.913 Y58 Z-19.1 I0.913 J0
X236.087 Y58 Z-19.2 I-0.913 J0
X237.913 Y58 Z-19.3 I0.913 J0
X236.087 Y58 Z-19.4 I-0.913 J0
X237.913 Y58 Z-19.5 I0.913 J0
X236.087 Y58 Z-19.6 I-0.913 J0
X237.913 Y58 Z-19.7 I0.913 J0
X236.087 Y58 Z-19.8 I-0.913 J0
X237.913 Y58 Z-19.9 I0.913 J0
X236.087 Y58 Z-20 I-0.913 J0
X237.913 Y58 I0.913 J0
X236.087 Y58 I-0.913 J0
X236.405 Y57.682 I0.318 J0
G1 X236.564
G18 G2 X236.881 Z-19.683 I0 K0.317
G0 Z15
G17

(Pocket)
S15000 M3
G0 X88.212 Y160.991
Z15
Z5
G1 Z2 F3000
Z-0.683
X88.209 Y160.999 Z-0.753
X88.202 Y161.021 Z-0.82
X88.19 Y161.057 Z-0.88
X88.175 Y161.105 Z-0.931
X88.156 Y161.162 Z-0.969
X88.136 Y161.226 Z-0.992
X88.114 Y161.293 Z-1
G3 X87 Y162.102 I-1.114 J-0.362
G1 X83.217
G3 X82.897 Y161.783 I0 J-0.319
G1 Y154.217
G3 X83.217 Y153.898 I0.319 J0
G1 X90.783
G3 X91.103 Y154.217 I0 J0.319
G1 Y161.783
G3 X90.783 Y162.102 I-0.319 J0
G1 X87
G2 X85.643 Y163.008 I0 J1.471
G3 X84.285 Y163.913 I-1.357 J-0.566
G1 X81.088
Y152.087
X92.912
Y163.913
X84.285
X84.241 Y163.906
X84.201 Y163.888
X84.167 Y163.86
X84.142 Y163.823
X84.129 Y163.781
X84.127 Y163.737
X84.375 Y161.457
X84.382 Y161.42
X84.397 Y161.386
X84.42 Y161.357
X85.393 Y160.369
G3 X85.66 Y160.518 I0.113 J0.111
G1 X85.644 Y160.586 Z-1.008
X85.628 Y160.652 Z-1.031
X85.614 Y160.71 Z-1.069
X85.602 Y160.759 Z-1.12
X85.594 Y160.796 Z-1.18
X85.588 Y160.819 Z-1.247
X85.586 Y160.826 Z-1.317
Z-1.683
X85.584 Y160.834 Z-1.753
X85.579 Y160.857 Z-1.82
X85.57 Y160.894 Z-1.88
X85.558 Y160.943 Z-1.931
X85.544 Y161.001 Z-1.969
X85.529 Y161.066 Z-1.992
X85.512 Y161.135 Z-2
G3 X84.285 Y162.102 I-1.227 J-0.295
G1 X83.217
G3 X82.897 Y161.783 I0 J-0.319
G1 Y154.217
G3 X83.217 Y153.898 I0.319 J0
G1 X90.783
G3 X91.103 Y154.217 I0 J0.319
G1 Y161.783
G3 X90.783 Y162.102 I-0.319 J0
G1 X84.285
G2 X82.927 Y163.008 I0 J1.471
G3 X81.57 Y163.913 I-1.357 J-0.566
G1 X81.088
Y152.087
X92.912
Y163.913
X81.57
X81.539 Y163.905
X81.514 Y163.883
X81.503 Y163.853
X81.506 Y163.821
X81.525 Y163.794
X81.742 Y163.601
X85.903 Y160.988
X85.927 Y160.975
X85.953 Y160.967
X88.125 Y160.485
G3 X88.31 Y160.689 I0.034 J0.155
G1 X88.288 Y160.757 Z-2.008
X88.267 Y160.82 Z-2.031
X88.249 Y160.878 Z-2.069
X88.233 Y160.925 Z-2.12
X88.222 Y160.961 Z-2.18
X88.214 Y160.984 Z-2.247
X88.212 Y160.991 Z-2.318
Z-2.682
X88.209 Y160.999 Z-2.753
X88.202 Y161.021 Z-2.82
X88.19 Y161.057 Z-2.88
X88.175 Y161.105 Z-2.931
X88.156 Y161.162 Z-2.969
X88.136 Y161.226 Z-2.992
X88.114 Y161.293 Z-3
G3 X87 Y162.102 I-1.114 J-0.362
G1 X83.217
G3 X82.897 Y161.783 I0 J-0.319
G1 Y154.217
G3 X83.217 Y153.898 I0.319 J0
G1 X90.783
G3 X91.103 Y154.217 I0 J0.319
G1 Y161.783
G3 X90.783 Y162.102 I-0.319 J0
G1 X87
G2 X85.643 Y163.008 I0 J1.471
G3 X84.285 Y163.913 I-1.357 J-0.566
G1 X81.088
Y152.087
X92.912
Y163.913
X84.285
X84.241 Y163.906
X84.201 Y163.888
X84.167 Y163.86
X84.142 Y163.823
X84.129 Y163.781
X84.127 Y163.737
X84.375 Y161.457
X84.382 Y161.42
X84.397 Y161.386
X84.42 Y161.357
X85.393 Y160.369
G3 X85.66 Y160.518 I0.113 J0.111
G1 X85.644 Y160.586 Z-3.008
X85.628 Y160.652 Z-3.031
X85.614 Y160.71 Z-3.069
X85.602 Y160.759 Z-3.12
X85.594 Y160.796 Z-3.18
X85.588 Y160.819 Z-3.247
X85.586 Y160.826 Z-3.318
Z-3.682
X85.584 Y160.834 Z-3.753
X85.579 Y160.857 Z-3.82
X85.57 Y160.894 Z-3.88
X85.558 Y160.943 Z-3.931
X85.544 Y161.001 Z-3.969
X85.529 Y161.066 Z-3.992
X85.512 Y161.135 Z-4
G3 X84.285 Y162.102 I-1.227 J-0.295
G1 X83.217
G3 X82.897 Y161.783 I0 J-0.319
G1 Y154.217
G3 X83.217 Y153.898 I0.319 J0
G1 X90.783
G3 X91.103 Y154.217 I0 J0.319
G1 Y161.783
G3 X90.783 Y162.102 I-0.319 J0
G1 X84.285
G2 X82.927 Y163.008 I0 J1.471
G3 X81.57 Y163.913 I-1.357 J-0.566
G1 X81.088
Y152.087
X92.912
Y163.913
X81.57
X81.539 Y163.905
X81.514 Y163.883
X81.503 Y163.853
X81.506 Y163.821
X81.525 Y163.794
X81.742 Y163.601
X85.903 Y160.988
X85.927 Y160.975
X85.953 Y160.967
X88.125 Y160.485
G3 X88.31 Y160.689 I0.034 J0.155
G1 X88.288 Y160.757 Z-4.008
X88.267 Y160.82 Z-4.031
X88.249 Y160.878 Z-4.069
X88.233 Y160.925 Z-4.12
X88.222 Y160.961 Z-4.18
X88.214 Y160.984 Z-4.247
X88.212 Y160.991 Z-4.318
Z-4.682
X88.209 Y160.999 Z-4.753
X88.202 Y161.021 Z-4.82
X88.19 Y161.057 Z-4.88
X88.175 Y161.105 Z-4.931
X88.156 Y161.162 Z-4.969
X88.136 Y161.226 Z-4.992
X88.114 Y161.293 Z-5
G3 X87 Y162.102 I-1.114 J-0.362
G1 X83.217
G3 X82.897 Y161.783 I0 J-0.319
G1 Y154.217
G3 X83.217 Y153.898 I0.319 J0
G1 X90.783
G3 X91.103 Y154.217 I0 J0.319
G1 Y161.783
G3 X90.783 Y162.102 I-0.319 J0
G1 X87
G2 X85.643 Y163.008 I0 J1.471
G3 X84.285 Y163.913 I-1.357 J-0.566
G1 X81.088
Y152.087
X92.912
Y163.913
X84.285
X84.225 Y163.907 Z-4.988
X84.166 Y163.89 Z-4.976
X84.12 Y163.867 Z-4.941
X84.079 Y163.836 Z-4.907
X84.032 Y163.786 Z-4.804
X84.018 Y163.767 Z-4.683
G0 Z15
X85.788 Y105.009
Z5
G1 Z2 F3000
Z-0.683
X85.791 Y105.001 Z-0.753
X85.798 Y104.979 Z-0.82
X85.81 Y104.943 Z-0.88
X85.825 Y104.895 Z-0.931
X85.844 Y104.838 Z-0.969
X85.864 Y104.774 Z-0.992
X85.886 Y104.707 Z-1
G3 X87 Y103.897 I1.114 J0.362
G1 X90.783
G3 X91.103 Y104.217 I0 J0.319
G1 Y111.783
G3 X90.783 Y112.103 I-0.319 J0
G1 X83.217
G3 X82.897 Y111.783 I0 J-0.319
G1 Y104.217
G3 X83.217 Y103.897 I0.319 J0
G1 X87
G2 X88.357 Y102.993 I0 J-1.471
G3 X89.715 Y102.088 I1.357 J0.566
G1 X92.912
Y113.912
X81.088
Y102.088
X89.715
X89.759 Y102.094
X89.799 Y102.112
X89.833 Y102.14
X89.858 Y102.177
X89.871 Y102.219
X89.873 Y102.263
X89.625 Y104.543
X89.618 Y104.58
X89.603 Y104.614
X89.58 Y104.643
X88.607 Y105.631
G3 X88.34 Y105.482 I-0.113 J-0.111
G1 X88.356 Y105.414 Z-1.008
X88.372 Y105.348 Z-1.031
X88.386 Y105.29 Z-1.069
X88.398 Y105.241 Z-1.12
X88.406 Y105.204 Z-1.18
X88.412 Y105.181 Z-1.247
X88.414 Y105.174 Z-1.317
Z-1.683
X88.416 Y105.166 Z-1.753
X88.421 Y105.143 Z-1.82
X88.43 Y105.106 Z-1.88
X88.442 Y105.057 Z-1.931
X88.456 Y104.999 Z-1.969
X88.471 Y104.934 Z-1.992
X88.488 Y104.865 Z-2
G3 X89.715 Y103.897 I1.227 J0.295
G1 X90.783
G3 X91.103 Y104.217 I0 J0.319
G1 Y111.783
G3 X90.783 Y112.103 I-0.319 J0
G1 X83.217
G3 X82.897 Y111.783 I0 J-0.319
G1 Y104.217
G3 X83.217 Y103.897 I0.319 J0
G1 X89.715
G2 X91.073 Y102.993 I0 J-1.471
G3 X92.43 Y102.088 I1.357 J0.566
G1 X92.912
Y113.912
X81.088
Y102.088
X92.43
X92.461 Y102.095
X92.486 Y102.117
X92.497 Y102.147
X92.494 Y102.179
X92.475 Y102.206
X92.258 Y102.399
X88.097 Y105.012
X88.073 Y105.025
X88.047 Y105.033
X85.875 Y105.515
G3 X85.69 Y105.311 I-0.034 J-0.155
G1 X85.712 Y105.243 Z-2.008
X85.733 Y105.18 Z-2.031
X85.751 Y105.122 Z-2.069
X85.767 Y105.075 Z-2.12
X85.778 Y105.039 Z-2.18
X85.786 Y105.016 Z-2.247
X85.788 Y105.009 Z-2.318
Z-2.682
X85.791 Y105.001 Z-2.753
X85.798 Y104.979 Z-2.82
X85.81 Y104.943 Z-2.88
X85.825 Y104.895 Z-2.931
X85.844 Y104.838 Z-2.969
X85.864 Y104.774 Z-2.992
X85.886 Y104.707 Z-3
G3 X87 Y103.897 I1.114 J0.362
G1 X90.783
G3 X91.103 Y104.217 I0 J0.319
G1 Y111.783
G3 X90.783 Y112.103 I-0.319 J0
G1 X83.217
G3 X82.897 Y111.783 I0 J-0.319
G1 Y104.217
G3 X83.217 Y103.897 I0.319 J0
G1 X87
G2 X88.357 Y102.993 I0 J-1.471
G3 X89.715 Y102.088 I1.357 J0.566
G1 X92.912
Y113.912
X81.088
Y102.088
X89.715
X89.759 Y102.094
X89.799 Y102.112
X89.833 Y102.14
X89.858 Y102.177
X89.871 Y102.219
X89.873 Y102.263
X89.625 Y104.543
X89.618 Y104.58
X89.603 Y104.614
X89.58 Y104.643
X88.607 Y105.631
G3 X88.34 Y105.482 I-0.113 J-0.111
G1 X88.356 Y105.414 Z-3.008
X88.372 Y105.348 Z-3.031
X88.386 Y105.29 Z-3.069
X88.398 Y105.241 Z-3.12
X88.406 Y105.204 Z-3.18
X88.412 Y105.181 Z-3.247
X88.414 Y105.174 Z-3.318
Z-3.682
X88.416 Y105.166 Z-3.753
X88.421 Y105.143 Z-3.82
X88.43 Y105.106 Z-3.88
X88.442 Y105.057 Z-3.931
X88.456 Y104.999 Z-3.969
X88.471 Y104.934 Z-3.992
X88.488 Y104.865 Z-4
G3 X89.715 Y103.897 I1.227 J0.295
G1 X90.783
G3 X91.103 Y104.217 I0 J0.319
G1 Y111.783
G3 X90.783 Y112.103 I-0.319 J0
G1 X83.217
G3 X82.897 Y111.783 I0 J-0.319
G1 Y104.217
G3 X83.217 Y103.897 I0.319 J0
G1 X89.715
G2 X91.073 Y102.993 I0 J-1.471
G3 X92.43 Y102.088 I1.357 J0.566
G1 X92.912
Y113.912
X81.088
Y102.088
X92.43
X92.461 Y102.095
X92.486 Y102.117
X92.497 Y102.147
X92.494 Y102.179
X92.475 Y102.206
X92.258 Y102.399
X88.097 Y105.012
X88.073 Y105.025
X88.047 Y105.033
X85.875 Y105.515
G3 X85.69 Y105.311 I-0.034 J-0.155
G1 X85.712 Y105.243 Z-4.008
X85.733 Y105.18 Z-4.031
X85.751 Y105.122 Z-4.069
X85.767 Y105.075 Z-4.12
X85.778 Y105.039 Z-4.18
X85.786 Y105.016 Z-4.247
X85.788 Y105.009 Z-4.318
Z-4.682
X85.791 Y105.001 Z-4.753
X85.798 Y104.979 Z-4.82
X85.81 Y104.943 Z-4.88
X85.825 Y104.895 Z-4.931
X85.844 Y104.838 Z-4.969
X85.864 Y104.774 Z-4.992
X85.886 Y104.707 Z-5
G3 X87 Y103.897 I1.114 J0.362
G1 X90.783
G3 X91.103 Y104.217 I0 J0.319
G1 Y111.783
G3 X90.783 Y112.103 I-0.319 J0
G1 X83.217
G3 X82.897 Y111.783 I0 J-0.319
G1 Y104.217
G3 X83.217 Y103.897 I0.319 J0
G1 X87
G2 X88.357 Y102.993 I0 J-1.471
G3 X89.715 Y102.088 I1.357 J0.566
G1 X92.912
Y113.912
X81.088
Y102.088
X89.715
X89.775 Y102.093 Z-4.988
X89.834 Y102.11 Z-4.976
X89.88 Y102.133 Z-4.941
X89.921 Y102.164 Z-4.907
X89.968 Y102.214 Z-4.804
X89.982 Y102.233 Z-4.683
G0 Z15
X159.009 Y159.212
Z5
G1 Z2 F3000
Z-0.683
X159.001 Y159.209 Z-0.753
X158.979 Y159.202 Z-0.82
X158.943 Y159.19 Z-0.88
X158.895 Y159.175 Z-0.931
X158.838 Y159.156 Z-0.969
X158.774 Y159.136 Z-0.992
X158.707 Y159.114 Z-1
G3 X157.898 Y158 I0.362 J-1.114
G1 Y154.217
G3 X158.217 Y153.898 I0.319 J0
G1 X165.783
G3 X166.102 Y154.217 I0 J0.319
G1 Y161.783
G3 X165.783 Y162.102 I-0.319 J0
G1 X158.217
G3 X157.898 Y161.783 I0 J-0.319
G1 Y158
G2 X156.992 Y156.643 I-1.471 J0
G3 X156.087 Y155.285 I0.566 J-1.357
G1 Y152.087
X167.913
Y163.913
X156.087
Y155.285
X156.094 Y155.241
X156.112 Y155.201
X156.14 Y155.167
X156.177 Y155.142
X156.219 Y155.129
X156.263 Y155.127
X158.543 Y155.375
X158.58 Y155.382
X158.614 Y155.397
X158.643 Y155.42
X159.631 Y156.393
G3 X159.482 Y156.66 I-0.111 J0.113
G1 X159.414 Y156.644 Z-1.008
X159.348 Y156.628 Z-1.031
X159.29 Y156.614 Z-1.069
X159.241 Y156.603 Z-1.12
X159.204 Y156.594 Z-1.18
X159.181 Y156.588 Z-1.247
X159.174 Y156.586 Z-1.317
Z-1.683
X159.166 Y156.584 Z-1.753
X159.143 Y156.579 Z-1.82
X159.106 Y156.57 Z-1.88
X159.057 Y156.558 Z-1.931
X158.999 Y156.544 Z-1.969
X158.934 Y156.529 Z-1.992
X158.865 Y156.512 Z-2
G3 X157.898 Y155.285 I0.295 J-1.227
G1 Y154.217
G3 X158.217 Y153.898 I0.319 J0
G1 X165.783
G3 X166.102 Y154.217 I0 J0.319
G1 Y161.783
G3 X165.783 Y162.102 I-0.319 J0
G1 X158.217
G3 X157.898 Y161.783 I0 J-0.319
G1 Y155.285
G2 X156.992 Y153.928 I-1.471 J0
G3 X156.087 Y152.57 I0.566 J-1.357
G1 Y152.087
X167.913
Y163.913
X156.087
Y152.57
X156.095 Y152.539
X156.117 Y152.514
X156.147 Y152.503
X156.179 Y152.506
X156.206 Y152.525
X156.399 Y152.742
X159.012 Y156.903
X159.025 Y156.927
X159.033 Y156.953
X159.515 Y159.125
G3 X159.311 Y159.31 I-0.155 J0.034
G1 X159.243 Y159.288 Z-2.008
X159.18 Y159.267 Z-2.031
X159.122 Y159.249 Z-2.069
X159.075 Y159.233 Z-2.12
X159.039 Y159.222 Z-2.18
X159.016 Y159.214 Z-2.247
X159.009 Y159.212 Z-2.318
Z-2.682
X159.001 Y159.209 Z-2.753
X158.979 Y159.202 Z-2.82
X158.943 Y159.19 Z-2.88
X158.895 Y159.175 Z-2.931
X158.838 Y159.156 Z-2.969
X158.774 Y159.136 Z-2.992
X158.707 Y159.114 Z-3
G3 X157.898 Y158 I0.362 J-1.114
G1 Y154.217
G3 X158.217 Y153.898 I0.319 J0
G1 X165.783
G3 X166.102 Y154.217 I0 J0.319
G1 Y161.783
G3 X165.783 Y162.102 I-0.319 J0
G1 X158.217
G3 X157.898 Y161.783 I0 J-0.319
G1 Y158
G2 X156.992 Y156.643 I-1.471 J0
G3 X156.087 Y155.285 I0.566 J-1.357
G1 Y152.087
X167.913
Y163.913
X156.087
Y155.285
X156.094 Y155.241
X156.112 Y155.201
X156.14 Y155.167
X156.177 Y155.142
X156.219 Y155.129
X156.263 Y155.127
X158.543 Y155.375
X158.58 Y155.382
X158.614 Y155.397
X158.643 Y155.42
X159.631 Y156.393
G3 X159.482 Y156.66 I-0.111 J0.113
G1 X159.414 Y156.644 Z-3.008
X159.348 Y156.628 Z-3.031
X159.29 Y156.614 Z-3.069
X159.241 Y156.603 Z-3.12
X159.204 Y156.594 Z-3.18
X159.181 Y156.588 Z-3.247
X159.174 Y156.586 Z-3.318
Z-3.682
X159.166 Y156.584 Z-3.753
X159.143 Y156.579 Z-3.82
X159.106 Y156.57 Z-3.88
X159.057 Y156.558 Z-3.931
X158.999 Y156.544 Z-3.969
X158.934 Y156.529 Z-3.992
X158.865 Y156.512 Z-4
G3 X157.898 Y155.285 I0.295 J-1.227
G1 Y154.217
G3 X158.217 Y153.898 I0.319 J0
G1 X165.783
G3 X166.102 Y154.217 I0 J0.319
G1 Y161.783
G3 X165.783 Y162.102 I-0.319 J0
G1 X158.217
G3 X157.898 Y161.783 I0 J-0.319
G1 Y155.285
G2 X156.992 Y153.928 I-1.471 J0
G3 X156.087 Y152.57 I0.566 J-1.357
G1 Y152.087
X167.913
Y163.913
X156.087
Y152.57
X156.095 Y152.539
X156.117 Y152.514
X156.147 Y152.503
X156.179 Y152.506
X156.206 Y152.525
X156.399 Y152.742
X159.012 Y156.903
X159.025 Y156.927
X159.033 Y156.953
X159.515 Y159.125
G3 X159.311 Y159.31 I-0.155 J0.034
G1 X159.243 Y159.288 Z-4.008
X159.18 Y159.267 Z-4.031
X159.122 Y159.249 Z-4.069
X159.075 Y159.233 Z-4.12
X159.039 Y159.222 Z-4.18
X159.016 Y159.214 Z-4.247
X159.009 Y159.212 Z-4.318
Z-4.682
X159.001 Y159.209 Z-4.753
X158.979 Y159.202 Z-4.82
X158.943 Y159.19 Z-4.88
X158.895 Y159.175 Z-4.931
X158.838 Y159.156 Z-4.969
X158.774 Y159.136 Z-4.992
X158.707 Y159.114 Z-5
G3 X157.898 Y158 I0.362 J-1.114
G1 Y154.217
G3 X158.217 Y153.898 I0.319 J0
G1 X165.783
G3 X166.102 Y154.217 I0 J0.319
G1 Y161.783
G3 X165.783 Y162.102 I-0.319 J0
G1 X158.217
G3 X157.898 Y161.783 I0 J-0.319
G1 Y158
G2 X156.992 Y156.643 I-1.471 J0
G3 X156.087 Y155.285 I0.566 J-1.357
G1 Y152.087
X167.913
Y163.913
X156.087
Y155.285
X156.093 Y155.225 Z-4.988
X156.11 Y155.166 Z-4.976
X156.133 Y155.12 Z-4.941
X156.164 Y155.079 Z-4.907
X156.214 Y155.032 Z-4.804
X156.233 Y155.018 Z-4.683
G0 Z15
X85.788 Y55.009
Z5
G1 Z2 F3000
Z-0.683
X85.791 Y55.001 Z-0.753
X85.798 Y54.979 Z-0.82
X85.81 Y54.943 Z-0.88
X85.825 Y54.895 Z-0.931
X85.844 Y54.838 Z-0.969
X85.864 Y54.774 Z-0.992
X85.886 Y54.707 Z-1
G3 X87 Y53.897 I1.114 J0.362
G1 X90.783
G3 X91.103 Y54.217 I0 J0.319
G1 Y61.783
G3 X90.783 Y62.103 I-0.319 J0
G1 X83.217
G3 X82.897 Y61.783 I0 J-0.319
G1 Y54.217
G3 X83.217 Y53.897 I0.319 J0
G1 X87
G2 X88.357 Y52.993 I0 J-1.471
G3 X89.715 Y52.088 I1.357 J0.566
G1 X92.912
Y63.912
X81.088
Y52.088
X89.715
X89.759 Y52.094
X89.799 Y52.112
X89.833 Y52.14
X89.858 Y52.177
X89.871 Y52.219
X89.873 Y52.263
X89.625 Y54.543
X89.618 Y54.58
X89.603 Y54.614
X89.58 Y54.643
X88.607 Y55.631
G3 X88.34 Y55.482 I-0.113 J-0.111
G1 X88.356 Y55.414 Z-1.008
X88.372 Y55.348 Z-1.031
X88.386 Y55.29 Z-1.069
X88.398 Y55.241 Z-1.12
X88.406 Y55.204 Z-1.18
X88.412 Y55.181 Z-1.247
X88.414 Y55.174 Z-1.317
Z-1.683
X88.416 Y55.166 Z-1.753
X88.421 Y55.143 Z-1.82
X88.43 Y55.106 Z-1.88
X88.442 Y55.057 Z-1.931
X88.456 Y54.999 Z-1.969
X88.471 Y54.934 Z-1.992
X88.488 Y54.865 Z-2
G3 X89.715 Y53.897 I1.227 J0.295
G1 X90.783
G3 X91.103 Y54.217 I0 J0.319
G1 Y61.783
G3 X90.783 Y62.103 I-0.319 J0
G1 X83.217
G3 X82.897 Y61.783 I0 J-0.319
G1 Y54.217
G3 X83.217 Y53.897 I0.319 J0
G1 X89.715
G2 X91.073 Y52.993 I0 J-1.471
G3 X92.43 Y52.088 I1.357 J0.566
G1 X92.912
Y63.912
X81.088
Y52.088
X92.43
X92.461 Y52.095
X92.486 Y52.117
X92.497 Y52.147
X92.494 Y52.179
X92.475 Y52.206
X92.258 Y52.399
X88.097 Y55.012
X88.073 Y55.025
X88.047 Y55.033
X85.875 Y55.515
G3 X85.69 Y55.311 I-0.034 J-0.155
G1 X85.712 Y55.243 Z-2.008
X85.733 Y55.18 Z-2.031
X85.751 Y55.122 Z-2.069
X85.767 Y55.075 Z-2.12
X85.778 Y55.039 Z-2.18
X85.786 Y55.016 Z-2.247
X85.788 Y55.009 Z-2.318
Z-2.682
X85.791 Y55.001 Z-2.753
X85.798 Y54.979 Z-2.82
X85.81 Y54.943 Z-2.88
X85.825 Y54.895 Z-2.931
X85.844 Y54.838 Z-2.969
X85.864 Y54.774 Z-2.992
X85.886 Y54.707 Z-3
G3 X87 Y53.897 I1.114 J0.362
G1 X90.783
G3 X91.103 Y54.217 I0 J0.319
G1 Y61.783
G3 X90.783 Y62.103 I-0.319 J0
G1 X83.217
G3 X82.897 Y61.783 I0 J-0.319
G1 Y54.217
G3 X83.217 Y53.897 I0.319 J0
G1 X87
G2 X88.357 Y52.993 I0 J-1.471
G3 X89.715 Y52.088 I1.357 J0.566
G1 X92.912
Y63.912
X81.088
Y52.088
X89.715
X89.759 Y52.094
X89.799 Y52.112
X89.833 Y52.14
X89.858 Y52.177
X89.871 Y52.219
X89.873 Y52.263
X89.625 Y54.543
X89.618 Y54.58
X89.603 Y54.614
X89.58 Y54.643
X88.607 Y55.631
G3 X88.34 Y55.482 I-0.113 J-0.111
G1 X88.356 Y55.414 Z-3.008
X88.372 Y55.348 Z-3.031
X88.386 Y55.29 Z-3.069
X88.398 Y55.241 Z-3.12
X88.406 Y55.204 Z-3.18
X88.412 Y55.181 Z-3.247
X88.414 Y55.174 Z-3.318
Z-3.682
X88.416 Y55.166 Z-3.753
X88.421 Y55.143 Z-3.82
X88.43 Y55.106 Z-3.88
X88.442 Y55.057 Z-3.931
X88.456 Y54.999 Z-3.969
X88.471 Y54.934 Z-3.992
X88.488 Y54.865 Z-4
G3 X89.715 Y53.897 I1.227 J0.295
G1 X90.783
G3 X91.103 Y54.217 I0 J0.319
G1 Y61.783
G3 X90.783 Y62.103 I-0.319 J0
G1 X83.217
G3 X82.897 Y61.783 I0 J-0.319
G1 Y54.217
G3 X83.217 Y53.897 I0.319 J0
G1 X89.715
G2 X91.073 Y52.993 I0 J-1.471
G3 X92.43 Y52.088 I1.357 J0.566
G1 X92.912
Y63.912
X81.088
Y52.088
X92.43
X92.461 Y52.095
X92.486 Y52.117
X92.497 Y52.147
X92.494 Y52.179
X92.475 Y52.206
X92.258 Y52.399
X88.097 Y55.012
X88.073 Y55.025
X88.047 Y55.033
X85.875 Y55.515
G3 X85.69 Y55.311 I-0.034 J-0.155
G1 X85.712 Y55.243 Z-4.008
X85.733 Y55.18 Z-4.031
X85.751 Y55.122 Z-4.069
X85.767 Y55.075 Z-4.12
X85.778 Y55.039 Z-4.18
X85.786 Y55.016 Z-4.247
X85.788 Y55.009 Z-4.318
Z-4.682
X85.791 Y55.001 Z-4.753
X85.798 Y54.979 Z-4.82
X85.81 Y54.943 Z-4.88
X85.825 Y54.895 Z-4.931
X85.844 Y54.838 Z-4.969
X85.864 Y54.774 Z-4.992
X85.886 Y54.707 Z-5
G3 X87 Y53.897 I1.114 J0.362
G1 X90.783
G3 X91.103 Y54.217 I0 J0.319
G1 Y61.783
G3 X90.783 Y62.103 I-0.319 J0
G1 X83.217
G3 X82.897 Y61.783 I0 J-0.319
G1 Y54.217
G3 X83.217 Y53.897 I0.319 J0
G1 X87
G2 X88.357 Y52.993 I0 J-1.471
G3 X89.715 Y52.088 I1.357 J0.566
G1 X92.912
Y63.912
X81.088
Y52.088
X89.715
X89.775 Y52.093 Z-4.988
X89.834 Y52.11 Z-4.976
X89.88 Y52.133 Z-4.941
X89.921 Y52.164 Z-4.907
X89.968 Y52.214 Z-4.804
X89.982 Y52.233 Z-4.683
G0 Z15
X159.009 Y59.212
Z5
G1 Z2 F3000
Z-0.683
X159.001 Y59.209 Z-0.753
X158.979 Y59.202 Z-0.82
X158.943 Y59.19 Z-0.88
X158.895 Y59.175 Z-0.931
X158.838 Y59.156 Z-0.969
X158.774 Y59.136 Z-0.992
X158.707 Y59.114 Z-1
G3 X157.898 Y58 I0.362 J-1.114
G1 Y54.217
G3 X158.217 Y53.897 I0.319 J0
G1 X165.783
G3 X166.102 Y54.217 I0 J0.319
G1 Y61.783
G3 X165.783 Y62.103 I-0.319 J0
G1 X158.217
G3 X157.898 Y61.783 I0 J-0.319
G1 Y58
G2 X156.992 Y56.643 I-1.471 J0
G3 X156.087 Y55.285 I0.566 J-1.358
G1 Y52.088
X167.913
Y63.912
X156.087
Y55.285
X156.094 Y55.241
X156.112 Y55.201
X156.14 Y55.167
X156.177 Y55.142
X156.219 Y55.129
X156.263 Y55.127
X158.543 Y55.375
X158.58 Y55.382
X158.614 Y55.397
X158.643 Y55.42
X159.631 Y56.393
G3 X159.482 Y56.66 I-0.111 J0.113
G1 X159.414 Y56.644 Z-1.008
X159.348 Y56.628 Z-1.031
X159.29 Y56.614 Z-1.069
X159.241 Y56.603 Z-1.12
X159.204 Y56.594 Z-1.18
X159.181 Y56.588 Z-1.247
X159.174 Y56.586 Z-1.317
Z-1.683
X159.166 Y56.584 Z-1.753
X159.143 Y56.579 Z-1.82
X159.106 Y56.57 Z-1.88
X159.057 Y56.558 Z-1.931
X158.999 Y56.544 Z-1.969
X158.934 Y56.529 Z-1.992
X158.865 Y56.512 Z-2
G3 X157.898 Y55.285 I0.295 J-1.227
G1 Y54.217
G3 X158.217 Y53.897 I0.319 J0
G1 X165.783
G3 X166.102 Y54.217 I0 J0.319
G1 Y61.783
G3 X165.783 Y62.103 I-0.319 J0
G1 X158.217
G3 X157.898 Y61.783 I0 J-0.319
G1 Y55.285
G2 X156.992 Y53.928 I-1.471 J0
G3 X156.087 Y52.57 I0.566 J-1.358
G1 Y52.088
X167.913
Y63.912
X156.087
Y52.57
X156.095 Y52.539
X156.117 Y52.514
X156.147 Y52.503
X156.179 Y52.506
X156.206 Y52.525
X156.399 Y52.742
X159.012 Y56.903
X159.025 Y56.927
X159.033 Y56.953
X159.515 Y59.125
G3 X159.311 Y59.31 I-0.155 J0.034
G1 X159.243 Y59.288 Z-2.008
X159.18 Y59.267 Z-2.031
X159.122 Y59.249 Z-2.069
X159.075 Y59.233 Z-2.12
X159.039 Y59.222 Z-2.18
X159.016 Y59.214 Z-2.247
X159.009 Y59.212 Z-2.318
Z-2.682
X159.001 Y59.209 Z-2.753
X158.979 Y59.202 Z-2.82
X158.943 Y59.19 Z-2.88
X158.895 Y59.175 Z-2.931
X158.838 Y59.156 Z-2.969
X158.774 Y59.136 Z-2.992
X158.707 Y59.114 Z-3
G3 X157.898 Y58 I0.362 J-1.114
G1 Y54.217
G3 X158.217 Y53.897 I0.319 J0
G1 X165.783
G3 X166.102 Y54.217 I0 J0.319
G1 Y61.783
G3 X165.783 Y62.103 I-0.319 J0
G1 X158.217
G3 X157.898 Y61.783 I0 J-0.319
G1 Y58
G2 X156.992 Y56.643 I-1.471 J0
G3 X156.087 Y55.285 I0.566 J-1.358
G1 Y52.088
X167.913
Y63.912
X156.087
Y55.285
X156.094 Y55.241
X156.112 Y55.201
X156.14 Y55.167
X156.177 Y55.142
X156.219 Y55.129
X156.263 Y55.127
X158.543 Y55.375
X158.58 Y55.382
X158.614 Y55.397
X158.643 Y55.42
X159.631 Y56.393
G3 X159.482 Y56.66 I-0.111 J0.113
G1 X159.414 Y56.644 Z-3.008
X159.348 Y56.628 Z-3.031
X159.29 Y56.614 Z-3.069
X159.241 Y56.603 Z-3.12
X159.204 Y56.594 Z-3.18
X159.181 Y56.588 Z-3.247
X159.174 Y56.586 Z-3.318
Z-3.682
X159.166 Y56.584 Z-3.753
X159.143 Y56.579 Z-3.82
X159.106 Y56.57 Z-3.88
X159.057 Y56.558 Z-3.931
X158.999 Y56.544 Z-3.969
X158.934 Y56.529 Z-3.992
X158.865 Y56.512 Z-4
G3 X157.898 Y55.285 I0.295 J-1.227
G1 Y54.217
G3 X158.217 Y53.897 I0.319 J0
G1 X165.783
G3 X166.102 Y54.217 I0 J0.319
G1 Y61.783
G3 X165.783 Y62.103 I-0.319 J0
G1 X158.217
G3 X157.898 Y61.783 I0 J-0.319
G1 Y55.285
G2 X156.992 Y53.928 I-1.471 J0
G3 X156.087 Y52.57 I0.566 J-1.358
G1 Y52.088
X167.913
Y63.912
X156.087
Y52.57
X156.095 Y52.539
X156.117 Y52.514
X156.147 Y52.503
X156.179 Y52.506
X156.206 Y52.525
X156.399 Y52.742
X159.012 Y56.903
X159.025 Y56.927
X159.033 Y56.953
X159.515 Y59.125
G3 X159.311 Y59.31 I-0.155 J0.034
G1 X159.243 Y59.288 Z-4.008
X159.18 Y59.267 Z-4.031
X159.122 Y59.249 Z-4.069
X159.075 Y59.233 Z-4.12
X159.039 Y59.222 Z-4.18
X159.016 Y59.214 Z-4.247
X159.009 Y59.212 Z-4.318
Z-4.682
X159.001 Y59.209 Z-4.753
X158.979 Y59.202 Z-4.82
X158.943 Y59.19 Z-4.88
X158.895 Y59.175 Z-4.931
X158.838 Y59.156 Z-4.969
X158.774 Y59.136 Z-4.992
X158.707 Y59.114 Z-5
G3 X157.898 Y58 I0.362 J-1.114
G1 Y54.217
G3 X158.217 Y53.897 I0.319 J0
G1 X165.783
G3 X166.102 Y54.217 I0 J0.319
G1 Y61.783
G3 X165.783 Y62.103 I-0.319 J0
G1 X158.217
G3 X157.898 Y61.783 I0 J-0.319
G1 Y58
G2 X156.992 Y56.643 I-1.471 J0
G3 X156.087 Y55.285 I0.566 J-1.358
G1 Y52.088
X167.913
Y63.912
X156.087
Y55.285
X156.093 Y55.225 Z-4.988
X156.11 Y55.166 Z-4.976
X156.133 Y55.12 Z-4.941
X156.164 Y55.079 Z-4.907
X156.214 Y55.032 Z-4.804
X156.233 Y55.018 Z-4.683
G0 Z15
X159.009 Y109.212
Z5
G1 Z2 F3000
Z-0.683
X159.001 Y109.209 Z-0.753
X158.979 Y109.202 Z-0.82
X158.943 Y109.19 Z-0.88
X158.895 Y109.175 Z-0.931
X158.838 Y109.156 Z-0.969
X158.774 Y109.136 Z-0.992
X158.707 Y109.114 Z-1
G3 X157.898 Y108 I0.362 J-1.114
G1 Y104.217
G3 X158.217 Y103.897 I0.319 J0
G1 X165.783
G3 X166.102 Y104.217 I0 J0.319
G1 Y111.783
G3 X165.783 Y112.103 I-0.319 J0
G1 X158.217
G3 X157.898 Y111.783 I0 J-0.319
G1 Y108
G2 X156.992 Y106.643 I-1.471 J0
G3 X156.087 Y105.285 I0.566 J-1.357
G1 Y102.088
X167.913
Y113.912
X156.087
Y105.285
X156.094 Y105.241
X156.112 Y105.201
X156.14 Y105.167
X156.177 Y105.142
X156.219 Y105.129
X156.263 Y105.127
X158.543 Y105.375
X158.58 Y105.382
X158.614 Y105.397
X158.643 Y105.42
X159.631 Y106.393
G3 X159.482 Y106.66 I-0.111 J0.113
G1 X159.414 Y106.644 Z-1.008
X159.348 Y106.628 Z-1.031
X159.29 Y106.614 Z-1.069
X159.241 Y106.602 Z-1.12
X159.204 Y106.594 Z-1.18
X159.181 Y106.588 Z-1.247
X159.174 Y106.586 Z-1.317
Z-1.683
X159.166 Y106.584 Z-1.753
X159.143 Y106.579 Z-1.82
X159.106 Y106.57 Z-1.88
X159.057 Y106.558 Z-1.931
X158.999 Y106.544 Z-1.969
X158.934 Y106.529 Z-1.992
X158.865 Y106.512 Z-2
G3 X157.898 Y105.285 I0.295 J-1.227
G1 Y104.217
G3 X158.217 Y103.897 I0.319 J0
G1 X165.783
G3 X166.102 Y104.217 I0 J0.319
G1 Y111.783
G3 X165.783 Y112.103 I-0.319 J0
G1 X158.217
G3 X157.898 Y111.783 I0 J-0.319
G1 Y105.285
G2 X156.992 Y103.927 I-1.471 J0
G3 X156.087 Y102.57 I0.566 J-1.357
G1 Y102.088
X167.913
Y113.912
X156.087
Y102.57
X156.095 Y102.539
X156.117 Y102.514
X156.147 Y102.503
X156.179 Y102.506
X156.206 Y102.525
X156.399 Y102.742
X159.012 Y106.903
X159.025 Y106.927
X159.033 Y106.953
X159.515 Y109.125
G3 X159.311 Y109.31 I-0.155 J0.034
G1 X159.243 Y109.288 Z-2.008
X159.18 Y109.267 Z-2.031
X159.122 Y109.249 Z-2.069
X159.075 Y109.233 Z-2.12
X159.039 Y109.222 Z-2.18
X159.016 Y109.214 Z-2.247
X159.009 Y109.212 Z-2.318
Z-2.682
X159.001 Y109.209 Z-2.753
X158.979 Y109.202 Z-2.82
X158.943 Y109.19 Z-2.88
X158.895 Y109.175 Z-2.931
X158.838 Y109.156 Z-2.969
X158.774 Y109.136 Z-2.992
X158.707 Y109.114 Z-3
G3 X157.898 Y108 I0.362 J-1.114
G1 Y104.217
G3 X158.217 Y103.897 I0.319 J0
G1 X165.783
G3 X166.102 Y104.217 I0 J0.319
G1 Y111.783
G3 X165.783 Y112.103 I-0.319 J0
G1 X158.217
G3 X157.898 Y111.783 I0 J-0.319
G1 Y108
G2 X156.992 Y106.643 I-1.471 J0
G3 X156.087 Y105.285 I0.566 J-1.357
G1 Y102.088
X167.913
Y113.912
X156.087
Y105.285
X156.094 Y105.241
X156.112 Y105.201
X156.14 Y105.167
X156.177 Y105.142
X156.219 Y105.129
X156.263 Y105.127
X158.543 Y105.375
X158.58 Y105.382
X158.614 Y105.397
X158.643 Y105.42
X159.631 Y106.393
G3 X159.482 Y106.66 I-0.111 J0.113
G1 X159.414 Y106.644 Z-3.008
X159.348 Y106.628 Z-3.031
X159.29 Y106.614 Z-3.069
X159.241 Y106.602 Z-3.12
X159.204 Y106.594 Z-3.18
X159.181 Y106.588 Z-3.247
X159.174 Y106.586 Z-3.318
Z-3.682
X159.166 Y106.584 Z-3.753
X159.143 Y106.579 Z-3.82
X159.106 Y106.57 Z-3.88
X159.057 Y106.558 Z-3.931
X158.999 Y106.544 Z-3.969
X158.934 Y106.529 Z-3.992
X158.865 Y106.512 Z-4
G3 X157.898 Y105.285 I0.295 J-1.227
G1 Y104.217
G3 X158.217 Y103.897 I0.319 J0
G1 X165.783
G3 X166.102 Y104.217 I0 J0.319
G1 Y111.783
G3 X165.783 Y112.103 I-0.319 J0
G1 X158.217
G3 X157.898 Y111.783 I0 J-0.319
G1 Y105.285
G2 X156.992 Y103.927 I-1.471 J0
G3 X156.087 Y102.57 I0.566 J-1.357
G1 Y102.088
X167.913
Y113.912
X156.087
Y102.57
X156.095 Y102.539
X156.117 Y102.514
X156.147 Y102.503
X156.179 Y102.506
X156.206 Y102.525
X156.399 Y102.742
X159.012 Y106.903
X159.025 Y106.927
X159.033 Y106.953
X159.515 Y109.125
G3 X159.311 Y109.31 I-0.155 J0.034
G1 X159.243 Y109.288 Z-4.008
X159.18 Y109.267 Z-4.031
X159.122 Y109.249 Z-4.069
X159.075 Y109.233 Z-4.12
X159.039 Y109.222 Z-4.18
X159.016 Y109.214 Z-4.247
X159.009 Y109.212 Z-4.318
Z-4.682
X159.001 Y109.209 Z-4.753
X158.979 Y109.202 Z-4.82
X158.943 Y109.19 Z-4.88
X158.895 Y109.175 Z-4.931
X158.838 Y109.156 Z-4.969
X158.774 Y109.136 Z-4.992
X158.707 Y109.114 Z-5
G3 X157.898 Y108 I0.362 J-1.114
G1 Y104.217
G3 X158.217 Y103.897 I0.319 J0
G1 X165.783
G3 X166.102 Y104.217 I0 J0.319
G1 Y111.783
G3 X165.783 Y112.103 I-0.319 J0
G1 X158.217
G3 X157.898 Y111.783 I0 J-0.319
G1 Y108
G2 X156.992 Y106.643 I-1.471 J0
G3 X156.087 Y105.285 I0.566 J-1.357
G1 Y102.088
X167.913
Y113.912
X156.087
Y105.285
X156.093 Y105.225 Z-4.988
X156.11 Y105.166 Z-4.976
X156.133 Y105.12 Z-4.941
X156.164 Y105.079 Z-4.907
X156.214 Y105.032 Z-4.804
X156.233 Y105.018 Z-4.683
G0 Z15
X235.788 Y55.009
Z5
G1 Z2 F3000
Z-0.683
X235.791 Y55.001 Z-0.753
X235.798 Y54.979 Z-0.82
X235.81 Y54.943 Z-0.88
X235.825 Y54.895 Z-0.931
X235.844 Y54.838 Z-0.969
X235.864 Y54.774 Z-0.992
X235.886 Y54.707 Z-1
G3 X237 Y53.897 I1.114 J0.362
G1 X240.783
G3 X241.102 Y54.217 I0 J0.319
G1 Y61.783
G3 X240.783 Y62.103 I-0.319 J0
G1 X233.217
G3 X232.898 Y61.783 I0 J-0.319
G1 Y54.217
G3 X233.217 Y53.897 I0.319 J0
G1 X237
G2 X238.357 Y52.993 I0 J-1.471
G3 X239.715 Y52.088 I1.357 J0.566
G1 X242.913
Y63.912
X231.087
Y52.088
X239.715
X239.759 Y52.094
X239.799 Y52.112
X239.833 Y52.14
X239.858 Y52.177
X239.871 Y52.219
X239.873 Y52.263
X239.625 Y54.543
X239.618 Y54.58
X239.603 Y54.614
X239.58 Y54.643
X238.607 Y55.631
G3 X238.34 Y55.482 I-0.113 J-0.111
G1 X238.356 Y55.414 Z-1.008
X238.372 Y55.348 Z-1.031
X238.386 Y55.29 Z-1.069
X238.397 Y55.241 Z-1.12
X238.406 Y55.204 Z-1.18
X238.412 Y55.181 Z-1.247
X238.414 Y55.174 Z-1.317
Z-1.683
X238.416 Y55.166 Z-1.753
X238.421 Y55.143 Z-1.82
X238.43 Y55.106 Z-1.88
X238.442 Y55.057 Z-1.931
X238.456 Y54.999 Z-1.969
X238.471 Y54.934 Z-1.992
X238.488 Y54.865 Z-2
G3 X239.715 Y53.897 I1.227 J0.295
G1 X240.783
G3 X241.102 Y54.217 I0 J0.319
G1 Y61.783
G3 X240.783 Y62.103 I-0.319 J0
G1 X233.217
G3 X232.898 Y61.783 I0 J-0.319
G1 Y54.217
G3 X233.217 Y53.897 I0.319 J0
G1 X239.715
G2 X241.072 Y52.993 I0 J-1.471
G3 X242.43 Y52.088 I1.357 J0.566
G1 X242.913
Y63.912
X231.087
Y52.088
X242.43
X242.461 Y52.095
X242.486 Y52.117
X242.497 Y52.147
X242.494 Y52.179
X242.475 Y52.206
X242.258 Y52.399
X238.097 Y55.012
X238.073 Y55.025
X238.047 Y55.033
X235.875 Y55.515
G3 X235.69 Y55.311 I-0.034 J-0.155
G1 X235.712 Y55.243 Z-2.008
X235.733 Y55.18 Z-2.031
X235.751 Y55.122 Z-2.069
X235.767 Y55.075 Z-2.12
X235.778 Y55.039 Z-2.18
X235.786 Y55.016 Z-2.247
X235.788 Y55.009 Z-2.318
Z-2.682
X235.791 Y55.001 Z-2.753
X235.798 Y54.979 Z-2.82
X235.81 Y54.943 Z-2.88
X235.825 Y54.895 Z-2.931
X235.844 Y54.838 Z-2.969
X235.864 Y54.774 Z-2.992
X235.886 Y54.707 Z-3
G3 X237 Y53.897 I1.114 J0.362
G1 X240.783
G3 X241.102 Y54.217 I0 J0.319
G1 Y61.783
G3 X240.783 Y62.103 I-0.319 J0
G1 X233.217
G3 X232.898 Y61.783 I0 J-0.319
G1 Y54.217
G3 X233.217 Y53.897 I0.319 J0
G1 X237
G2 X238.357 Y52.993 I0 J-1.471
G3 X239.715 Y52.088 I1.357 J0.566
G1 X242.913
Y63.912
X231.087
Y52.088
X239.715
X239.759 Y52.094
X239.799 Y52.112
X239.833 Y52.14
X239.858 Y52.177
X239.871 Y52.219
X239.873 Y52.263
X239.625 Y54.543
X239.618 Y54.58
X239.603 Y54.614
X239.58 Y54.643
X238.607 Y55.631
G3 X238.34 Y55.482 I-0.113 J-0.111
G1 X238.356 Y55.414 Z-3.008
X238.372 Y55.348 Z-3.031
X238.386 Y55.29 Z-3.069
X238.397 Y55.241 Z-3.12
X238.406 Y55.204 Z-3.18
X238.412 Y55.181 Z-3.247
X238.414 Y55.174 Z-3.318
Z-3.682
X238.416 Y55.166 Z-3.753
X238.421 Y55.143 Z-3.82
X238.43 Y55.106 Z-3.88
X238.442 Y55.057 Z-3.931
X238.456 Y54.999 Z-3.969
X238.471 Y54.934 Z-3.992
X238.488 Y54.865 Z-4
G3 X239.715 Y53.897 I1.227 J0.295
G1 X240.783
G3 X241.102 Y54.217 I0 J0.319
G1 Y61.783
G3 X240.783 Y62.103 I-0.319 J0
G1 X233.217
G3 X232.898 Y61.783 I0 J-0.319
G1 Y54.217
G3 X233.217 Y53.897 I0.319 J0
G1 X239.715
G2 X241.072 Y52.993 I0 J-1.471
G3 X242.43 Y52.088 I1.357 J0.566
G1 X242.913
Y63.912
X231.087
Y52.088
X242.43
X242.461 Y52.095
X242.486 Y52.117
X242.497 Y52.147
X242.494 Y52.179
X242.475 Y52.206
X242.258 Y52.399
X238.097 Y55.012
X238.073 Y55.025
X238.047 Y55.033
X235.875 Y55.515
G3 X235.69 Y55.311 I-0.034 J-0.155
G1 X235.712 Y55.243 Z-4.008
X235.733 Y55.18 Z-4.031
X235.751 Y55.122 Z-4.069
X235.767 Y55.075 Z-4.12
X235.778 Y55.039 Z-4.18
X235.786 Y55.016 Z-4.247
X235.788 Y55.009 Z-4.318
Z-4.682
X235.791 Y55.001 Z-4.753
X235.798 Y54.979 Z-4.82
X235.81 Y54.943 Z-4.88
X235.825 Y54.895 Z-4.931
X235.844 Y54.838 Z-4.969
X235.864 Y54.774 Z-4.992
X235.886 Y54.707 Z-5
G3 X237 Y53.897 I1.114 J0.362
G1 X240.783
G3 X241.102 Y54.217 I0 J0.319
G1 Y61.783
G3 X240.783 Y62.103 I-0.319 J0
G1 X233.217
G3 X232.898 Y61.783 I0 J-0.319
G1 Y54.217
G3 X233.217 Y53.897 I0.319 J0
G1 X237
G2 X238.357 Y52.993 I0 J-1.471
G3 X239.715 Y52.088 I1.357 J0.566
G1 X242.913
Y63.912
X231.087
Y52.088
X239.715
X239.775 Y52.093 Z-4.988
X239.834 Y52.11 Z-4.976
X239.88 Y52.133 Z-4.941
X239.921 Y52.164 Z-4.907
X239.968 Y52.214 Z-4.804
X239.982 Y52.233 Z-4.683
G0 Z15
X234.009 Y109.212
Z5
G1 Z2 F3000
Z-0.683
X234.001 Y109.209 Z-0.753
X233.979 Y109.202 Z-0.82
X233.943 Y109.19 Z-0.88
X233.895 Y109.175 Z-0.931
X233.838 Y109.156 Z-0.969
X233.774 Y109.136 Z-0.992
X233.707 Y109.114 Z-1
G3 X232.898 Y108 I0.362 J-1.114
G1 Y104.217
G3 X233.217 Y103.897 I0.319 J0
G1 X240.783
G3 X241.102 Y104.217 I0 J0.319
G1 Y111.783
G3 X240.783 Y112.103 I-0.319 J0
G1 X233.217
G3 X232.898 Y111.783 I0 J-0.319
G1 Y108
G2 X231.992 Y106.643 I-1.471 J0
G3 X231.087 Y105.285 I0.566 J-1.357
G1 Y102.088
X242.913
Y113.912
X231.087
Y105.285
X231.094 Y105.241
X231.112 Y105.201
X231.14 Y105.167
X231.177 Y105.142
X231.219 Y105.129
X231.263 Y105.127
X233.543 Y105.375
X233.58 Y105.382
X233.614 Y105.397
X233.643 Y105.42
X234.631 Y106.393
G3 X234.482 Y106.66 I-0.111 J0.113
G1 X234.414 Y106.644 Z-1.008
X234.348 Y106.628 Z-1.031
X234.29 Y106.614 Z-1.069
X234.241 Y106.602 Z-1.12
X234.204 Y106.594 Z-1.18
X234.181 Y106.588 Z-1.247
X234.174 Y106.586 Z-1.317
Z-1.683
X234.166 Y106.584 Z-1.753
X234.143 Y106.579 Z-1.82
X234.106 Y106.57 Z-1.88
X234.057 Y106.558 Z-1.931
X233.999 Y106.544 Z-1.969
X233.934 Y106.529 Z-1.992
X233.865 Y106.512 Z-2
G3 X232.898 Y105.285 I0.295 J-1.227
G1 Y104.217
G3 X233.217 Y103.897 I0.319 J0
G1 X240.783
G3 X241.102 Y104.217 I0 J0.319
G1 Y111.783
G3 X240.783 Y112.103 I-0.319 J0
G1 X233.217
G3 X232.898 Y111.783 I0 J-0.319
G1 Y105.285
G2 X231.992 Y103.927 I-1.471 J0
G3 X231.087 Y102.57 I0.566 J-1.357
G1 Y102.088
X242.913
Y113.912
X231.087
Y102.57
X231.095 Y102.539
X231.117 Y102.514
X231.147 Y102.503
X231.179 Y102.506
X231.206 Y102.525
X231.399 Y102.742
X234.012 Y106.903
X234.025 Y106.927
X234.033 Y106.953
X234.515 Y109.125
G3 X234.311 Y109.31 I-0.155 J0.034
G1 X234.243 Y109.288 Z-2.008
X234.18 Y109.267 Z-2.031
X234.122 Y109.249 Z-2.069
X234.075 Y109.233 Z-2.12
X234.039 Y109.222 Z-2.18
X234.016 Y109.214 Z-2.247
X234.009 Y109.212 Z-2.318
Z-2.682
X234.001 Y109.209 Z-2.753
X233.979 Y109.202 Z-2.82
X233.943 Y109.19 Z-2.88
X233.895 Y109.175 Z-2.931
X233.838 Y109.156 Z-2.969
X233.774 Y109.136 Z-2.992
X233.707 Y109.114 Z-3
G3 X232.898 Y108 I0.362 J-1.114
G1 Y104.217
G3 X233.217 Y103.897 I0.319 J0
G1 X240.783
G3 X241.102 Y104.217 I0 J0.319
G1 Y111.783
G3 X240.783 Y112.103 I-0.319 J0
G1 X233.217
G3 X232.898 Y111.783 I0 J-0.319
G1 Y108
G2 X231.992 Y106.643 I-1.471 J0
G3 X231.087 Y105.285 I0.566 J-1.357
G1 Y102.088
X242.913
Y113.912
X231.087
Y105.285
X231.094 Y105.241
X231.112 Y105.201
X231.14 Y105.167
X231.177 Y105.142
X231.219 Y105.129
X231.263 Y105.127
X233.543 Y105.375
X233.58 Y105.382
X233.614 Y105.397
X233.643 Y105.42
X234.631 Y106.393
G3 X234.482 Y106.66 I-0.111 J0.113
G1 X234.414 Y106.644 Z-3.008
X234.348 Y106.628 Z-3.031
X234.29 Y106.614 Z-3.069
X234.241 Y106.602 Z-3.12
X234.204 Y106.594 Z-3.18
X234.181 Y106.588 Z-3.247
X234.174 Y106.586 Z-3.318
Z-3.682
X234.166 Y106.584 Z-3.753
X234.143 Y106.579 Z-3.82
X234.106 Y106.57 Z-3.88
X234.057 Y106.558 Z-3.931
X233.999 Y106.544 Z-3.969
X233.934 Y106.529 Z-3.992
X233.865 Y106.512 Z-4
G3 X232.898 Y105.285 I0.295 J-1.227
G1 Y104.217
G3 X233.217 Y103.897 I0.319 J0
G1 X240.783
G3 X241.102 Y104.217 I0 J0.319
G1 Y111.783
G3 X240.783 Y112.103 I-0.319 J0
G1 X233.217
G3 X232.898 Y111.783 I0 J-0.319
G1 Y105.285
G2 X231.992 Y103.927 I-1.471 J0
G3 X231.087 Y102.57 I0.566 J-1.357
G1 Y102.088
X242.913
Y113.912
X231.087
Y102.57
X231.095 Y102.539
X231.117 Y102.514
X231.147 Y102.503
X231.179 Y102.506
X231.206 Y102.525
X231.399 Y102.742
X234.012 Y106.903
X234.025 Y106.927
X234.033 Y106.953
X234.515 Y109.125
G3 X234.311 Y109.31 I-0.155 J0.034
G1 X234.243 Y109.288 Z-4.008
X234.18 Y109.267 Z-4.031
X234.122 Y109.249 Z-4.069
X234.075 Y109.233 Z-4.12
X234.039 Y109.222 Z-4.18
X234.016 Y109.214 Z-4.247
X234.009 Y109.212 Z-4.318
Z-4.682
X234.001 Y109.209 Z-4.753
X233.979 Y109.202 Z-4.82
X233.943 Y109.19 Z-4.88
X233.895 Y109.175 Z-4.931
X233.838 Y109.156 Z-4.969
X233.774 Y109.136 Z-4.992
X233.707 Y109.114 Z-5
G3 X232.898 Y108 I0.362 J-1.114
G1 Y104.217
G3 X233.217 Y103.897 I0.319 J0
G1 X240.783
G3 X241.102 Y104.217 I0 J0.319
G1 Y111.783
G3 X240.783 Y112.103 I-0.319 J0
G1 X233.217
G3 X232.898 Y111.783 I0 J-0.319
G1 Y108
G2 X231.992 Y106.643 I-1.471 J0
G3 X231.087 Y105.285 I0.566 J-1.357
G1 Y102.088
X242.913
Y113.912
X231.087
Y105.285
X231.093 Y105.225 Z-4.988
X231.11 Y105.166 Z-4.976
X231.133 Y105.12 Z-4.941
X231.164 Y105.079 Z-4.907
X231.214 Y105.032 Z-4.804
X231.233 Y105.018 Z-4.683
G0 Z15
X234.009 Y159.212
Z5
G1 Z2 F3000
Z-0.683
X234.001 Y159.209 Z-0.753
X233.979 Y159.202 Z-0.82
X233.943 Y159.19 Z-0.88
X233.895 Y159.175 Z-0.931
X233.838 Y159.156 Z-0.969
X233.774 Y159.136 Z-0.992
X233.707 Y159.114 Z-1
G3 X232.898 Y158 I0.362 J-1.114
G1 Y154.217
G3 X233.217 Y153.898 I0.319 J0
G1 X240.783
G3 X241.102 Y154.217 I0 J0.319
G1 Y161.783
G3 X240.783 Y162.102 I-0.319 J0
G1 X233.217
G3 X232.898 Y161.783 I0 J-0.319
G1 Y158
G2 X231.992 Y156.643 I-1.471 J0
G3 X231.087 Y155.285 I0.566 J-1.357
G1 Y152.087
X242.913
Y163.913
X231.087
Y155.285
X231.094 Y155.241
X231.112 Y155.201
X231.14 Y155.167
X231.177 Y155.142
X231.219 Y155.129
X231.263 Y155.127
X233.543 Y155.375
X233.58 Y155.382
X233.614 Y155.397
X233.643 Y155.42
X234.631 Y156.393
G3 X234.482 Y156.66 I-0.111 J0.113
G1 X234.414 Y156.644 Z-1.008
X234.348 Y156.628 Z-1.031
X234.29 Y156.614 Z-1.069
X234.241 Y156.603 Z-1.12
X234.204 Y156.594 Z-1.18
X234.181 Y156.588 Z-1.247
X234.174 Y156.586 Z-1.317
Z-1.683
X234.166 Y156.584 Z-1.753
X234.143 Y156.579 Z-1.82
X234.106 Y156.57 Z-1.88
X234.057 Y156.558 Z-1.931
X233.999 Y156.544 Z-1.969
X233.934 Y156.529 Z-1.992
X233.865 Y156.512 Z-2
G3 X232.898 Y155.285 I0.295 J-1.227
G1 Y154.217
G3 X233.217 Y153.898 I0.319 J0
G1 X240.783
G3 X241.102 Y154.217 I0 J0.319
G1 Y161.783
G3 X240.783 Y162.102 I-0.319 J0
G1 X233.217
G3 X232.898 Y161.783 I0 J-0.319
G1 Y155.285
G2 X231.992 Y153.928 I-1.471 J0
G3 X231.087 Y152.57 I0.566 J-1.357
G1 Y152.087
X242.913
Y163.913
X231.087
Y152.57
X231.095 Y152.539
X231.117 Y152.514
X231.147 Y152.503
X231.179 Y152.506
X231.206 Y152.525
X231.399 Y152.742
X234.012 Y156.903
X234.025 Y156.927
X234.033 Y156.953
X234.515 Y159.125
G3 X234.311 Y159.31 I-0.155 J0.034
G1 X234.243 Y159.288 Z-2.008
X234.18 Y159.267 Z-2.031
X234.122 Y159.249 Z-2.069
X234.075 Y159.233 Z-2.12
X234.039 Y159.222 Z-2.18
X234.016 Y159.214 Z-2.247
X234.009 Y159.212 Z-2.318
Z-2.682
X234.001 Y159.209 Z-2.753
X233.979 Y159.202 Z-2.82
X233.943 Y159.19 Z-2.88
X233.895 Y159.175 Z-2.931
X233.838 Y159.156 Z-2.969
X233.774 Y159.136 Z-2.992
X233.707 Y159.114 Z-3
G3 X232.898 Y158 I0.362 J-1.114
G1 Y154.217
G3 X233.217 Y153.898 I0.319 J0
G1 X240.783
G3 X241.102 Y154.217 I0 J0.319
G1 Y161.783
G3 X240.783 Y162.102 I-0.319 J0
G1 X233.217
G3 X232.898 Y161.783 I0 J-0.319
G1 Y158
G2 X231.992 Y156.643 I-1.471 J0
G3 X231.087 Y155.285 I0.566 J-1.357
G1 Y152.087
X242.913
Y163.913
X231.087
Y155.285
X231.094 Y155.241
X231.112 Y155.201
X231.14 Y155.167
X231.177 Y155.142
X231.219 Y155.129
X231.263 Y155.127
X233.543 Y155.375
X233.58 Y155.382
X233.614 Y155.397
X233.643 Y155.42
X234.631 Y156.393
G3 X234.482 Y156.66 I-0.111 J0.113
G1 X234.414 Y156.644 Z-3.008
X234.348 Y156.628 Z-3.031
X234.29 Y156.614 Z-3.069
X234.241 Y156.603 Z-3.12
X234.204 Y156.594 Z-3.18
X234.181 Y156.588 Z-3.247
X234.174 Y156.586 Z-3.318
Z-3.682
X234.166 Y156.584 Z-3.753
X234.143 Y156.579 Z-3.82
X234.106 Y156.57 Z-3.88
X234.057 Y156.558 Z-3.931
X233.999 Y156.544 Z-3.969
X233.934 Y156.529 Z-3.992
X233.865 Y156.512 Z-4
G3 X232.898 Y155.285 I0.295 J-1.227
G1 Y154.217
G3 X233.217 Y153.898 I0.319 J0
G1 X240.783
G3 X241.102 Y154.217 I0 J0.319
G1 Y161.783
G3 X240.783 Y162.102 I-0.319 J0
G1 X233.217
G3 X232.898 Y161.783 I0 J-0.319
G1 Y155.285
G2 X231.992 Y153.928 I-1.471 J0
G3 X231.087 Y152.57 I0.566 J-1.357
G1 Y152.087
X242.913
Y163.913
X231.087
Y152.57
X231.095 Y152.539
X231.117 Y152.514
X231.147 Y152.503
X231.179 Y152.506
X231.206 Y152.525
X231.399 Y152.742
X234.012 Y156.903
X234.025 Y156.927
X234.033 Y156.953
X234.515 Y159.125
G3 X234.311 Y159.31 I-0.155 J0.034
G1 X234.243 Y159.288 Z-4.008
X234.18 Y159.267 Z-4.031
X234.122 Y159.249 Z-4.069
X234.075 Y159.233 Z-4.12
X234.039 Y159.222 Z-4.18
X234.016 Y159.214 Z-4.247
X234.009 Y159.212 Z-4.318
Z-4.682
X234.001 Y159.209 Z-4.753
X233.979 Y159.202 Z-4.82
X233.943 Y159.19 Z-4.88
X233.895 Y159.175 Z-4.931
X233.838 Y159.156 Z-4.969
X233.774 Y159.136 Z-4.992
X233.707 Y159.114 Z-5
G3 X232.898 Y158 I0.362 J-1.114
G1 Y154.217
G3 X233.217 Y153.898 I0.319 J0
G1 X240.783
G3 X241.102 Y154.217 I0 J0.319
G1 Y161.783
G3 X240.783 Y162.102 I-0.319 J0
G1 X233.217
G3 X232.898 Y161.783 I0 J-0.319
G1 Y158
G2 X231.992 Y156.643 I-1.471 J0
G3 X231.087 Y155.285 I0.566 J-1.357
G1 Y152.087
X242.913
Y163.913
X231.087
Y155.285
X231.093 Y155.225 Z-4.988
X231.11 Y155.166 Z-4.976
X231.133 Y155.12 Z-4.941
X231.164 Y155.079 Z-4.907
X231.214 Y155.032 Z-4.804
X231.233 Y155.018 Z-4.683
G0 Z15
M5

(Drill 2)
T2 M6
S10000 M3
G54
G0 X12 Y8
Z15
Z5
Z2
G1 Z-0.794 F2000
G0 Z5
Z1.206
G1 Z-1.587 F2000
G0 Z5
Z0.413
G1 Z-2.381 F2000
G0 Z5
Z-0.381
G1 Z-3.175 F2000
G0 Z5
Z-1.175
G1 Z-3.969 F2000
G0 Z5
Z-1.969
G1 Z-4.762 F2000
G0 Z5
Z-2.762
G1 Z-5.556 F2000
G0 Z5
Z-3.556
G1 Z-6.35 F2000
G0 Z5
Z-4.35
G1 Z-7.144 F2000
G0 Z5
Z-5.144
G1 Z-7.937 F2000
G0 Z5
Z-5.937
G1 Z-8.731 F2000
G0 Z5
Z-6.731
G1 Z-9.525 F2000
G0 Z5
Z-7.525
G1 Z-10.319 F2000
G0 Z5
Z-8.319
G1 Z-11.112 F2000
G0 Z5
Z-9.112
G1 Z-11.906 F2000
G0 Z5
Z-9.906
G1 Z-12.7 F2000
G0 Z5
Z-10.7
G1 Z-13.494 F2000
G0 Z5
Z-11.494
G1 Z-14.287 F2000
G0 Z5
Z-12.287
G1 Z-15.081 F2000
G0 Z5
Z-13.081
G1 Z-15.875 F2000
G0 Z5
Z-13.875
G1 Z-16.669 F2000
G0 Z5
Z-14.669
G1 Z-17.462 F2000
G0 Z5
Z-15.462
G1 Z-18.256 F2000
G0 Z5
Z-16.256
G1 Z-19.05 F2000
G0 Z5
Z-17.05
G1 Z-19.844 F2000
G0 Z5
Z-17.844
G1 Z-20 F2000
G0 Z5
Y208
Z2
G1 Z-0.794 F2000
G0 Z5
Z1.206
G1 Z-1.587 F2000
G0 Z5
Z0.413
G1 Z-2.381 F2000
G0 Z5
Z-0.381
G1 Z-3.175 F2000
G0 Z5
Z-1.175
G1 Z-3.969 F2000
G0 Z5
Z-1.969
G1 Z-4.762 F2000
G0 Z5
Z-2.762
G1 Z-5.556 F2000
G0 Z5
Z-3.556
G1 Z-6.35 F2000
G0 Z5
Z-4.35
G1 Z-7.144 F2000
G0 Z5
Z-5.144
G1 Z-7.937 F2000
G0 Z5
Z-5.937
G1 Z-8.731 F2000
G0 Z5
Z-6.731
G1 Z-9.525 F2000
G0 Z5
Z-7.525
G1 Z-10.319 F2000
G0 Z5
Z-8.319
G1 Z-11.112 F2000
G0 Z5
Z-9.112
G1 Z-11.906 F2000
G0 Z5
Z-9.906
G1 Z-12.7 F2000
G0 Z5
Z-10.7
G1 Z-13.494 F2000
G0 Z5
Z-11.494
G1 Z-14.287 F2000
G0 Z5
Z-12.287
G1 Z-15.081 F2000
G0 Z5
Z-13.081
G1 Z-15.875 F2000
G0 Z5
Z-13.875
G1 Z-16.669 F2000
G0 Z5
Z-14.669
G1 Z-17.462 F2000
G0 Z5
Z-15.462
G1 Z-18.256 F2000
G0 Z5
Z-16.256
G1 Z-19.05 F2000
G0 Z5
Z-17.05
G1 Z-19.844 F2000
G0 Z5
Z-17.844
G1 Z-20 F2000
G0 Z5
X312
Z2
G1 Z-0.794 F2000
G0 Z5
Z1.206
G1 Z-1.587 F2000
G0 Z5
Z0.413
G1 Z-2.381 F2000
G0 Z5
Z-0.381
G1 Z-3.175 F2000
G0 Z5
Z-1.175
G1 Z-3.969 F2000
G0 Z5
Z-1.969
G1 Z-4.762 F2000
G0 Z5
Z-2.762
G1 Z-5.556 F2000
G0 Z5
Z-3.556
G1 Z-6.35 F2000
G0 Z5
Z-4.35
G1 Z-7.144 F2000
G0 Z5
Z-5.144
G1 Z-7.937 F2000
G0 Z5
Z-5.937
G1 Z-8.731 F2000
G0 Z5
Z-6.731
G1 Z-9.525 F2000
G0 Z5
Z-7.525
G1 Z-10.319 F2000
G0 Z5
Z-8.319
G1 Z-11.112 F2000
G0 Z5
Z-9.112
G1 Z-11.906 F2000
G0 Z5
Z-9.906
G1 Z-12.7 F2000
G0 Z5
Z-10.7
G1 Z-13.494 F2000
G0 Z5
Z-11.494
G1 Z-14.287 F2000
G0 Z5
Z-12.287
G1 Z-15.081 F2000
G0 Z5
Z-13.081
G1 Z-15.875 F2000
G0 Z5
Z-13.875
G1 Z-16.669 F2000
G0 Z5
Z-14.669
G1 Z-17.462 F2000
G0 Z5
Z-15.462
G1 Z-18.256 F2000
G0 Z5
Z-16.256
G1 Z-19.05 F2000
G0 Z5
Z-17.05
G1 Z-19.844 F2000
G0 Z5
Z-17.844
G1 Z-20 F2000
G0 Z5
Y8
Z2
G1 Z-0.794 F2000
G0 Z5
Z1.206
G1 Z-1.587 F2000
G0 Z5
Z0.413
G1 Z-2.381 F2000
G0 Z5
Z-0.381
G1 Z-3.175 F2000
G0 Z5
Z-1.175
G1 Z-3.969 F2000
G0 Z5
Z-1.969
G1 Z-4.762 F2000
G0 Z5
Z-2.762
G1 Z-5.556 F2000
G0 Z5
Z-3.556
G1 Z-6.35 F2000
G0 Z5
Z-4.35
G1 Z-7.144 F2000
G0 Z5
Z-5.144
G1 Z-7.937 F2000
G0 Z5
Z-5.937
G1 Z-8.731 F2000
G0 Z5
Z-6.731
G1 Z-9.525 F2000
G0 Z5
Z-7.525
G1 Z-10.319 F2000
G0 Z5
Z-8.319
G1 Z-11.112 F2000
G0 Z5
Z-9.112
G1 Z-11.906 F2000
G0 Z5
Z-9.906
G1 Z-12.7 F2000
G0 Z5
Z-10.7
G1 Z-13.494 F2000
G0 Z5
Z-11.494
G1 Z-14.287 F2000
G0 Z5
Z-12.287
G1 Z-15.081 F2000
G0 Z5
Z-13.081
G1 Z-15.875 F2000
G0 Z5
Z-13.875
G1 Z-16.669 F2000
G0 Z5
Z-14.669
G1 Z-17.462 F2000
G0 Z5
Z-15.462
G1 Z-18.256 F2000
G0 Z5
Z-16.256
G1 Z-19.05 F2000
G0 Z5
Z-17.05
G1 Z-19.844 F2000
G0 Z5
Z-17.844
G1 Z-20 F2000
G0 Z5
Z15

(Bore 2)
S12000 M3
X84.381 Y158.318
Z15
Z-3
G1 Z-4.682 F3000
G18 G3 X84.064 Z-5 I-0.317 K0
G1 X83.905
G17 G3 X83.588 Y158 I0 J-0.318
X90.412 Y158 Z-5.1 I3.412 J0
X83.588 Y158 Z-5.2 I-3.412 J0
X90.412 Y158 Z-5.3 I3.412 J0
X83.588 Y158 Z-5.4 I-3.412 J0
X90.412 Y158 Z-5.5 I3.412 J0
X83.588 Y158 Z-5.6 I-3.412 J0
X90.412 Y158 Z-5.7 I3.412 J0
X83.588 Y158 Z-5.8 I-3.412 J0
X90.412 Y158 Z-5.9 I3.412 J0
X83.588 Y158 Z-6 I-3.412 J0
X90.412 Y158 Z-6.1 I3.412 J0
X83.588 Y158 Z-6.2 I-3.412 J0
X90.412 Y158 Z-6.3 I3.412 J0
X83.588 Y158 Z-6.4 I-3.412 J0
X90.412 Y158 Z-6.5 I3.412 J0
X83.588 Y158 Z-6.6 I-3.412 J0
X90.412 Y158 Z-6.7 I3.412 J0
X83.588 Y158 Z-6.8 I-3.412 J0
X90.412 Y158 Z-6.9 I3.412 J0
X83.588 Y158 Z-7 I-3.412 J0
X90.412 Y158 Z-7.1 I3.412 J0
X83.588 Y158 Z-7.2 I-3.412 J0
X90.412 Y158 Z-7.3 I3.412 J0
X83.588 Y158 Z-7.4 I-3.412 J0
X90.412 Y158 Z-7.5 I3.412 J0
X83.588 Y158 Z-7.6 I-3.412 J0
X90.412 Y158 Z-7.7 I3.412 J0
X83.588 Y158 Z-7.8 I-3.412 J0
X90.412 Y158 Z-7.9 I3.412 J0
X83.588 Y158 Z-8 I-3.412 J0
X90.412 Y158 Z-8.1 I3.412 J0
X83.588 Y158 Z-8.2 I-3.412 J0
X90.412 Y158 Z-8.3 I3.412 J0
X83.588 Y158 Z-8.4 I-3.412 J0
X90.412 Y158 Z-8.5 I3.412 J0
X83.588 Y158 Z-8.6 I-3.412 J0
X90.412 Y158 Z-8.7 I3.412 J0
X83.588 Y158 Z-8.8 I-3.412 J0
X90.412 Y158 Z-8.9 I3.412 J0
X83.588 Y158 Z-9 I-3.412 J0
X90.412 Y158 Z-9.1 I3.412 J0
X83.588 Y158 Z-9.2 I-3.412 J0
X90.412 Y158 Z-9.3 I3.412 J0
X83.588 Y158 Z-9.4 I-3.412 J0
X90.412 Y158 Z-9.5 I3.412 J0
X83.588 Y158 Z-9.6 I-3.412 J0
X90.412 Y158 Z-9.7 I3.412 J0
X83.588 Y158 Z-9.8 I-3.412 J0
X90.412 Y158 Z-9.9 I3.412 J0
X83.588 Y158 Z-10 I-3.412 J0
X90.412 Y158 I3.412 J0
X83.588 Y158 I-3.412 J0
X83.905 Y157.682 I0.317 J0
G1 X84.064
G18 G2 X84.381 Z-9.682 I0 K0.318
G0 Z5
X86.881 Y158.318
Z-8
G1 Z-9.682 F3000
G3 X86.564 Z-10 I-0.317 K0
G1 X86.405
G17 G3 X86.088 Y158 I0 J-0.318
X87.912 Y158 Z-10.1 I0.912 J0
X86.088 Y158 Z-10.2 I-0.912 J0
X87.912 Y158 Z-10.3 I0.912 J0
X86.088 Y158 Z-10.4 I-0.912 J0
X87.912 Y158 Z-10.5 I0.912 J0
X86.088 Y158 Z-10.6 I-0.912 J0
X87.912 Y158 Z-10.7 I0.912 J0
X86.088 Y158 Z-10.8 I-0.912 J0
X87.912 Y158 Z-10.9 I0.912 J0
X86.088 Y158 Z-11 I-0.912 J0
X87.912 Y158 Z-11.1 I0.912 J0
X86.088 Y158 Z-11.2 I-0.912 J0
X87.912 Y158 Z-11.3 I0.912 J0
X86.088 Y158 Z-11.4 I-0.912 J0
X87.912 Y158 Z-11.5 I0.912 J0
X86.088 Y158 Z-11.6 I-0.912 J0
X87.912 Y158 Z-11.7 I0.912 J0
X86.088 Y158 Z-11.8 I-0.912 J0
X87.912 Y158 Z-11.9 I0.912 J0
X86.088 Y158 Z-12 I-0.912 J0
X87.912 Y158 Z-12.1 I0.912 J0
X86.088 Y158 Z-12.2 I-0.912 J0
X87.912 Y158 Z-12.3 I0.912 J0
X86.088 Y158 Z-12.4 I-0.912 J0
X87.912 Y158 Z-12.5 I0.912 J0
X86.088 Y158 Z-12.6 I-0.912 J0
X87.912 Y158 Z-12.7 I0.912 J0
X86.088 Y158 Z-12.8 I-0.912 J0
X87.912 Y158 Z-12.9 I0.912 J0
X86.088 Y158 Z-13 I-0.912 J0
X87.912 Y158 Z-13.1 I0.912 J0
X86.088 Y158 Z-13.2 I-0.912 J0
X87.912 Y158 Z-13.3 I0.912 J0
X86.088 Y158 Z-13.4 I-0.912 J0
X87.912 Y158 Z-13.5 I0.912 J0
X86.088 Y158 Z-13.6 I-0.912 J0
X87.912 Y158 Z-13.7 I0.912 J0
X86.088 Y158 Z-13.8 I-0.912 J0
X87.912 Y158 Z-13.9 I0.912 J0
X86.088 Y158 Z-14 I-0.912 J0
X87.912 Y158 Z-14.1 I0.912 J0
X86.088 Y158 Z-14.2 I-0.912 J0
X87.912 Y158 Z-14.3 I0.912 J0
X86.088 Y158 Z-14.4 I-0.912 J0
X87.912 Y158 Z-14.5 I0.912 J0
X86.088 Y158 Z-14.6 I-0.912 J0
X87.912 Y158 Z-14.7 I0.912 J0
X86.088 Y158 Z-14.8 I-0.912 J0
X87.912 Y158 Z-14.9 I0.912 J0
X86.088 Y158 Z-15 I-0.912 J0
X87.912 Y158 Z-15.1 I0.912 J0
X86.088 Y158 Z-15.2 I-0.912 J0
X87.912 Y158 Z-15.3 I0.912 J0
X86.088 Y158 Z-15.4 I-0.912 J0
X87.912 Y158 Z-15.5 I0.912 J0
X86.088 Y158 Z-15.6 I-0.912 J0
X87.912 Y158 Z-15.7 I0.912 J0
X86.088 Y158 Z-15.8 I-0.912 J0
X87.912 Y158 Z-15.9 I0.912 J0
X86.088 Y158 Z-16 I-0.912 J0
X87.912 Y158 Z-16.1 I0.912 J0
X86.088 Y158 Z-16.2 I-0.912 J0
X87.912 Y158 Z-16.3 I0.912 J0
X86.088 Y158 Z-16.4 I-0.912 J0
X87.912 Y158 Z-16.5 I0.912 J0
X86.088 Y158 Z-16.6 I-0.912 J0
X87.912 Y158 Z-16.7 I0.912 J0
X86.088 Y158 Z-16.8 I-0.912 J0
X87.912 Y158 Z-16.9 I0.912 J0
X86.088 Y158 Z-17 I-0.912 J0
X87.912 Y158 Z-17.1 I0.912 J0
X86.088 Y158 Z-17.2 I-0.912 J0
X87.912 Y158 Z-17.3 I0.912 J0
X86.088 Y158 Z-17.4 I-0.912 J0
X87.912 Y158 Z-17.5 I0.912 J0
X86.088 Y158 Z-17.6 I-0.912 J0
X87.912 Y158 Z-17.7 I0.912 J0
X86.088 Y158 Z-17.8 I-0.912 J0
X87.912 Y158 Z-17.9 I0.912 J0
X86.088 Y158 Z-18 I-0.912 J0
X87.912 Y158 Z-18.1 I0.912 J0
X86.088 Y158 Z-18.2 I-0.912 J0
X87.912 Y158 Z-18.3 I0.912 J0
X86.088 Y158 Z-18.4 I-0.912 J0
X87.912 Y158 Z-18.5 I0.912 J0
X86.088 Y158 Z-18.6 I-0.912 J0
X87.912 Y158 Z-18.7 I0.912 J0
X86.088 Y158 Z-18.8 I-0.912 J0
X87.912 Y158 Z-18.9 I0.912 J0
X86.088 Y158 Z-19 I-0.912 J0
X87.912 Y158 Z-19.1 I0.912 J0
X86.088 Y158 Z-19.2 I-0.912 J0
X87.912 Y158 Z-19.3 I0.912 J0
X86.088 Y158 Z-19.4 I-0.912 J0
X87.912 Y158 Z-19.5 I0.912 J0
X86.088 Y158 Z-19.6 I-0.912 J0
X87.912 Y158 Z-19.7 I0.912 J0
X86.088 Y158 Z-19.8 I-0.912 J0
X87.912 Y158 Z-19.9 I0.912 J0
X86.088 Y158 Z-20 I-0.912 J0
X87.912 Y158 I0.912 J0
X86.088 Y158 I-0.912 J0
X86.405 Y157.682 I0.317 J0
G1 X86.564
G18 G2 X86.881 Z-19.683 I0 K0.317
G0 Z5
X84.381 Y108.317
Z-3
G1 Z-4.682 F3000
G3 X84.064 Z-5 I-0.317 K0
G1 X83.905
G17 G3 X83.588 Y108 I0 J-0.317
X90.412 Y108 Z-5.1 I3.412 J0
X83.588 Y108 Z-5.2 I-3.412 J0
X90.412 Y108 Z-5.3 I3.412 J0
X83.588 Y108 Z-5.4 I-3.412 J0
X90.412 Y108 Z-5.5 I3.412 J0
X83.588 Y108 Z-5.6 I-3.412 J0
X90.412 Y108 Z-5.7 I3.412 J0
X83.588 Y108 Z-5.8 I-3.412 J0
X90.412 Y108 Z-5.9 I3.412 J0
X83.588 Y108 Z-6 I-3.412 J0
X90.412 Y108 Z-6.1 I3.412 J0
X83.588 Y108 Z-6.2 I-3.412 J0
X90.412 Y108 Z-6.3 I3.412 J0
X83.588 Y108 Z-6.4 I-3.412 J0
X90.412 Y108 Z-6.5 I3.412 J0
X83.588 Y108 Z-6.6 I-3.412 J0
X90.412 Y108 Z-6.7 I3.412 J0
X83.588 Y108 Z-6.8 I-3.412 J0
X90.412 Y108 Z-6.9 I3.412 J0
X83.588 Y108 Z-7 I-3.412 J0
X90.412 Y108 Z-7.1 I3.412 J0
X83.588 Y108 Z-7.2 I-3.412 J0
X90.412 Y108 Z-7.3 I3.412 J0
X83.588 Y108 Z-7.4 I-3.412 J0
X90.412 Y108 Z-7.5 I3.412 J0
X83.588 Y108 Z-7.6 I-3.412 J0
X90.412 Y108 Z-7.7 I3.412 J0
X83.588 Y108 Z-7.8 I-3.412 J0
X90.412 Y108 Z-7.9 I3.412 J0
X83.588 Y108 Z-8 I-3.412 J0
X90.412 Y108 Z-8.1 I3.412 J0
X83.588 Y108 Z-8.2 I-3.412 J0
X90.412 Y108 Z-8.3 I3.412 J0
X83.588 Y108 Z-8.4 I-3.412 J0
X90.412 Y108 Z-8.5 I3.412 J0
X83.588 Y108 Z-8.6 I-3.412 J0
X90.412 Y108 Z-8.7 I3.412 J0
X83.588 Y108 Z-8.8 I-3.412 J0
X90.412 Y108 Z-8.9 I3.412 J0
X83.588 Y108 Z-9 I-3.412 J0
X90.412 Y108 Z-9.1 I3.412 J0
X83.588 Y108 Z-9.2 I-3.412 J0
X90.412 Y108 Z-9.3 I3.412 J0
X83.588 Y108 Z-9.4 I-3.412 J0
X90.412 Y108 Z-9.5 I3.412 J0
X83.588 Y108 Z-9.6 I-3.412 J0
X90.412 Y108 Z-9.7 I3.412 J0
X83.588 Y108 Z-9.8 I-3.412 J0
X90.412 Y108 Z-9.9 I3.412 J0
X83.588 Y108 Z-10 I-3.412 J0
X90.412 Y108 I3.412 J0
X83.588 Y108 I-3.412 J0
X83.905 Y107.683 I0.317 J0
G1 X84.064
G18 G2 X84.381 Z-9.682 I0 K0.318
G0 Z5
X86.881 Y108.317
Z-8
G1 Z-9.682 F3000
G3 X86.564 Z-10 I-0.317 K0
G1 X86.405
G17 G3 X86.088 Y108 I0 J-0.317
X87.912 Y108 Z-10.1 I0.912 J0
X86.088 Y108 Z-10.2 I-0.912 J0
X87.912 Y108 Z-10.3 I0.912 J0
X86.088 Y108 Z-10.4 I-0.912 J0
X87.912 Y108 Z-10.5 I0.912 J0
X86.088 Y108 Z-10.6 I-0.912 J0
X87.912 Y108 Z-10.7 I0.912 J0
X86.088 Y108 Z-10.8 I-0.912 J0
X87.912 Y108 Z-10.9 I0.912 J0
X86.088 Y108 Z-11 I-0.912 J0
X87.912 Y108 Z-11.1 I0.912 J0
X86.088 Y108 Z-11.2 I-0.912 J0
X87.912 Y108 Z-11.3 I0.912 J0
X86.088 Y108 Z-11.4 I-0.912 J0
X87.912 Y108 Z-11.5 I0.912 J0
X86.088 Y108 Z-11.6 I-0.912 J0
X87.912 Y108 Z-11.7 I0.912 J0
X86.088 Y108 Z-11.8 I-0.912 J0
X87.912 Y108 Z-11.9 I0.912 J0
X86.088 Y108 Z-12 I-0.912 J0
X87.912 Y108 Z-12.1 I0.912 J0
X86.088 Y108 Z-12.2 I-0.912 J0
X87.912 Y108 Z-12.3 I0.912 J0
X86.088 Y108 Z-12.4 I-0.912 J0
X87.912 Y108 Z-12.5 I0.912 J0
X86.088 Y108 Z-12.6 I-0.912 J0
X87.912 Y108 Z-12.7 I0.912 J0
X86.088 Y108 Z-12.8 I-0.912 J0
X87.912 Y108 Z-12.9 I0.912 J0
X86.088 Y108 Z-13 I-0.912 J0
X87.912 Y108 Z-13.1 I0.912 J0
X86.088 Y108 Z-13.2 I-0.912 J0
X87.912 Y108 Z-13.3 I0.912 J0
X86.088 Y108 Z-13.4 I-0.912 J0
X87.912 Y108 Z-13.5 I0.912 J0
X86.088 Y108 Z-13.6 I-0.912 J0
X87.912 Y108 Z-13.7 I0.912 J0
X86.088 Y108 Z-13.8 I-0.912 J0
X87.912 Y108 Z-13.9 I0.912 J0
X86.088 Y108 Z-14 I-0.912 J0
X87.912 Y108 Z-14.1 I0.912 J0
X86.088 Y108 Z-14.2 I-0.912 J0
X87.912 Y108 Z-14.3 I0.912 J0
X86.088 Y108 Z-14.4 I-0.912 J0
X87.912 Y108 Z-14.5 I0.912 J0
X86.088 Y108 Z-14.6 I-0.912 J0
X87.912 Y108 Z-14.7 I0.912 J0
X86.088 Y108 Z-14.8 I-0.912 J0
X87.912 Y108 Z-14.9 I0.912 J0
X86.088 Y108 Z-15 I-0.912 J0
X87.912 Y108 Z-15.1 I0.912 J0
X86.088 Y108 Z-15.2 I-0.912 J0
X87.912 Y108 Z-15.3 I0.912 J0
X86.088 Y108 Z-15.4 I-0.912 J0
X87.912 Y108 Z-15.5 I0.912 J0
X86.088 Y108 Z-15.6 I-0.912 J0
X87.912 Y108 Z-15.7 I0.912 J0
X86.088 Y108 Z-15.8 I-0.912 J0
X87.912 Y108 Z-15.9 I0.912 J0
X86.088 Y108 Z-16 I-0.912 J0
X87.912 Y108 Z-16.1 I0.912 J0
X86.088 Y108 Z-16.2 I-0.912 J0
X87.912 Y108 Z-16.3 I0.912 J0
X86.088 Y108 Z-16.4 I-0.912 J0
X87.912 Y108 Z-16.5 I0.912 J0
X86.088 Y108 Z-16.6 I-0.912 J0
X87.912 Y108 Z-16.7 I0.912 J0
X86.088 Y108 Z-16.8 I-0.912 J0
X87.912 Y108 Z-16.9 I0.912 J0
X86.088 Y108 Z-17 I-0.912 J0
X87.912 Y108 Z-17.1 I0.912 J0
X86.088 Y108 Z-17.2 I-0.912 J0
X87.912 Y108 Z-17.3 I0.912 J0
X86.088 Y108 Z-17.4 I-0.912 J0
X87.912 Y108 Z-17.5 I0.912 J0
X86.088 Y108 Z-17.6 I-0.912 J0
X87.912 Y108 Z-17.7 I0.912 J0
X86.088 Y108 Z-17.8 I-0.912 J0
X87.912 Y108 Z-17.9 I0.912 J0
X86.088 Y108 Z-18 I-0.912 J0
X87.912 Y108 Z-18.1 I0.912 J0
X86.088 Y108 Z-18.2 I-0.912 J0
X87.912 Y108 Z-18.3 I0.912 J0
X86.088 Y108 Z-18.4 I-0.912 J0
X87.912 Y108 Z-18.5 I0.912 J0
X86.088 Y108 Z-18.6 I-0.912 J0
