(F-Test-Air)
(T1  D=3.175 CR=0 - ZMIN=-20 - flat end mill)
G90 G94
G17
G21
G54

(Set Origin)
G10L2P0X-300Y-210Z-50

(Height Test)
G0 X143 Y112
G1 Z-50 F1000
G1 Z-61 F100
G01 Z47 F100

(Drill2 2)
S15000 M3
G54
G0 X25 Y25
Z48
G1 Z-60 F1000
G1 Z48 F300

G00 X132.143 Y175
G1 Z-60 F1000
G01 Z48 F300

G00 X275 Y25
G1 Z-60 F1000
G1 Z48 F300

(2D Contour2)
G00 X291.096 Y-1.587
Z15
Z5
G1 Z0.635 F3000
Z-1
X0
G2 X-1.587 Y0 I0 J1.587
G1 Y200
G2 X0 Y201.587 I1.587 J0
G1 X255
G2 X256.587 Y200 I0 J-1.587
G1 Y161.587
X295
G2 X296.587 Y160 I0 J-1.587
G1 Y0
G2 X295 Y-1.587 I-1.587 J0
G1 X291.096
Z-2
X0
G2 X-1.587 Y0 I0 J1.587
G1 Y200
G2 X0 Y201.587 I1.587 J0
G1 X255
G2 X256.587 Y200 I0 J-1.587
G1 Y161.587
X295
G2 X296.587 Y160 I0 J-1.587
G1 Y0
G2 X295 Y-1.587 I-1.587 J0
G1 X291.096
Z-3
X0
G2 X-1.587 Y0 I0 J1.587
G1 Y200
G2 X0 Y201.587 I1.587 J0
G1 X255
G2 X256.587 Y200 I0 J-1.587
G1 Y161.587
X295
G2 X296.587 Y160 I0 J-1.587
G1 Y0
G2 X295 Y-1.587 I-1.587 J0
G1 X291.096
Z-4
X0
G2 X-1.587 Y0 I0 J1.587
G1 Y200
G2 X0 Y201.587 I1.587 J0
G1 X255
G2 X256.587 Y200 I0 J-1.587
G1 Y161.587
X295
G2 X296.587 Y160 I0 J-1.587
G1 Y0
G2 X295 Y-1.587 I-1.587 J0
G1 X291.096
Z-5
X0
G2 X-1.587 Y0 I0 J1.587
G1 Y200
G2 X0 Y201.587 I1.587 J0
G1 X255
G2 X256.587 Y200 I0 J-1.587
G1 Y161.587
X295
G2 X296.587 Y160 I0 J-1.587
G1 Y0
G2 X295 Y-1.587 I-1.587 J0
G1 X291.096
Z-6
X0
G2 X-1.587 Y0 I0 J1.587
G1 Y200
G2 X0 Y201.587 I1.587 J0
G1 X255
G2 X256.587 Y200 I0 J-1.587
G1 Y161.587
X295
G2 X296.587 Y160 I0 J-1.587
G1 Y0
G2 X295 Y-1.587 I-1.587 J0
G1 X291.096
Z-7
X0
G2 X-1.587 Y0 I0 J1.587
G1 Y200
G2 X0 Y201.587 I1.587 J0
G1 X255
G2 X256.587 Y200 I0 J-1.587
G1 Y161.587
X295
G2 X296.587 Y160 I0 J-1.587
G1 Y0
G2 X295 Y-1.587 I-1.587 J0
G1 X291.096
Z-8
X0
G2 X-1.587 Y0 I0 J1.587
G1 Y200
G2 X0 Y201.587 I1.587 J0
G1 X255
G2 X256.587 Y200 I0 J-1.587
G1 Y161.587
X295
G2 X296.587 Y160 I0 J-1.587
G1 Y0
G2 X295 Y-1.587 I-1.587 J0
G1 X291.096
Z-9
X0
G2 X-1.587 Y0 I0 J1.587
G1 Y200
G2 X0 Y201.587 I1.587 J0
G1 X255
G2 X256.587 Y200 I0 J-1.587
G1 Y161.587
X295
G2 X296.587 Y160 I0 J-1.587
G1 Y0
G2 X295 Y-1.587 I-1.587 J0
G1 X291.096
Z-10
X0
G2 X-1.587 Y0 I0 J1.587
G1 Y200
G2 X0 Y201.587 I1.587 J0
G1 X255
G2 X256.587 Y200 I0 J-1.587
G1 Y161.587
X295
G2 X296.587 Y160 I0 J-1.587
G1 Y0
G2 X295 Y-1.587 I-1.587 J0
G1 X291.096
Z-11
X0
G2 X-1.587 Y0 I0 J1.587
G1 Y200
G2 X0 Y201.587 I1.587 J0
G1 X255
G2 X256.587 Y200 I0 J-1.587
G1 Y161.587
X295
G2 X296.587 Y160 I0 J-1.587
G1 Y0
G2 X295 Y-1.587 I-1.587 J0
G1 X291.096
Z-12
X0
G2 X-1.587 Y0 I0 J1.587
G1 Y200
G2 X0 Y201.587 I1.587 J0
G1 X255
G2 X256.587 Y200 I0 J-1.587
G1 Y161.587
X295
G2 X296.587 Y160 I0 J-1.587
G1 Y0
G2 X295 Y-1.587 I-1.587 J0
G1 X291.096
Z-13
X0
G2 X-1.587 Y0 I0 J1.587
G1 Y200
G2 X0 Y201.587 I1.587 J0
G1 X255
G2 X256.587 Y200 I0 J-1.587
G1 Y161.587
X295
G2 X296.587 Y160 I0 J-1.587
G1 Y0
G2 X295 Y-1.587 I-1.587 J0
G1 X291.096
Z-14
X0
G2 X-1.587 Y0 I0 J1.587
G1 Y200
G2 X0 Y201.587 I1.587 J0
G1 X255
G2 X256.587 Y200 I0 J-1.587
G1 Y161.587
X295
G2 X296.587 Y160 I0 J-1.587
G1 Y0
G2 X295 Y-1.587 I-1.587 J0
G1 X291.096
Z-15
X0
G2 X-1.587 Y0 I0 J1.587
G1 Y200
G2 X0 Y201.587 I1.587 J0
G1 X255
G2 X256.587 Y200 I0 J-1.587
G1 Y161.587
X295
G2 X296.587 Y160 I0 J-1.587
G1 Y0
G2 X295 Y-1.587 I-1.587 J0
G1 X291.096
Z-16
X0
G2 X-1.587 Y0 I0 J1.587
G1 Y200
G2 X0 Y201.587 I1.587 J0
G1 X255
G2 X256.587 Y200 I0 J-1.587
G1 Y161.587
X295
G2 X296.587 Y160 I0 J-1.587
G1 Y0
G2 X295 Y-1.587 I-1.587 J0
G1 X291.096
Z-17
X0
G2 X-1.587 Y0 I0 J1.587
G1 Y200
G2 X0 Y201.587 I1.587 J0
G1 X255
G2 X256.587 Y200 I0 J-1.587
G1 Y161.587
X295
G2 X296.587 Y160 I0 J-1.587
G1 Y0
G2 X295 Y-1.587 I-1.587 J0
G1 X291.096
Z-18
X0
G2 X-1.587 Y0 I0 J1.587
G1 Y200
G2 X0 Y201.587 I1.587 J0
G1 X255
G2 X256.587 Y200 I0 J-1.587
G1 Y161.587
X295
G2 X296.587 Y160 I0 J-1.587
G1 Y0
G2 X295 Y-1.587 I-1.587 J0
G1 X291.096
Z-19
X0
G2 X-1.587 Y0 I0 J1.587
G1 Y200
G2 X0 Y201.587 I1.587 J0
G1 X255
G2 X256.587 Y200 I0 J-1.587
G1 Y161.587
X295
G2 X296.587 Y160 I0 J-1.587
G1 Y0
G2 X295 Y-1.587 I-1.587 J0
G1 X291.096
Z-20
X0
G2 X-1.587 Y0 I0 J1.587
G1 Y200
G2 X0 Y201.587 I1.587 J0
G1 X255
G2 X256.587 Y200 I0 J-1.587
G1 Y161.587
X295
G2 X296.587 Y160 I0 J-1.587
G1 Y0
G2 X295 Y-1.587 I-1.587 J0
G1 X291.096
G0 Z15

(Bore1)
X22.381 Y25.317
Z15
Z2
G1 Z0.317 F3000
G18 G3 X22.064 Z0 I-0.318 K0
G1 X21.905
G17 G3 X21.587 Y25 I0 J-0.317
X28.413 Y25 Z-0.6 I3.413 J0
X21.587 Y25 Z-1.2 I-3.413 J0
X28.413 Y25 Z-1.8 I3.413 J0
X21.587 Y25 Z-2.4 I-3.413 J0
X28.413 Y25 Z-3 I3.413 J0
X21.587 Y25 Z-3.6 I-3.413 J0
X28.413 Y25 Z-4.2 I3.413 J0
X21.587 Y25 Z-4.8 I-3.413 J0
X28.412 Y25 Z-5.4 I3.413 J0
X21.588 Y25 Z-6 I-3.412 J0
X28.412 Y25 Z-6.6 I3.412 J0
X21.588 Y25 Z-7.2 I-3.412 J0
X28.412 Y25 Z-7.8 I3.412 J0
X21.588 Y25 Z-8.4 I-3.412 J0
X28.412 Y25 Z-9 I3.412 J0
X21.588 Y25 Z-9.6 I-3.412 J0
X28.412 Y25 Z-10.2 I3.412 J0
X21.588 Y25 Z-10.8 I-3.412 J0
X28.412 Y25 Z-11.4 I3.412 J0
X21.588 Y25 Z-12 I-3.412 J0
X28.412 Y25 Z-12.6 I3.412 J0
X21.588 Y25 Z-13.2 I-3.412 J0
X28.412 Y25 Z-13.8 I3.412 J0
X21.588 Y25 Z-14.4 I-3.412 J0
X28.412 Y25 Z-15 I3.412 J0
X21.588 Y25 Z-15.6 I-3.412 J0
X28.412 Y25 Z-16.2 I3.412 J0
X21.588 Y25 Z-16.8 I-3.412 J0
X28.412 Y25 Z-17.4 I3.412 J0
X21.588 Y25 Z-18 I-3.412 J0
X28.412 Y25 Z-18.6 I3.412 J0
X21.588 Y25 Z-19.2 I-3.412 J0
X28.412 Y25 Z-19.8 I3.412 J0
X26.706 Y27.955 Z-20 I-3.412 J0
X23.294 Y22.045 I-1.706 J-2.955
X26.706 Y27.955 I1.706 J2.955
X26.273 Y27.839 I-0.159 J-0.275
G1 X26.193 Y27.702
X26.158 Y27.64 Z-19.992
X26.124 Y27.582 Z-19.969
X26.094 Y27.53 Z-19.931
X26.069 Y27.487 Z-19.88
X26.05 Y27.454 Z-19.82
X26.038 Y27.434 Z-19.753
X26.034 Y27.427 Z-19.683
G0 Z5
X58.096 Y25.317
Z2
G1 Z0.317 F3000
G18 G3 X57.778 Z0 I-0.318 K0
G1 X57.619
G17 G3 X57.302 Y25 I0 J-0.317
X64.127 Y25 Z-0.6 I3.413 J0
X57.302 Y25 Z-1.2 I-3.413 J0
X64.127 Y25 Z-1.8 I3.413 J0
X57.302 Y25 Z-2.4 I-3.413 J0
X64.127 Y25 Z-3 I3.413 J0
X57.302 Y25 Z-3.6 I-3.413 J0
X64.127 Y25 Z-4.2 I3.413 J0
X57.302 Y25 Z-4.8 I-3.413 J0
X64.127 Y25 Z-5.4 I3.413 J0
X57.302 Y25 Z-6 I-3.413 J0
X64.127 Y25 Z-6.6 I3.413 J0
X57.302 Y25 Z-7.2 I-3.413 J0
X64.127 Y25 Z-7.8 I3.413 J0
X57.302 Y25 Z-8.4 I-3.413 J0
X64.127 Y25 Z-9 I3.413 J0
X57.302 Y25 Z-9.6 I-3.413 J0
X64.127 Y25 Z-10.2 I3.413 J0
X57.302 Y25 Z-10.8 I-3.413 J0
X64.127 Y25 Z-11.4 I3.413 J0
X57.302 Y25 Z-12 I-3.413 J0
X64.127 Y25 Z-12.6 I3.413 J0
X57.302 Y25 Z-13.2 I-3.413 J0
X64.127 Y25 Z-13.8 I3.413 J0
X57.302 Y25 Z-14.4 I-3.412 J0
X64.127 Y25 Z-15 I3.412 J0
X57.302 Y25 Z-15.6 I-3.412 J0
X64.127 Y25 Z-16.2 I3.412 J0
X57.302 Y25 Z-16.8 I-3.412 J0
X64.127 Y25 Z-17.4 I3.412 J0
X57.302 Y25 Z-18 I-3.412 J0
X64.127 Y25 Z-18.6 I3.412 J0
X57.302 Y25 Z-19.2 I-3.412 J0
X64.127 Y25 Z-19.8 I3.412 J0
X62.421 Y27.955 Z-20 I-3.412 J0
X59.008 Y22.045 I-1.706 J-2.955
X62.421 Y27.955 I1.706 J2.955
X61.987 Y27.839 I-0.159 J-0.275
G1 X61.907 Y27.702
X61.872 Y27.64 Z-19.992
X61.839 Y27.582 Z-19.969
X61.808 Y27.53 Z-19.931
X61.783 Y27.487 Z-19.88
X61.764 Y27.454 Z-19.82
X61.753 Y27.434 Z-19.753
X61.749 Y27.427 Z-19.683
G0 Z5
X93.81 Y25.317
Z2
G1 Z0.317 F3000
G18 G3 X93.492 Z0 I-0.317 K0
G1 X93.334
G17 G3 X93.016 Y25 I0 J-0.317
X99.841 Y25 Z-0.6 I3.412 J0
X93.016 Y25 Z-1.2 I-3.412 J0
X99.841 Y25 Z-1.8 I3.412 J0
X93.016 Y25 Z-2.4 I-3.412 J0
X99.841 Y25 Z-3 I3.412 J0
X93.016 Y25 Z-3.6 I-3.412 J0
X99.841 Y25 Z-4.2 I3.412 J0
X93.016 Y25 Z-4.8 I-3.412 J0
X99.841 Y25 Z-5.4 I3.412 J0
X93.016 Y25 Z-6 I-3.412 J0
X99.841 Y25 Z-6.6 I3.412 J0
X93.016 Y25 Z-7.2 I-3.412 J0
X99.841 Y25 Z-7.8 I3.412 J0
X93.016 Y25 Z-8.4 I-3.412 J0
X99.841 Y25 Z-9 I3.412 J0
X93.016 Y25 Z-9.6 I-3.412 J0
X99.841 Y25 Z-10.2 I3.412 J0
X93.016 Y25 Z-10.8 I-3.412 J0
X99.841 Y25 Z-11.4 I3.412 J0
X93.016 Y25 Z-12 I-3.412 J0
X99.841 Y25 Z-12.6 I3.412 J0
X93.016 Y25 Z-13.2 I-3.412 J0
X99.841 Y25 Z-13.8 I3.412 J0
X93.016 Y25 Z-14.4 I-3.412 J0
X99.841 Y25 Z-15 I3.412 J0
X93.016 Y25 Z-15.6 I-3.412 J0
X99.841 Y25 Z-16.2 I3.412 J0
X93.016 Y25 Z-16.8 I-3.412 J0
X99.841 Y25 Z-17.4 I3.412 J0
X93.016 Y25 Z-18 I-3.412 J0
X99.841 Y25 Z-18.6 I3.412 J0
X93.016 Y25 Z-19.2 I-3.412 J0
X99.841 Y25 Z-19.8 I3.412 J0
X98.135 Y27.955 Z-20 I-3.412 J0
X94.722 Y22.045 I-1.706 J-2.955
X98.135 Y27.955 I1.706 J2.955
X97.701 Y27.839 I-0.159 J-0.275
G1 X97.622 Y27.702
X97.586 Y27.64 Z-19.992
X97.553 Y27.582 Z-19.969
X97.523 Y27.53 Z-19.931
X97.498 Y27.487 Z-19.88
X97.479 Y27.454 Z-19.82
X97.467 Y27.434 Z-19.753
X97.463 Y27.427 Z-19.683
G0 Z5
X129.524 Y25.317
Z2
G1 Z0.317 F3000
G18 G3 X129.207 Z0 I-0.318 K0
G1 X129.048
G17 G3 X128.73 Y25 I0 J-0.317
X135.555 Y25 Z-0.6 I3.412 J0
X128.73 Y25 Z-1.2 I-3.412 J0
X135.555 Y25 Z-1.8 I3.412 J0
X128.73 Y25 Z-2.4 I-3.412 J0
X135.555 Y25 Z-3 I3.412 J0
X128.73 Y25 Z-3.6 I-3.412 J0
X135.555 Y25 Z-4.2 I3.412 J0
X128.73 Y25 Z-4.8 I-3.412 J0
X135.555 Y25 Z-5.4 I3.412 J0
X128.73 Y25 Z-6 I-3.412 J0
X135.555 Y25 Z-6.6 I3.412 J0
X128.73 Y25 Z-7.2 I-3.412 J0
X135.555 Y25 Z-7.8 I3.412 J0
X128.73 Y25 Z-8.4 I-3.412 J0
X135.555 Y25 Z-9 I3.412 J0
X128.73 Y25 Z-9.6 I-3.412 J0
X135.555 Y25 Z-10.2 I3.412 J0
X128.73 Y25 Z-10.8 I-3.412 J0
X135.555 Y25 Z-11.4 I3.412 J0
X128.73 Y25 Z-12 I-3.412 J0
X135.555 Y25 Z-12.6 I3.412 J0
X128.73 Y25 Z-13.2 I-3.412 J0
X135.555 Y25 Z-13.8 I3.412 J0
X128.73 Y25 Z-14.4 I-3.412 J0
X135.555 Y25 Z-15 I3.412 J0
X128.73 Y25 Z-15.6 I-3.412 J0
X135.555 Y25 Z-16.2 I3.412 J0
X128.73 Y25 Z-16.8 I-3.412 J0
X135.555 Y25 Z-17.4 I3.412 J0
X128.73 Y25 Z-18 I-3.412 J0
X135.555 Y25 Z-18.6 I3.412 J0
X128.73 Y25 Z-19.2 I-3.413 J0
X135.555 Y25 Z-19.8 I3.413 J0
X133.849 Y27.955 Z-20 I-3.413 J0
X130.437 Y22.045 I-1.706 J-2.955
X133.849 Y27.955 I1.706 J2.955
X133.415 Y27.839 I-0.159 J-0.275
G1 X133.336 Y27.702
X133.301 Y27.64 Z-19.992
X133.267 Y27.582 Z-19.969
X133.237 Y27.53 Z-19.931
X133.212 Y27.487 Z-19.88
X133.193 Y27.454 Z-19.82
X133.181 Y27.434 Z-19.753
X133.177 Y27.427 Z-19.683
G0 Z5
X165.238 Y25.317
Z2
G1 Z0.317 F3000
G18 G3 X164.921 Z0 I-0.317 K0
G1 X164.762
G17 G3 X164.445 Y25 I0 J-0.317
X171.27 Y25 Z-0.6 I3.413 J0
X164.445 Y25 Z-1.2 I-3.413 J0
X171.27 Y25 Z-1.8 I3.413 J0
X164.445 Y25 Z-2.4 I-3.413 J0
X171.27 Y25 Z-3 I3.413 J0
X164.445 Y25 Z-3.6 I-3.413 J0
X171.27 Y25 Z-4.2 I3.413 J0
X164.445 Y25 Z-4.8 I-3.413 J0
X171.27 Y25 Z-5.4 I3.413 J0
X164.445 Y25 Z-6 I-3.413 J0
X171.27 Y25 Z-6.6 I3.413 J0
X164.445 Y25 Z-7.2 I-3.413 J0
X171.27 Y25 Z-7.8 I3.413 J0
X164.445 Y25 Z-8.4 I-3.413 J0
X171.27 Y25 Z-9 I3.413 J0
X164.445 Y25 Z-9.6 I-3.413 J0
X171.27 Y25 Z-10.2 I3.413 J0
X164.445 Y25 Z-10.8 I-3.413 J0
X171.27 Y25 Z-11.4 I3.413 J0
X164.445 Y25 Z-12 I-3.413 J0
X171.27 Y25 Z-12.6 I3.413 J0
X164.445 Y25 Z-13.2 I-3.413 J0
X171.27 Y25 Z-13.8 I3.413 J0
X164.445 Y25 Z-14.4 I-3.413 J0
X171.27 Y25 Z-15 I3.413 J0
X164.445 Y25 Z-15.6 I-3.413 J0
X171.27 Y25 Z-16.2 I3.413 J0
X164.445 Y25 Z-16.8 I-3.413 J0
X171.27 Y25 Z-17.4 I3.413 J0
X164.445 Y25 Z-18 I-3.413 J0
X171.27 Y25 Z-18.6 I3.413 J0
X164.445 Y25 Z-19.2 I-3.413 J0
X171.27 Y25 Z-19.8 I3.413 J0
X169.563 Y27.955 Z-20 I-3.413 J0
X166.151 Y22.045 I-1.706 J-2.955
X169.563 Y27.955 I1.706 J2.955
X169.13 Y27.839 I-0.159 J-0.275
G1 X169.05 Y27.702
X169.015 Y27.64 Z-19.992
X168.981 Y27.582 Z-19.969
X168.951 Y27.53 Z-19.931
X168.926 Y27.487 Z-19.88
X168.907 Y27.454 Z-19.82
X168.896 Y27.434 Z-19.753
X168.892 Y27.427 Z-19.683
G0 Z5
X200.953 Y25.317
Z2
G1 Z0.317 F3000
G18 G3 X200.635 Z0 I-0.318 K0
G1 X200.476
G17 G3 X200.159 Y25 I0 J-0.317
X206.984 Y25 Z-0.6 I3.412 J0
X200.159 Y25 Z-1.2 I-3.412 J0
X206.984 Y25 Z-1.8 I3.412 J0
X200.159 Y25 Z-2.4 I-3.412 J0
X206.984 Y25 Z-3 I3.412 J0
X200.159 Y25 Z-3.6 I-3.412 J0
X206.984 Y25 Z-4.2 I3.412 J0
X200.159 Y25 Z-4.8 I-3.412 J0
X206.984 Y25 Z-5.4 I3.412 J0
X200.159 Y25 Z-6 I-3.412 J0
X206.984 Y25 Z-6.6 I3.412 J0
X200.159 Y25 Z-7.2 I-3.412 J0
X206.984 Y25 Z-7.8 I3.412 J0
X200.159 Y25 Z-8.4 I-3.412 J0
X206.984 Y25 Z-9 I3.412 J0
X200.159 Y25 Z-9.6 I-3.412 J0
X206.984 Y25 Z-10.2 I3.412 J0
X200.159 Y25 Z-10.8 I-3.412 J0
X206.984 Y25 Z-11.4 I3.412 J0
X200.159 Y25 Z-12 I-3.412 J0
X206.984 Y25 Z-12.6 I3.412 J0
X200.159 Y25 Z-13.2 I-3.412 J0
X206.984 Y25 Z-13.8 I3.412 J0
X200.159 Y25 Z-14.4 I-3.412 J0
X206.984 Y25 Z-15 I3.412 J0
X200.159 Y25 Z-15.6 I-3.412 J0
X206.984 Y25 Z-16.2 I3.412 J0
X200.159 Y25 Z-16.8 I-3.412 J0
X206.984 Y25 Z-17.4 I3.412 J0
X200.159 Y25 Z-18 I-3.412 J0
X206.984 Y25 Z-18.6 I3.412 J0
X200.159 Y25 Z-19.2 I-3.413 J0
X206.984 Y25 Z-19.8 I3.413 J0
X205.278 Y27.955 Z-20 I-3.413 J0
X201.865 Y22.045 I-1.706 J-2.955
X205.278 Y27.955 I1.706 J2.955
X204.844 Y27.839 I-0.159 J-0.275
G1 X204.765 Y27.702
X204.729 Y27.64 Z-19.992
X204.696 Y27.582 Z-19.969
X204.666 Y27.53 Z-19.931
X204.64 Y27.487 Z-19.88
X204.622 Y27.454 Z-19.82
X204.61 Y27.434 Z-19.753
X204.606 Y27.427 Z-19.683
G0 Z5
X236.667 Y25.317
Z2
G1 Z0.317 F3000
G18 G3 X236.349 Z0 I-0.318 K0
G1 X236.191
G17 G3 X235.873 Y25 I0 J-0.317
X242.698 Y25 Z-0.6 I3.413 J0
X235.873 Y25 Z-1.2 I-3.413 J0
X242.698 Y25 Z-1.8 I3.413 J0
X235.873 Y25 Z-2.4 I-3.413 J0
X242.698 Y25 Z-3 I3.413 J0
X235.873 Y25 Z-3.6 I-3.413 J0
X242.698 Y25 Z-4.2 I3.413 J0
X235.873 Y25 Z-4.8 I-3.413 J0
X242.698 Y25 Z-5.4 I3.413 J0
X235.873 Y25 Z-6 I-3.413 J0
X242.698 Y25 Z-6.6 I3.413 J0
X235.873 Y25 Z-7.2 I-3.413 J0
X242.698 Y25 Z-7.8 I3.413 J0
X235.873 Y25 Z-8.4 I-3.413 J0
X242.698 Y25 Z-9 I3.413 J0
X235.873 Y25 Z-9.6 I-3.413 J0
X242.698 Y25 Z-10.2 I3.412 J0
X235.873 Y25 Z-10.8 I-3.412 J0
X242.698 Y25 Z-11.4 I3.412 J0
X235.873 Y25 Z-12 I-3.412 J0
X242.698 Y25 Z-12.6 I3.412 J0
X235.873 Y25 Z-13.2 I-3.412 J0
X242.698 Y25 Z-13.8 I3.412 J0
X235.873 Y25 Z-14.4 I-3.412 J0
X242.698 Y25 Z-15 I3.412 J0
X235.873 Y25 Z-15.6 I-3.412 J0
X242.698 Y25 Z-16.2 I3.412 J0
X235.873 Y25 Z-16.8 I-3.412 J0
X242.698 Y25 Z-17.4 I3.412 J0
X235.873 Y25 Z-18 I-3.412 J0
X242.698 Y25 Z-18.6 I3.412 J0
X235.873 Y25 Z-19.2 I-3.412 J0
X242.698 Y25 Z-19.8 I3.412 J0
X240.992 Y27.955 Z-20 I-3.412 J0
X237.579 Y22.045 I-1.706 J-2.955
X240.992 Y27.955 I1.706 J2.955
X240.558 Y27.839 I-0.159 J-0.275
G1 X240.479 Y27.702
X240.444 Y27.64 Z-19.992
X240.41 Y27.582 Z-19.969
X240.38 Y27.53 Z-19.931
X240.355 Y27.487 Z-19.88
X240.336 Y27.454 Z-19.82
X240.324 Y27.434 Z-19.753
X240.32 Y27.427 Z-19.683
G0 Z5
X272.381 Y25.317
Z2
G1 Z0.317 F3000
G18 G3 X272.064 Z0 I-0.318 K0
G1 X271.905
G17 G3 X271.587 Y25 I0 J-0.317
X278.413 Y25 Z-0.6 I3.413 J0
X271.587 Y25 Z-1.2 I-3.413 J0
X278.413 Y25 Z-1.8 I3.413 J0
X271.587 Y25 Z-2.4 I-3.413 J0
X278.413 Y25 Z-3 I3.413 J0
X271.587 Y25 Z-3.6 I-3.413 J0
X278.413 Y25 Z-4.2 I3.413 J0
X271.587 Y25 Z-4.8 I-3.413 J0
X278.413 Y25 Z-5.4 I3.413 J0
X271.587 Y25 Z-6 I-3.413 J0
X278.413 Y25 Z-6.6 I3.413 J0
X271.587 Y25 Z-7.2 I-3.413 J0
X278.413 Y25 Z-7.8 I3.413 J0
X271.587 Y25 Z-8.4 I-3.413 J0
X278.413 Y25 Z-9 I3.413 J0
X271.588 Y25 Z-9.6 I-3.413 J0
X278.412 Y25 Z-10.2 I3.412 J0
X271.588 Y25 Z-10.8 I-3.412 J0
X278.412 Y25 Z-11.4 I3.412 J0
X271.588 Y25 Z-12 I-3.412 J0
X278.412 Y25 Z-12.6 I3.412 J0
X271.588 Y25 Z-13.2 I-3.412 J0
X278.412 Y25 Z-13.8 I3.412 J0
X271.588 Y25 Z-14.4 I-3.412 J0
X278.412 Y25 Z-15 I3.412 J0
X271.588 Y25 Z-15.6 I-3.412 J0
X278.412 Y25 Z-16.2 I3.412 J0
X271.588 Y25 Z-16.8 I-3.412 J0
X278.412 Y25 Z-17.4 I3.412 J0
X271.588 Y25 Z-18 I-3.412 J0
X278.412 Y25 Z-18.6 I3.412 J0
X271.588 Y25 Z-19.2 I-3.412 J0
X278.412 Y25 Z-19.8 I3.412 J0
X276.706 Y27.955 Z-20 I-3.412 J0
X273.294 Y22.045 I-1.706 J-2.955
X276.706 Y27.955 I1.706 J2.955
X276.273 Y27.839 I-0.159 J-0.275
G1 X276.193 Y27.702
X276.158 Y27.64 Z-19.992
X276.124 Y27.582 Z-19.969
X276.094 Y27.53 Z-19.931
X276.069 Y27.487 Z-19.88
X276.05 Y27.454 Z-19.82
X276.038 Y27.434 Z-19.753
X276.034 Y27.427 Z-19.683
G0 Z5
X272.381 Y62.818
Z2
G1 Z0.317 F3000
G18 G3 X272.064 Z0 I-0.318 K0
G1 X271.905
G17 G3 X271.587 Y62.5 I0 J-0.318
X278.413 Y62.5 Z-0.6 I3.413 J0
X271.587 Y62.5 Z-1.2 I-3.413 J0
X278.413 Y62.5 Z-1.8 I3.413 J0
X271.587 Y62.5 Z-2.4 I-3.413 J0
X278.413 Y62.5 Z-3 I3.413 J0
X271.587 Y62.5 Z-3.6 I-3.413 J0
X278.413 Y62.5 Z-4.2 I3.413 J0
X271.587 Y62.5 Z-4.8 I-3.413 J0
X278.413 Y62.5 Z-5.4 I3.413 J0
X271.587 Y62.5 Z-6 I-3.413 J0
X278.413 Y62.5 Z-6.6 I3.413 J0
X271.587 Y62.5 Z-7.2 I-3.413 J0
X278.413 Y62.5 Z-7.8 I3.413 J0
X271.587 Y62.5 Z-8.4 I-3.413 J0
X278.413 Y62.5 Z-9 I3.413 J0
X271.587 Y62.5 Z-9.6 I-3.413 J0
X278.413 Y62.5 Z-10.2 I3.413 J0
X271.587 Y62.5 Z-10.8 I-3.413 J0
X278.413 Y62.5 Z-11.4 I3.413 J0
X271.587 Y62.5 Z-12 I-3.413 J0
X278.413 Y62.5 Z-12.6 I3.413 J0
X271.588 Y62.5 Z-13.2 I-3.413 J0
X278.412 Y62.5 Z-13.8 I3.412 J0
X271.588 Y62.5 Z-14.4 I-3.412 J0
X278.412 Y62.5 Z-15 I3.412 J0
X271.588 Y62.5 Z-15.6 I-3.412 J0
X278.412 Y62.5 Z-16.2 I3.412 J0
X271.588 Y62.5 Z-16.8 I-3.412 J0
X278.412 Y62.5 Z-17.4 I3.412 J0
X271.588 Y62.5 Z-18 I-3.412 J0
X278.412 Y62.5 Z-18.6 I3.412 J0
X271.588 Y62.5 Z-19.2 I-3.412 J0
X278.412 Y62.5 Z-19.8 I3.412 J0
X276.706 Y65.455 Z-20 I-3.412 J0
X273.294 Y59.545 I-1.706 J-2.955
X276.706 Y65.455 I1.706 J2.955
X276.273 Y65.339 I-0.159 J-0.275
G1 X276.193 Y65.202
X276.158 Y65.14 Z-19.992
X276.124 Y65.082 Z-19.969
X276.094 Y65.03 Z-19.931
X276.069 Y64.987 Z-19.88
X276.05 Y64.954 Z-19.82
X276.038 Y64.934 Z-19.753
X276.034 Y64.927 Z-19.683
G0 Z5
X236.667 Y62.818
Z2
G1 Z0.317 F3000
G18 G3 X236.349 Z0 I-0.318 K0
G1 X236.191
G17 G3 X235.873 Y62.5 I0 J-0.318
X242.698 Y62.5 Z-0.6 I3.413 J0
X235.873 Y62.5 Z-1.2 I-3.413 J0
X242.698 Y62.5 Z-1.8 I3.413 J0
X235.873 Y62.5 Z-2.4 I-3.413 J0
X242.698 Y62.5 Z-3 I3.413 J0
X235.873 Y62.5 Z-3.6 I-3.413 J0
X242.698 Y62.5 Z-4.2 I3.413 J0
X235.873 Y62.5 Z-4.8 I-3.413 J0
X242.698 Y62.5 Z-5.4 I3.413 J0
X235.873 Y62.5 Z-6 I-3.413 J0
X242.698 Y62.5 Z-6.6 I3.413 J0
X235.873 Y62.5 Z-7.2 I-3.413 J0
X242.698 Y62.5 Z-7.8 I3.413 J0
X235.873 Y62.5 Z-8.4 I-3.413 J0
X242.698 Y62.5 Z-9 I3.413 J0
X235.873 Y62.5 Z-9.6 I-3.413 J0
X242.698 Y62.5 Z-10.2 I3.413 J0
X235.873 Y62.5 Z-10.8 I-3.413 J0
X242.698 Y62.5 Z-11.4 I3.413 J0
X235.873 Y62.5 Z-12 I-3.413 J0
X242.698 Y62.5 Z-12.6 I3.413 J0
X235.873 Y62.5 Z-13.2 I-3.413 J0
X242.698 Y62.5 Z-13.8 I3.412 J0
X235.873 Y62.5 Z-14.4 I-3.412 J0
X242.698 Y62.5 Z-15 I3.412 J0
X235.873 Y62.5 Z-15.6 I-3.412 J0
X242.698 Y62.5 Z-16.2 I3.412 J0
X235.873 Y62.5 Z-16.8 I-3.412 J0
X242.698 Y62.5 Z-17.4 I3.412 J0
X235.873 Y62.5 Z-18 I-3.412 J0
X242.698 Y62.5 Z-18.6 I3.412 J0
X235.873 Y62.5 Z-19.2 I-3.412 J0
X242.698 Y62.5 Z-19.8 I3.412 J0
X240.992 Y65.455 Z-20 I-3.412 J0
X237.579 Y59.545 I-1.706 J-2.955
X240.992 Y65.455 I1.706 J2.955
X240.558 Y65.339 I-0.159 J-0.275
G1 X240.479 Y65.202
X240.444 Y65.14 Z-19.992
X240.41 Y65.082 Z-19.969
X240.38 Y65.03 Z-19.931
X240.355 Y64.987 Z-19.88
X240.336 Y64.954 Z-19.82
X240.324 Y64.934 Z-19.753
X240.32 Y64.927 Z-19.683
G0 Z5
X200.953 Y62.818
Z2
G1 Z0.317 F3000
G18 G3 X200.635 Z0 I-0.318 K0
G1 X200.476
G17 G3 X200.159 Y62.5 I0 J-0.318
X206.984 Y62.5 Z-0.6 I3.412 J0
X200.159 Y62.5 Z-1.2 I-3.412 J0
X206.984 Y62.5 Z-1.8 I3.412 J0
X200.159 Y62.5 Z-2.4 I-3.412 J0
X206.984 Y62.5 Z-3 I3.412 J0
X200.159 Y62.5 Z-3.6 I-3.412 J0
X206.984 Y62.5 Z-4.2 I3.412 J0
X200.159 Y62.5 Z-4.8 I-3.412 J0
X206.984 Y62.5 Z-5.4 I3.412 J0
X200.159 Y62.5 Z-6 I-3.412 J0
X206.984 Y62.5 Z-6.6 I3.412 J0
X200.159 Y62.5 Z-7.2 I-3.412 J0
X206.984 Y62.5 Z-7.8 I3.412 J0
X200.159 Y62.5 Z-8.4 I-3.412 J0
X206.984 Y62.5 Z-9 I3.412 J0
X200.159 Y62.5 Z-9.6 I-3.412 J0
X206.984 Y62.5 Z-10.2 I3.412 J0
X200.159 Y62.5 Z-10.8 I-3.412 J0
X206.984 Y62.5 Z-11.4 I3.412 J0
X200.159 Y62.5 Z-12 I-3.412 J0
X206.984 Y62.5 Z-12.6 I3.412 J0
X200.159 Y62.5 Z-13.2 I-3.412 J0
X206.984 Y62.5 Z-13.8 I3.412 J0
X200.159 Y62.5 Z-14.4 I-3.412 J0
X206.984 Y62.5 Z-15 I3.413 J0
X200.159 Y62.5 Z-15.6 I-3.413 J0
X206.984 Y62.5 Z-16.2 I3.413 J0
X200.159 Y62.5 Z-16.8 I-3.413 J0
X206.984 Y62.5 Z-17.4 I3.413 J0
X200.159 Y62.5 Z-18 I-3.413 J0
X206.984 Y62.5 Z-18.6 I3.413 J0
X200.159 Y62.5 Z-19.2 I-3.413 J0
X206.984 Y62.5 Z-19.8 I3.413 J0
X205.278 Y65.455 Z-20 I-3.413 J0
X201.865 Y59.545 I-1.706 J-2.955
X205.278 Y65.455 I1.706 J2.955
X204.844 Y65.339 I-0.159 J-0.275
G1 X204.765 Y65.202
X204.729 Y65.14 Z-19.992
X204.696 Y65.082 Z-19.969
X204.666 Y65.03 Z-19.931
X204.64 Y64.987 Z-19.88
X204.622 Y64.954 Z-19.82
X204.61 Y64.934 Z-19.753
X204.606 Y64.927 Z-19.683
G0 Z5
X165.238 Y62.818
Z2
G1 Z0.317 F3000
G18 G3 X164.921 Z0 I-0.317 K0
G1 X164.762
G17 G3 X164.445 Y62.5 I0 J-0.318
X171.27 Y62.5 Z-0.6 I3.413 J0
X164.445 Y62.5 Z-1.2 I-3.413 J0
X171.27 Y62.5 Z-1.8 I3.413 J0
X164.445 Y62.5 Z-2.4 I-3.413 J0
X171.27 Y62.5 Z-3 I3.413 J0
X164.445 Y62.5 Z-3.6 I-3.413 J0
X171.27 Y62.5 Z-4.2 I3.413 J0
X164.445 Y62.5 Z-4.8 I-3.413 J0
X171.27 Y62.5 Z-5.4 I3.413 J0
X164.445 Y62.5 Z-6 I-3.413 J0
X171.27 Y62.5 Z-6.6 I3.413 J0
X164.445 Y62.5 Z-7.2 I-3.413 J0
X171.27 Y62.5 Z-7.8 I3.413 J0
X164.445 Y62.5 Z-8.4 I-3.413 J0
X171.27 Y62.5 Z-9 I3.413 J0
X164.445 Y62.5 Z-9.6 I-3.413 J0
X171.27 Y62.5 Z-10.2 I3.413 J0
X164.445 Y62.5 Z-10.8 I-3.413 J0
X171.27 Y62.5 Z-11.4 I3.413 J0
X164.445 Y62.5 Z-12 I-3.413 J0
X171.27 Y62.5 Z-12.6 I3.413 J0
X164.445 Y62.5 Z-13.2 I-3.413 J0
X171.27 Y62.5 Z-13.8 I3.413 J0
X164.445 Y62.5 Z-14.4 I-3.413 J0
X171.27 Y62.5 Z-15 I3.413 J0
X164.445 Y62.5 Z-15.6 I-3.413 J0
X171.27 Y62.5 Z-16.2 I3.413 J0
X164.445 Y62.5 Z-16.8 I-3.413 J0
X171.27 Y62.5 Z-17.4 I3.413 J0
X164.445 Y62.5 Z-18 I-3.413 J0
X171.27 Y62.5 Z-18.6 I3.413 J0
X164.445 Y62.5 Z-19.2 I-3.413 J0
X171.27 Y62.5 Z-19.8 I3.413 J0
X169.563 Y65.455 Z-20 I-3.413 J0
X166.151 Y59.545 I-1.706 J-2.955
X169.563 Y65.455 I1.706 J2.955
X169.13 Y65.339 I-0.159 J-0.275
G1 X169.05 Y65.202
X169.015 Y65.14 Z-19.992
X168.981 Y65.082 Z-19.969
X168.951 Y65.03 Z-19.931
X168.926 Y64.987 Z-19.88
X168.907 Y64.954 Z-19.82
X168.896 Y64.934 Z-19.753
X168.892 Y64.927 Z-19.683
G0 Z5
X129.524 Y62.818
Z2
G1 Z0.317 F3000
G18 G3 X129.207 Z0 I-0.318 K0
G1 X129.048
G17 G3 X128.73 Y62.5 I0 J-0.318
X135.555 Y62.5 Z-0.6 I3.412 J0
X128.73 Y62.5 Z-1.2 I-3.412 J0
X135.555 Y62.5 Z-1.8 I3.412 J0
X128.73 Y62.5 Z-2.4 I-3.412 J0
X135.555 Y62.5 Z-3 I3.412 J0
X128.73 Y62.5 Z-3.6 I-3.412 J0
X135.555 Y62.5 Z-4.2 I3.412 J0
X128.73 Y62.5 Z-4.8 I-3.412 J0
X135.555 Y62.5 Z-5.4 I3.412 J0
X128.73 Y62.5 Z-6 I-3.412 J0
X135.555 Y62.5 Z-6.6 I3.412 J0
X128.73 Y62.5 Z-7.2 I-3.412 J0
X135.555 Y62.5 Z-7.8 I3.412 J0
X128.73 Y62.5 Z-8.4 I-3.412 J0
X135.555 Y62.5 Z-9 I3.412 J0
X128.73 Y62.5 Z-9.6 I-3.412 J0
X135.555 Y62.5 Z-10.2 I3.412 J0
X128.73 Y62.5 Z-10.8 I-3.412 J0
X135.555 Y62.5 Z-11.4 I3.412 J0
X128.73 Y62.5 Z-12 I-3.412 J0
X135.555 Y62.5 Z-12.6 I3.412 J0
X128.73 Y62.5 Z-13.2 I-3.412 J0
X135.555 Y62.5 Z-13.8 I3.412 J0
X128.73 Y62.5 Z-14.4 I-3.412 J0
X135.555 Y62.5 Z-15 I3.413 J0
X128.73 Y62.5 Z-15.6 I-3.413 J0
X135.555 Y62.5 Z-16.2 I3.413 J0
X128.73 Y62.5 Z-16.8 I-3.413 J0
X135.555 Y62.5 Z-17.4 I3.413 J0
X128.73 Y62.5 Z-18 I-3.413 J0
X135.555 Y62.5 Z-18.6 I3.413 J0
X128.73 Y62.5 Z-19.2 I-3.413 J0
X135.555 Y62.5 Z-19.8 I3.413 J0
X133.849 Y65.455 Z-20 I-3.413 J0
X130.437 Y59.545 I-1.706 J-2.955
X133.849 Y65.455 I1.706 J2.955
X133.415 Y65.339 I-0.159 J-0.275
G1 X133.336 Y65.202
X133.301 Y65.14 Z-19.992
X133.267 Y65.082 Z-19.969
X133.237 Y65.03 Z-19.931
X133.212 Y64.987 Z-19.88
X133.193 Y64.954 Z-19.82
X133.181 Y64.934 Z-19.753
X133.177 Y64.927 Z-19.683
G0 Z5
X93.81 Y62.818
Z2
G1 Z0.317 F3000
G18 G3 X93.492 Z0 I-0.317 K0
G1 X93.334
G17 G3 X93.016 Y62.5 I0 J-0.318
X99.841 Y62.5 Z-0.6 I3.412 J0
X93.016 Y62.5 Z-1.2 I-3.412 J0
X99.841 Y62.5 Z-1.8 I3.412 J0
X93.016 Y62.5 Z-2.4 I-3.412 J0
X99.841 Y62.5 Z-3 I3.412 J0
X93.016 Y62.5 Z-3.6 I-3.412 J0
X99.841 Y62.5 Z-4.2 I3.412 J0
X93.016 Y62.5 Z-4.8 I-3.412 J0
X99.841 Y62.5 Z-5.4 I3.412 J0
X93.016 Y62.5 Z-6 I-3.412 J0
X99.841 Y62.5 Z-6.6 I3.412 J0
X93.016 Y62.5 Z-7.2 I-3.412 J0
X99.841 Y62.5 Z-7.8 I3.412 J0
X93.016 Y62.5 Z-8.4 I-3.412 J0
X99.841 Y62.5 Z-9 I3.412 J0
X93.016 Y62.5 Z-9.6 I-3.412 J0
X99.841 Y62.5 Z-10.2 I3.412 J0
X93.016 Y62.5 Z-10.8 I-3.412 J0
X99.841 Y62.5 Z-11.4 I3.412 J0
X93.016 Y62.5 Z-12 I-3.412 J0
X99.841 Y62.5 Z-12.6 I3.412 J0
X93.016 Y62.5 Z-13.2 I-3.412 J0
X99.841 Y62.5 Z-13.8 I3.412 J0
X93.016 Y62.5 Z-14.4 I-3.412 J0
X99.841 Y62.5 Z-15 I3.412 J0
X93.016 Y62.5 Z-15.6 I-3.412 J0
X99.841 Y62.5 Z-16.2 I3.412 J0
X93.016 Y62.5 Z-16.8 I-3.412 J0
X99.841 Y62.5 Z-17.4 I3.412 J0
X93.016 Y62.5 Z-18 I-3.413 J0
X99.841 Y62.5 Z-18.6 I3.413 J0
X93.016 Y62.5 Z-19.2 I-3.413 J0
X99.841 Y62.5 Z-19.8 I3.413 J0
X98.135 Y65.455 Z-20 I-3.413 J0
X94.722 Y59.545 I-1.706 J-2.955
X98.135 Y65.455 I1.706 J2.955
X97.701 Y65.339 I-0.159 J-0.275
G1 X97.622 Y65.202
X97.586 Y65.14 Z-19.992
X97.553 Y65.082 Z-19.969
X97.523 Y65.03 Z-19.931
X97.498 Y64.987 Z-19.88
X97.479 Y64.954 Z-19.82
X97.467 Y64.934 Z-19.753
X97.463 Y64.927 Z-19.683
G0 Z5
X58.096 Y62.818
Z2
G1 Z0.317 F3000
G18 G3 X57.778 Z0 I-0.318 K0
G1 X57.619
G17 G3 X57.302 Y62.5 I0 J-0.318
X64.127 Y62.5 Z-0.6 I3.413 J0
X57.302 Y62.5 Z-1.2 I-3.413 J0
X64.127 Y62.5 Z-1.8 I3.413 J0
X57.302 Y62.5 Z-2.4 I-3.413 J0
X64.127 Y62.5 Z-3 I3.413 J0
X57.302 Y62.5 Z-3.6 I-3.413 J0
X64.127 Y62.5 Z-4.2 I3.413 J0
X57.302 Y62.5 Z-4.8 I-3.413 J0
X64.127 Y62.5 Z-5.4 I3.413 J0
X57.302 Y62.5 Z-6 I-3.413 J0
X64.127 Y62.5 Z-6.6 I3.413 J0
X57.302 Y62.5 Z-7.2 I-3.413 J0
X64.127 Y62.5 Z-7.8 I3.413 J0
X57.302 Y62.5 Z-8.4 I-3.413 J0
X64.127 Y62.5 Z-9 I3.413 J0
X57.302 Y62.5 Z-9.6 I-3.413 J0
X64.127 Y62.5 Z-10.2 I3.413 J0
X57.302 Y62.5 Z-10.8 I-3.413 J0
X64.127 Y62.5 Z-11.4 I3.413 J0
X57.302 Y62.5 Z-12 I-3.413 J0
X64.127 Y62.5 Z-12.6 I3.413 J0
X57.302 Y62.5 Z-13.2 I-3.413 J0
X64.127 Y62.5 Z-13.8 I3.413 J0
X57.302 Y62.5 Z-14.4 I-3.413 J0
X64.127 Y62.5 Z-15 I3.413 J0
X57.302 Y62.5 Z-15.6 I-3.413 J0
X64.127 Y62.5 Z-16.2 I3.413 J0
X57.302 Y62.5 Z-16.8 I-3.413 J0
X64.127 Y62.5 Z-17.4 I3.413 J0
X57.302 Y62.5 Z-18 I-3.413 J0
X64.127 Y62.5 Z-18.6 I3.413 J0
X57.302 Y62.5 Z-19.2 I-3.413 J0
X64.127 Y62.5 Z-19.8 I3.413 J0
X62.421 Y65.455 Z-20 I-3.413 J0
X59.008 Y59.545 I-1.706 J-2.955
X62.421 Y65.455 I1.706 J2.955
X61.987 Y65.339 I-0.159 J-0.275
G1 X61.907 Y65.202
X61.872 Y65.14 Z-19.992
X61.839 Y65.082 Z-19.969
X61.808 Y65.03 Z-19.931
X61.783 Y64.987 Z-19.88
X61.764 Y64.954 Z-19.82
X61.753 Y64.934 Z-19.753
X61.749 Y64.927 Z-19.683
G0 Z5
X22.381 Y62.818
Z2
G1 Z0.317 F3000
G18 G3 X22.064 Z0 I-0.318 K0
G1 X21.905
G17 G3 X21.587 Y62.5 I0 J-0.318
X28.413 Y62.5 Z-0.6 I3.413 J0
X21.587 Y62.5 Z-1.2 I-3.413 J0
X28.413 Y62.5 Z-1.8 I3.413 J0
X21.587 Y62.5 Z-2.4 I-3.413 J0
X28.413 Y62.5 Z-3 I3.413 J0
X21.587 Y62.5 Z-3.6 I-3.413 J0
X28.413 Y62.5 Z-4.2 I3.413 J0
X21.587 Y62.5 Z-4.8 I-3.413 J0
X28.413 Y62.5 Z-5.4 I3.413 J0
X21.587 Y62.5 Z-6 I-3.413 J0
X28.413 Y62.5 Z-6.6 I3.413 J0
X21.587 Y62.5 Z-7.2 I-3.413 J0
X28.413 Y62.5 Z-7.8 I3.413 J0
X21.587 Y62.5 Z-8.4 I-3.413 J0
X28.413 Y62.5 Z-9 I3.413 J0
X21.587 Y62.5 Z-9.6 I-3.413 J0
X28.413 Y62.5 Z-10.2 I3.413 J0
X21.587 Y62.5 Z-10.8 I-3.413 J0
X28.413 Y62.5 Z-11.4 I3.413 J0
X21.587 Y62.5 Z-12 I-3.413 J0
X28.413 Y62.5 Z-12.6 I3.413 J0
X21.587 Y62.5 Z-13.2 I-3.413 J0
X28.413 Y62.5 Z-13.8 I3.413 J0
X21.587 Y62.5 Z-14.4 I-3.413 J0
X28.413 Y62.5 Z-15 I3.413 J0
X21.587 Y62.5 Z-15.6 I-3.413 J0
X28.413 Y62.5 Z-16.2 I3.413 J0
X21.587 Y62.5 Z-16.8 I-3.413 J0
X28.413 Y62.5 Z-17.4 I3.413 J0
X21.587 Y62.5 Z-18 I-3.413 J0
X28.413 Y62.5 Z-18.6 I3.413 J0
X21.587 Y62.5 Z-19.2 I-3.413 J0
X28.413 Y62.5 Z-19.8 I3.413 J0
X26.706 Y65.455 Z-20 I-3.413 J0
X23.294 Y59.545 I-1.706 J-2.955
X26.706 Y65.455 I1.706 J2.955
X26.273 Y65.339 I-0.159 J-0.275
G1 X26.193 Y65.202
X26.158 Y65.14 Z-19.992
X26.124 Y65.082 Z-19.969
X26.094 Y65.03 Z-19.931
X26.069 Y64.987 Z-19.88
X26.05 Y64.954 Z-19.82
X26.038 Y64.934 Z-19.753
X26.034 Y64.927 Z-19.683
G0 Z5
X22.381 Y100.317
Z2
G1 Z0.317 F3000
G18 G3 X22.064 Z0 I-0.318 K0
G1 X21.905
G17 G3 X21.587 Y100 I0 J-0.317
X28.413 Y100 Z-0.6 I3.413 J0
X21.587 Y100 Z-1.2 I-3.413 J0
X28.413 Y100 Z-1.8 I3.413 J0
X21.587 Y100 Z-2.4 I-3.413 J0
X28.413 Y100 Z-3 I3.413 J0
X21.587 Y100 Z-3.6 I-3.413 J0
X28.413 Y100 Z-4.2 I3.413 J0
X21.587 Y100 Z-4.8 I-3.413 J0
X28.413 Y100 Z-5.4 I3.413 J0
X21.587 Y100 Z-6 I-3.413 J0
X28.413 Y100 Z-6.6 I3.413 J0
X21.587 Y100 Z-7.2 I-3.413 J0
X28.413 Y100 Z-7.8 I3.413 J0
X21.587 Y100 Z-8.4 I-3.413 J0
X28.413 Y100 Z-9 I3.413 J0
X21.587 Y100 Z-9.6 I-3.413 J0
X28.413 Y100 Z-10.2 I3.413 J0
X21.587 Y100 Z-10.8 I-3.413 J0
X28.413 Y100 Z-11.4 I3.413 J0
X21.587 Y100 Z-12 I-3.413 J0
X28.413 Y100 Z-12.6 I3.413 J0
X21.587 Y100 Z-13.2 I-3.413 J0
X28.413 Y100 Z-13.8 I3.413 J0
X21.587 Y100 Z-14.4 I-3.413 J0
X28.413 Y100 Z-15 I3.413 J0
X21.587 Y100 Z-15.6 I-3.413 J0
X28.413 Y100 Z-16.2 I3.413 J0
X21.587 Y100 Z-16.8 I-3.413 J0
X28.413 Y100 Z-17.4 I3.413 J0
X21.587 Y100 Z-18 I-3.413 J0
X28.413 Y100 Z-18.6 I3.413 J0
X21.587 Y100 Z-19.2 I-3.413 J0
X28.413 Y100 Z-19.8 I3.413 J0
X26.706 Y102.955 Z-20 I-3.413 J0
X23.294 Y97.045 I-1.706 J-2.955
X26.706 Y102.955 I1.706 J2.955
X26.273 Y102.839 I-0.159 J-0.275
G1 X26.193 Y102.702
X26.158 Y102.64 Z-19.992
X26.124 Y102.582 Z-19.969
X26.094 Y102.53 Z-19.931
X26.069 Y102.487 Z-19.88
X26.05 Y102.454 Z-19.82
X26.038 Y102.434 Z-19.753
X26.034 Y102.427 Z-19.683
G0 Z5
X58.096 Y100.317
Z2
G1 Z0.317 F3000
G18 G3 X57.778 Z0 I-0.318 K0
G1 X57.619
G17 G3 X57.302 Y100 I0 J-0.317
X64.127 Y100 Z-0.6 I3.413 J0
X57.302 Y100 Z-1.2 I-3.413 J0
X64.127 Y100 Z-1.8 I3.413 J0
X57.302 Y100 Z-2.4 I-3.413 J0
X64.127 Y100 Z-3 I3.413 J0
X57.302 Y100 Z-3.6 I-3.413 J0
X64.127 Y100 Z-4.2 I3.413 J0
X57.302 Y100 Z-4.8 I-3.413 J0
X64.127 Y100 Z-5.4 I3.413 J0
X57.302 Y100 Z-6 I-3.413 J0
X64.127 Y100 Z-6.6 I3.413 J0
X57.302 Y100 Z-7.2 I-3.413 J0
X64.127 Y100 Z-7.8 I3.413 J0
X57.302 Y100 Z-8.4 I-3.413 J0
X64.127 Y100 Z-9 I3.413 J0
X57.302 Y100 Z-9.6 I-3.413 J0
X64.127 Y100 Z-10.2 I3.413 J0
X57.302 Y100 Z-10.8 I-3.413 J0
X64.127 Y100 Z-11.4 I3.413 J0
X57.302 Y100 Z-12 I-3.413 J0
X64.127 Y100 Z-12.6 I3.413 J0
X57.302 Y100 Z-13.2 I-3.413 J0
X64.127 Y100 Z-13.8 I3.413 J0
X57.302 Y100 Z-14.4 I-3.413 J0
X64.127 Y100 Z-15 I3.413 J0
X57.302 Y100 Z-15.6 I-3.413 J0
X64.127 Y100 Z-16.2 I3.413 J0
X57.302 Y100 Z-16.8 I-3.413 J0
X64.127 Y100 Z-17.4 I3.413 J0
X57.302 Y100 Z-18 I-3.413 J0
X64.127 Y100 Z-18.6 I3.413 J0
X57.302 Y100 Z-19.2 I-3.413 J0
X64.127 Y100 Z-19.8 I3.413 J0
X62.421 Y102.955 Z-20 I-3.413 J0
X59.008 Y97.045 I-1.706 J-2.955
X62.421 Y102.955 I1.706 J2.955
X61.987 Y102.839 I-0.159 J-0.275
G1 X61.907 Y102.702
X61.872 Y102.64 Z-19.992
X61.839 Y102.582 Z-19.969
X61.808 Y102.53 Z-19.931
X61.783 Y102.487 Z-19.88
X61.764 Y102.454 Z-19.82
X61.753 Y102.434 Z-19.753
X61.749 Y102.427 Z-19.683
G0 Z5
X93.81 Y100.317
Z2
G1 Z0.317 F3000
G18 G3 X93.492 Z0 I-0.317 K0
G1 X93.334
G17 G3 X93.016 Y100 I0 J-0.317
X99.841 Y100 Z-0.6 I3.412 J0
X93.016 Y100 Z-1.2 I-3.412 J0
X99.841 Y100 Z-1.8 I3.412 J0
X93.016 Y100 Z-2.4 I-3.412 J0
X99.841 Y100 Z-3 I3.412 J0
X93.016 Y100 Z-3.6 I-3.412 J0
X99.841 Y100 Z-4.2 I3.412 J0
X93.016 Y100 Z-4.8 I-3.412 J0
X99.841 Y100 Z-5.4 I3.412 J0
X93.016 Y100 Z-6 I-3.412 J0
X99.841 Y100 Z-6.6 I3.412 J0
X93.016 Y100 Z-7.2 I-3.412 J0
X99.841 Y100 Z-7.8 I3.412 J0
X93.016 Y100 Z-8.4 I-3.412 J0
X99.841 Y100 Z-9 I3.412 J0
X93.016 Y100 Z-9.6 I-3.412 J0
X99.841 Y100 Z-10.2 I3.412 J0
X93.016 Y100 Z-10.8 I-3.412 J0
X99.841 Y100 Z-11.4 I3.412 J0
X93.016 Y100 Z-12 I-3.412 J0
X99.841 Y100 Z-12.6 I3.412 J0
X93.016 Y100 Z-13.2 I-3.412 J0
X99.841 Y100 Z-13.8 I3.412 J0
X93.016 Y100 Z-14.4 I-3.412 J0
X99.841 Y100 Z-15 I3.412 J0
X93.016 Y100 Z-15.6 I-3.412 J0
X99.841 Y100 Z-16.2 I3.412 J0
X93.016 Y100 Z-16.8 I-3.412 J0
X99.841 Y100 Z-17.4 I3.412 J0
X93.016 Y100 Z-18 I-3.413 J0
X99.841 Y100 Z-18.6 I3.413 J0
X93.016 Y100 Z-19.2 I-3.413 J0
X99.841 Y100 Z-19.8 I3.413 J0
X98.135 Y102.955 Z-20 I-3.413 J0
X94.722 Y97.045 I-1.706 J-2.955
X98.135 Y102.955 I1.706 J2.955
X97.701 Y102.839 I-0.159 J-0.275
G1 X97.622 Y102.702
X97.586 Y102.64 Z-19.992
X97.553 Y102.582 Z-19.969
X97.523 Y102.53 Z-19.931
X97.498 Y102.487 Z-19.88
X97.479 Y102.454 Z-19.82
X97.467 Y102.434 Z-19.753
X97.463 Y102.427 Z-19.683
G0 Z5
X129.524 Y100.317
Z2
G1 Z0.317 F3000
G18 G3 X129.207 Z0 I-0.318 K0
G1 X129.048
G17 G3 X128.73 Y100 I0 J-0.317
X135.555 Y100 Z-0.6 I3.412 J0
X128.73 Y100 Z-1.2 I-3.412 J0
X135.555 Y100 Z-1.8 I3.412 J0
X128.73 Y100 Z-2.4 I-3.412 J0
X135.555 Y100 Z-3 I3.412 J0
X128.73 Y100 Z-3.6 I-3.412 J0
X135.555 Y100 Z-4.2 I3.412 J0
X128.73 Y100 Z-4.8 I-3.412 J0
X135.555 Y100 Z-5.4 I3.412 J0
X128.73 Y100 Z-6 I-3.412 J0
X135.555 Y100 Z-6.6 I3.412 J0
X128.73 Y100 Z-7.2 I-3.412 J0
X135.555 Y100 Z-7.8 I3.412 J0
X128.73 Y100 Z-8.4 I-3.412 J0
X135.555 Y100 Z-9 I3.412 J0
X128.73 Y100 Z-9.6 I-3.412 J0
X135.555 Y100 Z-10.2 I3.412 J0
X128.73 Y100 Z-10.8 I-3.412 J0
X135.555 Y100 Z-11.4 I3.412 J0
X128.73 Y100 Z-12 I-3.412 J0
X135.555 Y100 Z-12.6 I3.412 J0
X128.73 Y100 Z-13.2 I-3.412 J0
X135.555 Y100 Z-13.8 I3.412 J0
X128.73 Y100 Z-14.4 I-3.412 J0
X135.555 Y100 Z-15 I3.413 J0
X128.73 Y100 Z-15.6 I-3.413 J0
X135.555 Y100 Z-16.2 I3.413 J0
X128.73 Y100 Z-16.8 I-3.413 J0
X135.555 Y100 Z-17.4 I3.413 J0
X128.73 Y100 Z-18 I-3.413 J0
X135.555 Y100 Z-18.6 I3.413 J0
X128.73 Y100 Z-19.2 I-3.413 J0
X135.555 Y100 Z-19.8 I3.413 J0
X133.849 Y102.955 Z-20 I-3.413 J0
X130.437 Y97.045 I-1.706 J-2.955
X133.849 Y102.955 I1.706 J2.955
X133.415 Y102.839 I-0.159 J-0.275
G1 X133.336 Y102.702
X133.301 Y102.64 Z-19.992
X133.267 Y102.582 Z-19.969
X133.237 Y102.53 Z-19.931
X133.212 Y102.487 Z-19.88
X133.193 Y102.454 Z-19.82
X133.181 Y102.434 Z-19.753
X133.177 Y102.427 Z-19.683
G0 Z5
X165.238 Y100.317
Z2
G1 Z0.317 F3000
G18 G3 X164.921 Z0 I-0.317 K0
G1 X164.762
G17 G3 X164.445 Y100 I0 J-0.317
X171.27 Y100 Z-0.6 I3.413 J0
X164.445 Y100 Z-1.2 I-3.413 J0
X171.27 Y100 Z-1.8 I3.413 J0
X164.445 Y100 Z-2.4 I-3.413 J0
X171.27 Y100 Z-3 I3.413 J0
X164.445 Y100 Z-3.6 I-3.413 J0
X171.27 Y100 Z-4.2 I3.413 J0
X164.445 Y100 Z-4.8 I-3.413 J0
X171.27 Y100 Z-5.4 I3.413 J0
X164.445 Y100 Z-6 I-3.413 J0
X171.27 Y100 Z-6.6 I3.413 J0
X164.445 Y100 Z-7.2 I-3.413 J0
X171.27 Y100 Z-7.8 I3.413 J0
X164.445 Y100 Z-8.4 I-3.413 J0
X171.27 Y100 Z-9 I3.413 J0
X164.445 Y100 Z-9.6 I-3.413 J0
X171.27 Y100 Z-10.2 I3.413 J0
X164.445 Y100 Z-10.8 I-3.413 J0
X171.27 Y100 Z-11.4 I3.413 J0
X164.445 Y100 Z-12 I-3.413 J0
X171.27 Y100 Z-12.6 I3.413 J0
X164.445 Y100 Z-13.2 I-3.413 J0
X171.27 Y100 Z-13.8 I3.413 J0
X164.445 Y100 Z-14.4 I-3.413 J0
X171.27 Y100 Z-15 I3.413 J0
X164.445 Y100 Z-15.6 I-3.413 J0
X171.27 Y100 Z-16.2 I3.413 J0
X164.445 Y100 Z-16.8 I-3.413 J0
X171.27 Y100 Z-17.4 I3.413 J0
X164.445 Y100 Z-18 I-3.413 J0
X171.27 Y100 Z-18.6 I3.413 J0
X164.445 Y100 Z-19.2 I-3.413 J0
X171.27 Y100 Z-19.8 I3.413 J0
X169.563 Y102.955 Z-20 I-3.413 J0
X166.151 Y97.045 I-1.706 J-2.955
X169.563 Y102.955 I1.706 J2.955
X169.13 Y102.839 I-0.159 J-0.275
G1 X169.05 Y102.702
X169.015 Y102.64 Z-19.992
X168.981 Y102.582 Z-19.969
X168.951 Y102.53 Z-19.931
X168.926 Y102.487 Z-19.88
X168.907 Y102.454 Z-19.82
X168.896 Y102.434 Z-19.753
X168.892 Y102.427 Z-19.683
G0 Z5
X200.953 Y100.317
Z2
G1 Z0.317 F3000
G18 G3 X200.635 Z0 I-0.318 K0
G1 X200.476
G17 G3 X200.159 Y100 I0 J-0.317
X206.984 Y100 Z-0.6 I3.412 J0
X200.159 Y100 Z-1.2 I-3.412 J0
X206.984 Y100 Z-1.8 I3.412 J0
X200.159 Y100 Z-2.4 I-3.412 J0
X206.984 Y100 Z-3 I3.412 J0
X200.159 Y100 Z-3.6 I-3.412 J0
X206.984 Y100 Z-4.2 I3.412 J0
X200.159 Y100 Z-4.8 I-3.412 J0
X206.984 Y100 Z-5.4 I3.412 J0
X200.159 Y100 Z-6 I-3.412 J0
X206.984 Y100 Z-6.6 I3.412 J0
X200.159 Y100 Z-7.2 I-3.412 J0
X206.984 Y100 Z-7.8 I3.412 J0
X200.159 Y100 Z-8.4 I-3.412 J0
X206.984 Y100 Z-9 I3.412 J0
X200.159 Y100 Z-9.6 I-3.412 J0
X206.984 Y100 Z-10.2 I3.412 J0
X200.159 Y100 Z-10.8 I-3.412 J0
X206.984 Y100 Z-11.4 I3.412 J0
X200.159 Y100 Z-12 I-3.412 J0
X206.984 Y100 Z-12.6 I3.412 J0
X200.159 Y100 Z-13.2 I-3.412 J0
X206.984 Y100 Z-13.8 I3.412 J0
X200.159 Y100 Z-14.4 I-3.412 J0
X206.984 Y100 Z-15 I3.413 J0
X200.159 Y100 Z-15.6 I-3.413 J0
X206.984 Y100 Z-16.2 I3.413 J0
X200.159 Y100 Z-16.8 I-3.413 J0
X206.984 Y100 Z-17.4 I3.413 J0
X200.159 Y100 Z-18 I-3.413 J0
X206.984 Y100 Z-18.6 I3.413 J0
X200.159 Y100 Z-19.2 I-3.413 J0
X206.984 Y100 Z-19.8 I3.413 J0
X205.278 Y102.955 Z-20 I-3.413 J0
X201.865 Y97.045 I-1.706 J-2.955
X205.278 Y102.955 I1.706 J2.955
X204.844 Y102.839 I-0.159 J-0.275
G1 X204.765 Y102.702
X204.729 Y102.64 Z-19.992
X204.696 Y102.582 Z-19.969
X204.666 Y102.53 Z-19.931
X204.64 Y102.487 Z-19.88
X204.622 Y102.454 Z-19.82
X204.61 Y102.434 Z-19.753
X204.606 Y102.427 Z-19.683
G0 Z5
X236.667 Y100.317
Z2
G1 Z0.317 F3000
G18 G3 X236.349 Z0 I-0.318 K0
G1 X236.191
G17 G3 X235.873 Y100 I0 J-0.317
X242.698 Y100 Z-0.6 I3.413 J0
X235.873 Y100 Z-1.2 I-3.413 J0
X242.698 Y100 Z-1.8 I3.413 J0
X235.873 Y100 Z-2.4 I-3.413 J0
X242.698 Y100 Z-3 I3.413 J0
X235.873 Y100 Z-3.6 I-3.413 J0
X242.698 Y100 Z-4.2 I3.413 J0
X235.873 Y100 Z-4.8 I-3.413 J0
X242.698 Y100 Z-5.4 I3.413 J0
X235.873 Y100 Z-6 I-3.413 J0
X242.698 Y100 Z-6.6 I3.413 J0
X235.873 Y100 Z-7.2 I-3.413 J0
X242.698 Y100 Z-7.8 I3.413 J0
X235.873 Y100 Z-8.4 I-3.413 J0
X242.698 Y100 Z-9 I3.413 J0
X235.873 Y100 Z-9.6 I-3.413 J0
X242.698 Y100 Z-10.2 I3.413 J0
X235.873 Y100 Z-10.8 I-3.413 J0
X242.698 Y100 Z-11.4 I3.413 J0
X235.873 Y100 Z-12 I-3.413 J0
X242.698 Y100 Z-12.6 I3.413 J0
X235.873 Y100 Z-13.2 I-3.413 J0
X242.698 Y100 Z-13.8 I3.412 J0
X235.873 Y100 Z-14.4 I-3.412 J0
X242.698 Y100 Z-15 I3.412 J0
X235.873 Y100 Z-15.6 I-3.412 J0
X242.698 Y100 Z-16.2 I3.412 J0
X235.873 Y100 Z-16.8 I-3.412 J0
X242.698 Y100 Z-17.4 I3.412 J0
X235.873 Y100 Z-18 I-3.412 J0
X242.698 Y100 Z-18.6 I3.412 J0
X235.873 Y100 Z-19.2 I-3.412 J0
X242.698 Y100 Z-19.8 I3.412 J0
X240.992 Y102.955 Z-20 I-3.412 J0
X237.579 Y97.045 I-1.706 J-2.955
X240.992 Y102.955 I1.706 J2.955
X240.558 Y102.839 I-0.159 J-0.275
G1 X240.479 Y102.702
X240.444 Y102.64 Z-19.992
X240.41 Y102.582 Z-19.969
X240.38 Y102.53 Z-19.931
X240.355 Y102.487 Z-19.88
X240.336 Y102.454 Z-19.82
X240.324 Y102.434 Z-19.753
X240.32 Y102.427 Z-19.683
G0 Z5
X272.381 Y100.317
Z2
G1 Z0.317 F3000
G18 G3 X272.064 Z0 I-0.318 K0
G1 X271.905
G17 G3 X271.587 Y100 I0 J-0.317
X278.413 Y100 Z-0.6 I3.413 J0
X271.587 Y100 Z-1.2 I-3.413 J0
X278.413 Y100 Z-1.8 I3.413 J0
X271.587 Y100 Z-2.4 I-3.413 J0
X278.413 Y100 Z-3 I3.413 J0
X271.587 Y100 Z-3.6 I-3.413 J0
X278.413 Y100 Z-4.2 I3.413 J0
X271.587 Y100 Z-4.8 I-3.413 J0
X278.413 Y100 Z-5.4 I3.413 J0
X271.587 Y100 Z-6 I-3.413 J0
X278.413 Y100 Z-6.6 I3.413 J0
X271.587 Y100 Z-7.2 I-3.413 J0
X278.413 Y100 Z-7.8 I3.413 J0
X271.587 Y100 Z-8.4 I-3.413 J0
X278.413 Y100 Z-9 I3.413 J0
X271.587 Y100 Z-9.6 I-3.413 J0
X278.413 Y100 Z-10.2 I3.413 J0
X271.587 Y100 Z-10.8 I-3.413 J0
X278.413 Y100 Z-11.4 I3.413 J0
X271.587 Y100 Z-12 I-3.413 J0
X278.413 Y100 Z-12.6 I3.413 J0
X271.588 Y100 Z-13.2 I-3.413 J0
X278.412 Y100 Z-13.8 I3.412 J0
X271.588 Y100 Z-14.4 I-3.412 J0
X278.412 Y100 Z-15 I3.412 J0
X271.588 Y100 Z-15.6 I-3.412 J0
X278.412 Y100 Z-16.2 I3.412 J0
X271.588 Y100 Z-16.8 I-3.412 J0
X278.412 Y100 Z-17.4 I3.412 J0
X271.588 Y100 Z-18 I-3.412 J0
X278.412 Y100 Z-18.6 I3.412 J0
X271.588 Y100 Z-19.2 I-3.412 J0
X278.412 Y100 Z-19.8 I3.412 J0
X276.706 Y102.955 Z-20 I-3.412 J0
X273.294 Y97.045 I-1.706 J-2.955
X276.706 Y102.955 I1.706 J2.955
X276.273 Y102.839 I-0.159 J-0.275
G1 X276.193 Y102.702
X276.158 Y102.64 Z-19.992
X276.124 Y102.582 Z-19.969
X276.094 Y102.53 Z-19.931
X276.069 Y102.487 Z-19.88
X276.05 Y102.454 Z-19.82
X276.038 Y102.434 Z-19.753
X276.034 Y102.427 Z-19.683
G0 Z5
X272.381 Y137.818
Z2
G1 Z0.317 F3000
G18 G3 X272.064 Z0 I-0.318 K0
G1 X271.905
G17 G3 X271.587 Y137.5 I0 J-0.318
X278.413 Y137.5 Z-0.6 I3.413 J0
X271.587 Y137.5 Z-1.2 I-3.413 J0
X278.413 Y137.5 Z-1.8 I3.413 J0
X271.587 Y137.5 Z-2.4 I-3.413 J0
X278.413 Y137.5 Z-3 I3.413 J0
X271.587 Y137.5 Z-3.6 I-3.413 J0
X278.413 Y137.5 Z-4.2 I3.413 J0
X271.587 Y137.5 Z-4.8 I-3.413 J0
X278.413 Y137.5 Z-5.4 I3.413 J0
X271.587 Y137.5 Z-6 I-3.413 J0
X278.413 Y137.5 Z-6.6 I3.413 J0
X271.587 Y137.5 Z-7.2 I-3.413 J0
X278.412 Y137.5 Z-7.8 I3.413 J0
X271.588 Y137.5 Z-8.4 I-3.412 J0
X278.412 Y137.5 Z-9 I3.412 J0
X271.588 Y137.5 Z-9.6 I-3.412 J0
X278.412 Y137.5 Z-10.2 I3.412 J0
X271.588 Y137.5 Z-10.8 I-3.412 J0
X278.412 Y137.5 Z-11.4 I3.412 J0
X271.588 Y137.5 Z-12 I-3.412 J0
X278.412 Y137.5 Z-12.6 I3.412 J0
X271.588 Y137.5 Z-13.2 I-3.412 J0
X278.412 Y137.5 Z-13.8 I3.412 J0
X271.588 Y137.5 Z-14.4 I-3.412 J0
X278.412 Y137.5 Z-15 I3.412 J0
X271.588 Y137.5 Z-15.6 I-3.412 J0
X278.412 Y137.5 Z-16.2 I3.412 J0
X271.588 Y137.5 Z-16.8 I-3.412 J0
X278.412 Y137.5 Z-17.4 I3.412 J0
X271.588 Y137.5 Z-18 I-3.412 J0
X278.412 Y137.5 Z-18.6 I3.412 J0
X271.588 Y137.5 Z-19.2 I-3.412 J0
X278.412 Y137.5 Z-19.8 I3.412 J0
X276.706 Y140.455 Z-20 I-3.412 J0
X273.294 Y134.545 I-1.706 J-2.955
X276.706 Y140.455 I1.706 J2.955
X276.273 Y140.339 I-0.159 J-0.275
G1 X276.193 Y140.202
X276.158 Y140.14 Z-19.992
X276.124 Y140.082 Z-19.969
X276.094 Y140.03 Z-19.931
X276.069 Y139.987 Z-19.88
X276.05 Y139.954 Z-19.82
X276.038 Y139.934 Z-19.753
X276.034 Y139.927 Z-19.683
G0 Z5
X236.667 Y137.818
Z2
G1 Z0.317 F3000
G18 G3 X236.349 Z0 I-0.318 K0
G1 X236.191
G17 G3 X235.873 Y137.5 I0 J-0.318
X242.698 Y137.5 Z-0.6 I3.413 J0
X235.873 Y137.5 Z-1.2 I-3.413 J0
X242.698 Y137.5 Z-1.8 I3.413 J0
X235.873 Y137.5 Z-2.4 I-3.413 J0
X242.698 Y137.5 Z-3 I3.413 J0
X235.873 Y137.5 Z-3.6 I-3.413 J0
X242.698 Y137.5 Z-4.2 I3.413 J0
X235.873 Y137.5 Z-4.8 I-3.413 J0
X242.698 Y137.5 Z-5.4 I3.413 J0
X235.873 Y137.5 Z-6 I-3.413 J0
X242.698 Y137.5 Z-6.6 I3.413 J0
X235.873 Y137.5 Z-7.2 I-3.413 J0
X242.698 Y137.5 Z-7.8 I3.413 J0
X235.873 Y137.5 Z-8.4 I-3.412 J0
X242.698 Y137.5 Z-9 I3.412 J0
X235.873 Y137.5 Z-9.6 I-3.412 J0
X242.698 Y137.5 Z-10.2 I3.412 J0
X235.873 Y137.5 Z-10.8 I-3.412 J0
X242.698 Y137.5 Z-11.4 I3.412 J0
X235.873 Y137.5 Z-12 I-3.412 J0
X242.698 Y137.5 Z-12.6 I3.412 J0
X235.873 Y137.5 Z-13.2 I-3.412 J0
X242.698 Y137.5 Z-13.8 I3.412 J0
X235.873 Y137.5 Z-14.4 I-3.412 J0
X242.698 Y137.5 Z-15 I3.412 J0
X235.873 Y137.5 Z-15.6 I-3.412 J0
X242.698 Y137.5 Z-16.2 I3.412 J0
X235.873 Y137.5 Z-16.8 I-3.412 J0
X242.698 Y137.5 Z-17.4 I3.412 J0
X235.873 Y137.5 Z-18 I-3.412 J0
X242.698 Y137.5 Z-18.6 I3.412 J0
X235.873 Y137.5 Z-19.2 I-3.412 J0
X242.698 Y137.5 Z-19.8 I3.412 J0
X240.992 Y140.455 Z-20 I-3.412 J0
X237.579 Y134.545 I-1.706 J-2.955
X240.992 Y140.455 I1.706 J2.955
X240.558 Y140.339 I-0.159 J-0.275
G1 X240.479 Y140.202
X240.444 Y140.14 Z-19.992
X240.41 Y140.082 Z-19.969
X240.38 Y140.03 Z-19.931
X240.355 Y139.987 Z-19.88
X240.336 Y139.954 Z-19.82
X240.324 Y139.934 Z-19.753
X240.32 Y139.927 Z-19.683
G0 Z5
X200.953 Y137.818
Z2
G1 Z0.317 F3000
G18 G3 X200.635 Z0 I-0.318 K0
G1 X200.476
G17 G3 X200.159 Y137.5 I0 J-0.318
X206.984 Y137.5 Z-0.6 I3.412 J0
X200.159 Y137.5 Z-1.2 I-3.412 J0
X206.984 Y137.5 Z-1.8 I3.412 J0
X200.159 Y137.5 Z-2.4 I-3.412 J0
X206.984 Y137.5 Z-3 I3.412 J0
X200.159 Y137.5 Z-3.6 I-3.412 J0
X206.984 Y137.5 Z-4.2 I3.412 J0
X200.159 Y137.5 Z-4.8 I-3.412 J0
X206.984 Y137.5 Z-5.4 I3.412 J0
X200.159 Y137.5 Z-6 I-3.412 J0
X206.984 Y137.5 Z-6.6 I3.412 J0
X200.159 Y137.5 Z-7.2 I-3.412 J0
X206.984 Y137.5 Z-7.8 I3.412 J0
X200.159 Y137.5 Z-8.4 I-3.412 J0
X206.984 Y137.5 Z-9 I3.412 J0
X200.159 Y137.5 Z-9.6 I-3.412 J0
X206.984 Y137.5 Z-10.2 I3.412 J0
X200.159 Y137.5 Z-10.8 I-3.412 J0
X206.984 Y137.5 Z-11.4 I3.412 J0
X200.159 Y137.5 Z-12 I-3.412 J0
X206.984 Y137.5 Z-12.6 I3.412 J0
X200.159 Y137.5 Z-13.2 I-3.412 J0
X206.984 Y137.5 Z-13.8 I3.412 J0
X200.159 Y137.5 Z-14.4 I-3.412 J0
X206.984 Y137.5 Z-15 I3.412 J0
X200.159 Y137.5 Z-15.6 I-3.412 J0
X206.984 Y137.5 Z-16.2 I3.412 J0
X200.159 Y137.5 Z-16.8 I-3.412 J0
X206.984 Y137.5 Z-17.4 I3.412 J0
X200.159 Y137.5 Z-18 I-3.412 J0
X206.984 Y137.5 Z-18.6 I3.412 J0
X200.159 Y137.5 Z-19.2 I-3.412 J0
X206.984 Y137.5 Z-19.8 I3.412 J0
X205.278 Y140.455 Z-20 I-3.412 J0
X201.865 Y134.545 I-1.706 J-2.955
X205.278 Y140.455 I1.706 J2.955
X204.844 Y140.339 I-0.159 J-0.275
G1 X204.765 Y140.202
X204.729 Y140.14 Z-19.992
X204.696 Y140.082 Z-19.969
X204.666 Y140.03 Z-19.931
X204.64 Y139.987 Z-19.88
X204.622 Y139.954 Z-19.82
X204.61 Y139.934 Z-19.753
X204.606 Y139.927 Z-19.683
G0 Z5
X165.238 Y137.818
Z2
G1 Z0.317 F3000
G18 G3 X164.921 Z0 I-0.317 K0
G1 X164.762
G17 G3 X164.445 Y137.5 I0 J-0.318
X171.27 Y137.5 Z-0.6 I3.413 J0
X164.445 Y137.5 Z-1.2 I-3.413 J0
X171.27 Y137.5 Z-1.8 I3.413 J0
X164.445 Y137.5 Z-2.4 I-3.413 J0
X171.27 Y137.5 Z-3 I3.413 J0
X164.445 Y137.5 Z-3.6 I-3.413 J0
X171.27 Y137.5 Z-4.2 I3.413 J0
X164.445 Y137.5 Z-4.8 I-3.413 J0
X171.27 Y137.5 Z-5.4 I3.413 J0
X164.445 Y137.5 Z-6 I-3.413 J0
X171.27 Y137.5 Z-6.6 I3.413 J0
X164.445 Y137.5 Z-7.2 I-3.413 J0
X171.27 Y137.5 Z-7.8 I3.413 J0
X164.445 Y137.5 Z-8.4 I-3.413 J0
X171.27 Y137.5 Z-9 I3.413 J0
X164.445 Y137.5 Z-9.6 I-3.413 J0
X171.27 Y137.5 Z-10.2 I3.413 J0
X164.445 Y137.5 Z-10.8 I-3.413 J0
X171.27 Y137.5 Z-11.4 I3.413 J0
X164.445 Y137.5 Z-12 I-3.413 J0
X171.27 Y137.5 Z-12.6 I3.413 J0
X164.445 Y137.5 Z-13.2 I-3.413 J0
X171.27 Y137.5 Z-13.8 I3.413 J0
X164.445 Y137.5 Z-14.4 I-3.413 J0
X171.27 Y137.5 Z-15 I3.412 J0
X164.445 Y137.5 Z-15.6 I-3.412 J0
X171.27 Y137.5 Z-16.2 I3.412 J0
X164.445 Y137.5 Z-16.8 I-3.412 J0
X171.27 Y137.5 Z-17.4 I3.412 J0
X164.445 Y137.5 Z-18 I-3.412 J0
X171.27 Y137.5 Z-18.6 I3.412 J0
X164.445 Y137.5 Z-19.2 I-3.412 J0
X171.27 Y137.5 Z-19.8 I3.412 J0
X169.563 Y140.455 Z-20 I-3.412 J0
X166.151 Y134.545 I-1.706 J-2.955
X169.563 Y140.455 I1.706 J2.955
X169.13 Y140.339 I-0.159 J-0.275
G1 X169.05 Y140.202
X169.015 Y140.14 Z-19.992
X168.981 Y140.082 Z-19.969
X168.951 Y140.03 Z-19.931
X168.926 Y139.987 Z-19.88
X168.907 Y139.954 Z-19.82
X168.896 Y139.934 Z-19.753
X168.892 Y139.927 Z-19.683
G0 Z5
X129.524 Y137.818
Z2
G1 Z0.317 F3000
G18 G3 X129.207 Z0 I-0.318 K0
G1 X129.048
G17 G3 X128.73 Y137.5 I0 J-0.318
X135.555 Y137.5 Z-0.6 I3.412 J0
X128.73 Y137.5 Z-1.2 I-3.412 J0
X135.555 Y137.5 Z-1.8 I3.412 J0
X128.73 Y137.5 Z-2.4 I-3.412 J0
X135.555 Y137.5 Z-3 I3.412 J0
X128.73 Y137.5 Z-3.6 I-3.412 J0
X135.555 Y137.5 Z-4.2 I3.412 J0
X128.73 Y137.5 Z-4.8 I-3.412 J0
X135.555 Y137.5 Z-5.4 I3.412 J0
X128.73 Y137.5 Z-6 I-3.412 J0
X135.555 Y137.5 Z-6.6 I3.412 J0
X128.73 Y137.5 Z-7.2 I-3.412 J0
X135.555 Y137.5 Z-7.8 I3.412 J0
X128.73 Y137.5 Z-8.4 I-3.412 J0
X135.555 Y137.5 Z-9 I3.412 J0
X128.73 Y137.5 Z-9.6 I-3.412 J0
X135.555 Y137.5 Z-10.2 I3.412 J0
X128.73 Y137.5 Z-10.8 I-3.412 J0
X135.555 Y137.5 Z-11.4 I3.412 J0
X128.73 Y137.5 Z-12 I-3.412 J0
X135.555 Y137.5 Z-12.6 I3.412 J0
X128.73 Y137.5 Z-13.2 I-3.412 J0
X135.555 Y137.5 Z-13.8 I3.412 J0
X128.73 Y137.5 Z-14.4 I-3.412 J0
X135.555 Y137.5 Z-15 I3.412 J0
X128.73 Y137.5 Z-15.6 I-3.412 J0
X135.555 Y137.5 Z-16.2 I3.412 J0
X128.73 Y137.5 Z-16.8 I-3.412 J0
X135.555 Y137.5 Z-17.4 I3.412 J0
X128.73 Y137.5 Z-18 I-3.412 J0
X135.555 Y137.5 Z-18.6 I3.412 J0
X128.73 Y137.5 Z-19.2 I-3.412 J0
X135.555 Y137.5 Z-19.8 I3.412 J0
X133.849 Y140.455 Z-20 I-3.412 J0
X130.437 Y134.545 I-1.706 J-2.955
X133.849 Y140.455 I1.706 J2.955
X133.415 Y140.339 I-0.159 J-0.275
G1 X133.336 Y140.202
X133.301 Y140.14 Z-19.992
X133.267 Y140.082 Z-19.969
X133.237 Y140.03 Z-19.931
X133.212 Y139.987 Z-19.88
X133.193 Y139.954 Z-19.82
X133.181 Y139.934 Z-19.753
X133.177 Y139.927 Z-19.683
G0 Z5
X93.81 Y137.818
Z2
G1 Z0.317 F3000
G18 G3 X93.492 Z0 I-0.317 K0
G1 X93.334
G17 G3 X93.016 Y137.5 I0 J-0.318
X99.841 Y137.5 Z-0.6 I3.412 J0
X93.016 Y137.5 Z-1.2 I-3.412 J0
X99.841 Y137.5 Z-1.8 I3.412 J0
X93.016 Y137.5 Z-2.4 I-3.412 J0
X99.841 Y137.5 Z-3 I3.412 J0
X93.016 Y137.5 Z-3.6 I-3.412 J0
X99.841 Y137.5 Z-4.2 I3.412 J0
X93.016 Y137.5 Z-4.8 I-3.412 J0
X99.841 Y137.5 Z-5.4 I3.412 J0
X93.016 Y137.5 Z-6 I-3.412 J0
X99.841 Y137.5 Z-6.6 I3.412 J0
X93.016 Y137.5 Z-7.2 I-3.412 J0
X99.841 Y137.5 Z-7.8 I3.412 J0
X93.016 Y137.5 Z-8.4 I-3.412 J0
X99.841 Y137.5 Z-9 I3.412 J0
X93.016 Y137.5 Z-9.6 I-3.412 J0
X99.841 Y137.5 Z-10.2 I3.412 J0
X93.016 Y137.5 Z-10.8 I-3.412 J0
X99.841 Y137.5 Z-11.4 I3.412 J0
X93.016 Y137.5 Z-12 I-3.412 J0
X99.841 Y137.5 Z-12.6 I3.412 J0
X93.016 Y137.5 Z-13.2 I-3.412 J0
X99.841 Y137.5 Z-13.8 I3.412 J0
X93.016 Y137.5 Z-14.4 I-3.412 J0
X99.841 Y137.5 Z-15 I3.412 J0
X93.016 Y137.5 Z-15.6 I-3.412 J0
X99.841 Y137.5 Z-16.2 I3.412 J0
X93.016 Y137.5 Z-16.8 I-3.412 J0
X99.841 Y137.5 Z-17.4 I3.412 J0
X93.016 Y137.5 Z-18 I-3.412 J0
X99.841 Y137.5 Z-18.6 I3.412 J0
X93.016 Y137.5 Z-19.2 I-3.412 J0
X99.841 Y137.5 Z-19.8 I3.412 J0
X98.135 Y140.455 Z-20 I-3.412 J0
X94.722 Y134.545 I-1.706 J-2.955
X98.135 Y140.455 I1.706 J2.955
X97.701 Y140.339 I-0.159 J-0.275
G1 X97.622 Y140.202
X97.586 Y140.14 Z-19.992
X97.553 Y140.082 Z-19.969
X97.523 Y140.03 Z-19.931
X97.498 Y139.987 Z-19.88
X97.479 Y139.954 Z-19.82
X97.467 Y139.934 Z-19.753
X97.463 Y139.927 Z-19.683
G0 Z5
X58.096 Y137.818
Z2
G1 Z0.317 F3000
G18 G3 X57.778 Z0 I-0.318 K0
G1 X57.619
G17 G3 X57.302 Y137.5 I0 J-0.318
X64.127 Y137.5 Z-0.6 I3.413 J0
X57.302 Y137.5 Z-1.2 I-3.413 J0
X64.127 Y137.5 Z-1.8 I3.413 J0
X57.302 Y137.5 Z-2.4 I-3.413 J0
X64.127 Y137.5 Z-3 I3.413 J0
X57.302 Y137.5 Z-3.6 I-3.413 J0
X64.127 Y137.5 Z-4.2 I3.413 J0
X57.302 Y137.5 Z-4.8 I-3.413 J0
X64.127 Y137.5 Z-5.4 I3.413 J0
X57.302 Y137.5 Z-6 I-3.413 J0
X64.127 Y137.5 Z-6.6 I3.413 J0
X57.302 Y137.5 Z-7.2 I-3.413 J0
X64.127 Y137.5 Z-7.8 I3.412 J0
X57.302 Y137.5 Z-8.4 I-3.412 J0
X64.127 Y137.5 Z-9 I3.412 J0
X57.302 Y137.5 Z-9.6 I-3.412 J0
X64.127 Y137.5 Z-10.2 I3.412 J0
X57.302 Y137.5 Z-10.8 I-3.412 J0
X64.127 Y137.5 Z-11.4 I3.412 J0
X57.302 Y137.5 Z-12 I-3.412 J0
X64.127 Y137.5 Z-12.6 I3.412 J0
X57.302 Y137.5 Z-13.2 I-3.412 J0
X64.127 Y137.5 Z-13.8 I3.412 J0
X57.302 Y137.5 Z-14.4 I-3.412 J0
X64.127 Y137.5 Z-15 I3.412 J0
X57.302 Y137.5 Z-15.6 I-3.412 J0
X64.127 Y137.5 Z-16.2 I3.412 J0
X57.302 Y137.5 Z-16.8 I-3.412 J0
X64.127 Y137.5 Z-17.4 I3.412 J0
X57.302 Y137.5 Z-18 I-3.412 J0
X64.127 Y137.5 Z-18.6 I3.412 J0
X57.302 Y137.5 Z-19.2 I-3.412 J0
X64.127 Y137.5 Z-19.8 I3.412 J0
X62.421 Y140.455 Z-20 I-3.412 J0
X59.008 Y134.545 I-1.706 J-2.955
X62.421 Y140.455 I1.706 J2.955
X61.987 Y140.339 I-0.159 J-0.275
G1 X61.907 Y140.202
X61.872 Y140.14 Z-19.992
X61.839 Y140.082 Z-19.969
X61.808 Y140.03 Z-19.931
X61.783 Y139.987 Z-19.88
X61.764 Y139.954 Z-19.82
X61.753 Y139.934 Z-19.753
X61.749 Y139.927 Z-19.683
G0 Z5
X22.381 Y137.818
Z2
G1 Z0.317 F3000
G18 G3 X22.064 Z0 I-0.318 K0
G1 X21.905
G17 G3 X21.587 Y137.5 I0 J-0.318
X28.413 Y137.5 Z-0.6 I3.413 J0
X21.587 Y137.5 Z-1.2 I-3.413 J0
X28.412 Y137.5 Z-1.8 I3.413 J0
X21.588 Y137.5 Z-2.4 I-3.412 J0
X28.412 Y137.5 Z-3 I3.412 J0
X21.588 Y137.5 Z-3.6 I-3.412 J0
X28.412 Y137.5 Z-4.2 I3.412 J0
X21.588 Y137.5 Z-4.8 I-3.412 J0
X28.412 Y137.5 Z-5.4 I3.412 J0
X21.588 Y137.5 Z-6 I-3.412 J0
X28.412 Y137.5 Z-6.6 I3.412 J0
X21.588 Y137.5 Z-7.2 I-3.412 J0
X28.412 Y137.5 Z-7.8 I3.412 J0
X21.588 Y137.5 Z-8.4 I-3.412 J0
X28.412 Y137.5 Z-9 I3.412 J0
X21.588 Y137.5 Z-9.6 I-3.412 J0
X28.412 Y137.5 Z-10.2 I3.412 J0
X21.588 Y137.5 Z-10.8 I-3.412 J0
X28.412 Y137.5 Z-11.4 I3.412 J0
X21.588 Y137.5 Z-12 I-3.412 J0
X28.412 Y137.5 Z-12.6 I3.412 J0
X21.588 Y137.5 Z-13.2 I-3.412 J0
X28.412 Y137.5 Z-13.8 I3.412 J0
X21.588 Y137.5 Z-14.4 I-3.412 J0
X28.412 Y137.5 Z-15 I3.412 J0
X21.588 Y137.5 Z-15.6 I-3.412 J0
X28.412 Y137.5 Z-16.2 I3.412 J0
X21.588 Y137.5 Z-16.8 I-3.412 J0
X28.412 Y137.5 Z-17.4 I3.412 J0
X21.588 Y137.5 Z-18 I-3.412 J0
X28.412 Y137.5 Z-18.6 I3.412 J0
X21.588 Y137.5 Z-19.2 I-3.412 J0
X28.412 Y137.5 Z-19.8 I3.412 J0
X26.706 Y140.455 Z-20 I-3.412 J0
X23.294 Y134.545 I-1.706 J-2.955
X26.706 Y140.455 I1.706 J2.955
X26.273 Y140.339 I-0.159 J-0.275
G1 X26.193 Y140.202
X26.158 Y140.14 Z-19.992
X26.124 Y140.082 Z-19.969
X26.094 Y140.03 Z-19.931
X26.069 Y139.987 Z-19.88
X26.05 Y139.954 Z-19.82
X26.038 Y139.934 Z-19.753
X26.034 Y139.927 Z-19.683
G0 Z5
X22.381 Y175.318
Z2
G1 Z0.317 F3000
G18 G3 X22.064 Z0 I-0.318 K0
G1 X21.905
G17 G3 X21.587 Y175 I0 J-0.318
X28.413 Y175 Z-0.6 I3.413 J0
X21.587 Y175 Z-1.2 I-3.413 J0
X28.412 Y175 Z-1.8 I3.413 J0
X21.588 Y175 Z-2.4 I-3.412 J0
X28.412 Y175 Z-3 I3.412 J0
X21.588 Y175 Z-3.6 I-3.412 J0
X28.412 Y175 Z-4.2 I3.412 J0
X21.588 Y175 Z-4.8 I-3.412 J0
X28.412 Y175 Z-5.4 I3.412 J0
X21.588 Y175 Z-6 I-3.412 J0
X28.412 Y175 Z-6.6 I3.412 J0
X21.588 Y175 Z-7.2 I-3.412 J0
X28.412 Y175 Z-7.8 I3.412 J0
X21.588 Y175 Z-8.4 I-3.412 J0
X28.412 Y175 Z-9 I3.412 J0
X21.588 Y175 Z-9.6 I-3.412 J0
X28.412 Y175 Z-10.2 I3.412 J0
X21.588 Y175 Z-10.8 I-3.412 J0
X28.412 Y175 Z-11.4 I3.412 J0
X21.588 Y175 Z-12 I-3.412 J0
X28.412 Y175 Z-12.6 I3.412 J0
X21.588 Y175 Z-13.2 I-3.412 J0
X28.412 Y175 Z-13.8 I3.412 J0
X21.588 Y175 Z-14.4 I-3.412 J0
X28.412 Y175 Z-15 I3.412 J0
X21.588 Y175 Z-15.6 I-3.412 J0
X28.412 Y175 Z-16.2 I3.412 J0
X21.588 Y175 Z-16.8 I-3.412 J0
X28.412 Y175 Z-17.4 I3.412 J0
X21.588 Y175 Z-18 I-3.412 J0
X28.412 Y175 Z-18.6 I3.412 J0
X21.588 Y175 Z-19.2 I-3.412 J0
X28.412 Y175 Z-19.8 I3.412 J0
X26.706 Y177.955 Z-20 I-3.412 J0
X23.294 Y172.045 I-1.706 J-2.955
X26.706 Y177.955 I1.706 J2.955
X26.273 Y177.839 I-0.159 J-0.275
G1 X26.193 Y177.702
X26.158 Y177.64 Z-19.992
X26.124 Y177.582 Z-19.969
X26.094 Y177.53 Z-19.931
X26.069 Y177.487 Z-19.88
X26.05 Y177.454 Z-19.82
X26.038 Y177.434 Z-19.753
X26.034 Y177.427 Z-19.683
G0 Z5
X58.096 Y175.318
Z2
G1 Z0.317 F3000
G18 G3 X57.778 Z0 I-0.318 K0
G1 X57.619
G17 G3 X57.302 Y175 I0 J-0.318
X64.127 Y175 Z-0.6 I3.413 J0
X57.302 Y175 Z-1.2 I-3.413 J0
X64.127 Y175 Z-1.8 I3.413 J0
X57.302 Y175 Z-2.4 I-3.413 J0
X64.127 Y175 Z-3 I3.413 J0
X57.302 Y175 Z-3.6 I-3.413 J0
X64.127 Y175 Z-4.2 I3.413 J0
X57.302 Y175 Z-4.8 I-3.413 J0
X64.127 Y175 Z-5.4 I3.413 J0
X57.302 Y175 Z-6 I-3.413 J0
X64.127 Y175 Z-6.6 I3.413 J0
X57.302 Y175 Z-7.2 I-3.413 J0
X64.127 Y175 Z-7.8 I3.412 J0
X57.302 Y175 Z-8.4 I-3.412 J0
X64.127 Y175 Z-9 I3.412 J0
X57.302 Y175 Z-9.6 I-3.412 J0
X64.127 Y175 Z-10.2 I3.412 J0
X57.302 Y175 Z-10.8 I-3.412 J0
X64.127 Y175 Z-11.4 I3.412 J0
X57.302 Y175 Z-12 I-3.412 J0
X64.127 Y175 Z-12.6 I3.412 J0
X57.302 Y175 Z-13.2 I-3.412 J0
X64.127 Y175 Z-13.8 I3.412 J0
X57.302 Y175 Z-14.4 I-3.412 J0
X64.127 Y175 Z-15 I3.412 J0
X57.302 Y175 Z-15.6 I-3.412 J0
X64.127 Y175 Z-16.2 I3.412 J0
X57.302 Y175 Z-16.8 I-3.412 J0
X64.127 Y175 Z-17.4 I3.412 J0
X57.302 Y175 Z-18 I-3.412 J0
X64.127 Y175 Z-18.6 I3.412 J0
X57.302 Y175 Z-19.2 I-3.412 J0
X64.127 Y175 Z-19.8 I3.412 J0
X62.421 Y177.955 Z-20 I-3.412 J0
X59.008 Y172.045 I-1.706 J-2.955
X62.421 Y177.955 I1.706 J2.955
X61.987 Y177.839 I-0.159 J-0.275
G1 X61.907 Y177.702
X61.872 Y177.64 Z-19.992
X61.839 Y177.582 Z-19.969
X61.808 Y177.53 Z-19.931
X61.783 Y177.487 Z-19.88
X61.764 Y177.454 Z-19.82
X61.753 Y177.434 Z-19.753
X61.749 Y177.427 Z-19.683
G0 Z5
X93.81 Y175.318
Z2
G1 Z0.317 F3000
G18 G3 X93.492 Z0 I-0.317 K0
G1 X93.334
G17 G3 X93.016 Y175 I0 J-0.318
X99.841 Y175 Z-0.6 I3.412 J0
X93.016 Y175 Z-1.2 I-3.412 J0
X99.841 Y175 Z-1.8 I3.412 J0
X93.016 Y175 Z-2.4 I-3.412 J0
X99.841 Y175 Z-3 I3.412 J0
X93.016 Y175 Z-3.6 I-3.412 J0
X99.841 Y175 Z-4.2 I3.412 J0
X93.016 Y175 Z-4.8 I-3.412 J0
X99.841 Y175 Z-5.4 I3.412 J0
X93.016 Y175 Z-6 I-3.412 J0
X99.841 Y175 Z-6.6 I3.412 J0
X93.016 Y175 Z-7.2 I-3.412 J0
X99.841 Y175 Z-7.8 I3.412 J0
X93.016 Y175 Z-8.4 I-3.412 J0
X99.841 Y175 Z-9 I3.412 J0
X93.016 Y175 Z-9.6 I-3.412 J0
X99.841 Y175 Z-10.2 I3.412 J0
X93.016 Y175 Z-10.8 I-3.412 J0
X99.841 Y175 Z-11.4 I3.412 J0
X93.016 Y175 Z-12 I-3.412 J0
X99.841 Y175 Z-12.6 I3.412 J0
X93.016 Y175 Z-13.2 I-3.412 J0
X99.841 Y175 Z-13.8 I3.412 J0
X93.016 Y175 Z-14.4 I-3.412 J0
X99.841 Y175 Z-15 I3.412 J0
X93.016 Y175 Z-15.6 I-3.412 J0
X99.841 Y175 Z-16.2 I3.412 J0
X93.016 Y175 Z-16.8 I-3.412 J0
X99.841 Y175 Z-17.4 I3.412 J0
X93.016 Y175 Z-18 I-3.412 J0
X99.841 Y175 Z-18.6 I3.412 J0
X93.016 Y175 Z-19.2 I-3.412 J0
X99.841 Y175 Z-19.8 I3.412 J0
X98.135 Y177.955 Z-20 I-3.412 J0
X94.722 Y172.045 I-1.706 J-2.955
X98.135 Y177.955 I1.706 J2.955
X97.701 Y177.839 I-0.159 J-0.275
G1 X97.622 Y177.702
X97.586 Y177.64 Z-19.992
X97.553 Y177.582 Z-19.969
X97.523 Y177.53 Z-19.931
X97.498 Y177.487 Z-19.88
X97.479 Y177.454 Z-19.82
X97.467 Y177.434 Z-19.753
X97.463 Y177.427 Z-19.683
G0 Z5
X129.524 Y175.318
Z2
G1 Z0.317 F3000
G18 G3 X129.207 Z0 I-0.318 K0
G1 X129.048
G17 G3 X128.73 Y175 I0 J-0.318
X135.555 Y175 Z-0.6 I3.412 J0
X128.73 Y175 Z-1.2 I-3.412 J0
X135.555 Y175 Z-1.8 I3.412 J0
X128.73 Y175 Z-2.4 I-3.412 J0
X135.555 Y175 Z-3 I3.412 J0
X128.73 Y175 Z-3.6 I-3.412 J0
X135.555 Y175 Z-4.2 I3.412 J0
X128.73 Y175 Z-4.8 I-3.412 J0
X135.555 Y175 Z-5.4 I3.412 J0
X128.73 Y175 Z-6 I-3.412 J0
X135.555 Y175 Z-6.6 I3.412 J0
X128.73 Y175 Z-7.2 I-3.412 J0
X135.555 Y175 Z-7.8 I3.412 J0
X128.73 Y175 Z-8.4 I-3.412 J0
X135.555 Y175 Z-9 I3.412 J0
X128.73 Y175 Z-9.6 I-3.412 J0
X135.555 Y175 Z-10.2 I3.412 J0
X128.73 Y175 Z-10.8 I-3.412 J0
X135.555 Y175 Z-11.4 I3.412 J0
X128.73 Y175 Z-12 I-3.412 J0
X135.555 Y175 Z-12.6 I3.412 J0
X128.73 Y175 Z-13.2 I-3.412 J0
X135.555 Y175 Z-13.8 I3.412 J0
X128.73 Y175 Z-14.4 I-3.412 J0
X135.555 Y175 Z-15 I3.412 J0
X128.73 Y175 Z-15.6 I-3.412 J0
X135.555 Y175 Z-16.2 I3.412 J0
X128.73 Y175 Z-16.8 I-3.412 J0
X135.555 Y175 Z-17.4 I3.412 J0
X128.73 Y175 Z-18 I-3.412 J0
X135.555 Y175 Z-18.6 I3.412 J0
X128.73 Y175 Z-19.2 I-3.412 J0
X135.555 Y175 Z-19.8 I3.412 J0
X133.849 Y177.955 Z-20 I-3.412 J0
X130.437 Y172.045 I-1.706 J-2.955
X133.849 Y177.955 I1.706 J2.955
X133.415 Y177.839 I-0.159 J-0.275
G1 X133.336 Y177.702
X133.301 Y177.64 Z-19.992
X133.267 Y177.582 Z-19.969
X133.237 Y177.53 Z-19.931
X133.212 Y177.487 Z-19.88
X133.193 Y177.454 Z-19.82
X133.181 Y177.434 Z-19.753
X133.177 Y177.427 Z-19.683
G0 Z5
X165.238 Y175.318
Z2
G1 Z0.317 F3000
G18 G3 X164.921 Z0 I-0.317 K0
G1 X164.762
G17 G3 X164.445 Y175 I0 J-0.318
X171.27 Y175 Z-0.6 I3.413 J0
X164.445 Y175 Z-1.2 I-3.413 J0
X171.27 Y175 Z-1.8 I3.413 J0
X164.445 Y175 Z-2.4 I-3.413 J0
X171.27 Y175 Z-3 I3.413 J0
X164.445 Y175 Z-3.6 I-3.413 J0
X171.27 Y175 Z-4.2 I3.413 J0
X164.445 Y175 Z-4.8 I-3.413 J0
X171.27 Y175 Z-5.4 I3.413 J0
X164.445 Y175 Z-6 I-3.413 J0
X171.27 Y175 Z-6.6 I3.413 J0
X164.445 Y175 Z-7.2 I-3.413 J0
X171.27 Y175 Z-7.8 I3.413 J0
X164.445 Y175 Z-8.4 I-3.413 J0
X171.27 Y175 Z-9 I3.413 J0
X164.445 Y175 Z-9.6 I-3.413 J0
X171.27 Y175 Z-10.2 I3.413 J0
X164.445 Y175 Z-10.8 I-3.413 J0
X171.27 Y175 Z-11.4 I3.413 J0
X164.445 Y175 Z-12 I-3.413 J0
X171.27 Y175 Z-12.6 I3.413 J0
X164.445 Y175 Z-13.2 I-3.413 J0
X171.27 Y175 Z-13.8 I3.413 J0
X164.445 Y175 Z-14.4 I-3.413 J0
X171.27 Y175 Z-15 I3.412 J0
X164.445 Y175 Z-15.6 I-3.412 J0
X171.27 Y175 Z-16.2 I3.412 J0
X164.445 Y175 Z-16.8 I-3.412 J0
X171.27 Y175 Z-17.4 I3.412 J0
X164.445 Y175 Z-18 I-3.412 J0
X171.27 Y175 Z-18.6 I3.412 J0
X164.445 Y175 Z-19.2 I-3.412 J0
X171.27 Y175 Z-19.8 I3.412 J0
X169.563 Y177.955 Z-20 I-3.412 J0
X166.151 Y172.045 I-1.706 J-2.955
X169.563 Y177.955 I1.706 J2.955
X169.13 Y177.839 I-0.159 J-0.275
G1 X169.05 Y177.702
X169.015 Y177.64 Z-19.992
X168.981 Y177.582 Z-19.969
X168.951 Y177.53 Z-19.931
X168.926 Y177.487 Z-19.88
X168.907 Y177.454 Z-19.82
X168.896 Y177.434 Z-19.753
X168.892 Y177.427 Z-19.683
G0 Z5
X200.953 Y175.318
Z2
G1 Z0.317 F3000
G18 G3 X200.635 Z0 I-0.318 K0
G1 X200.476
G17 G3 X200.159 Y175 I0 J-0.318
X206.984 Y175 Z-0.6 I3.412 J0
X200.159 Y175 Z-1.2 I-3.412 J0
X206.984 Y175 Z-1.8 I3.412 J0
X200.159 Y175 Z-2.4 I-3.412 J0
X206.984 Y175 Z-3 I3.412 J0
X200.159 Y175 Z-3.6 I-3.412 J0
X206.984 Y175 Z-4.2 I3.412 J0
X200.159 Y175 Z-4.8 I-3.412 J0
X206.984 Y175 Z-5.4 I3.412 J0
X200.159 Y175 Z-6 I-3.412 J0
X206.984 Y175 Z-6.6 I3.412 J0
X200.159 Y175 Z-7.2 I-3.412 J0
X206.984 Y175 Z-7.8 I3.412 J0
X200.159 Y175 Z-8.4 I-3.412 J0
X206.984 Y175 Z-9 I3.412 J0
X200.159 Y175 Z-9.6 I-3.412 J0
X206.984 Y175 Z-10.2 I3.412 J0
X200.159 Y175 Z-10.8 I-3.412 J0
X206.984 Y175 Z-11.4 I3.412 J0
X200.159 Y175 Z-12 I-3.412 J0
X206.984 Y175 Z-12.6 I3.412 J0
X200.159 Y175 Z-13.2 I-3.412 J0
X206.984 Y175 Z-13.8 I3.412 J0
X200.159 Y175 Z-14.4 I-3.412 J0
X206.984 Y175 Z-15 I3.412 J0
X200.159 Y175 Z-15.6 I-3.412 J0
X206.984 Y175 Z-16.2 I3.412 J0
X200.159 Y175 Z-16.8 I-3.412 J0
X206.984 Y175 Z-17.4 I3.412 J0
X200.159 Y175 Z-18 I-3.412 J0
X206.984 Y175 Z-18.6 I3.412 J0
X200.159 Y175 Z-19.2 I-3.412 J0
X206.984 Y175 Z-19.8 I3.412 J0
X205.278 Y177.955 Z-20 I-3.412 J0
X201.865 Y172.045 I-1.706 J-2.955
X205.278 Y177.955 I1.706 J2.955
X204.844 Y177.839 I-0.159 J-0.275
G1 X204.765 Y177.702
X204.729 Y177.64 Z-19.992
X204.696 Y177.582 Z-19.969
X204.666 Y177.53 Z-19.931
X204.64 Y177.487 Z-19.88
X204.622 Y177.454 Z-19.82
X204.61 Y177.434 Z-19.753
X204.606 Y177.427 Z-19.683
G0 Z5
X236.667 Y175.318
Z2
G1 Z0.317 F3000
G18 G3 X236.349 Z0 I-0.318 K0
G1 X236.191
G17 G3 X235.873 Y175 I0 J-0.318
X242.698 Y175 Z-0.6 I3.413 J0
X235.873 Y175 Z-1.2 I-3.413 J0
X242.698 Y175 Z-1.8 I3.413 J0
X235.873 Y175 Z-2.4 I-3.413 J0
X242.698 Y175 Z-3 I3.413 J0
X235.873 Y175 Z-3.6 I-3.413 J0
X242.698 Y175 Z-4.2 I3.413 J0
X235.873 Y175 Z-4.8 I-3.413 J0
X242.698 Y175 Z-5.4 I3.413 J0
X235.873 Y175 Z-6 I-3.413 J0
X242.698 Y175 Z-6.6 I3.413 J0
X235.873 Y175 Z-7.2 I-3.413 J0
X242.698 Y175 Z-7.8 I3.413 J0
X235.873 Y175 Z-8.4 I-3.412 J0
X242.698 Y175 Z-9 I3.412 J0
X235.873 Y175 Z-9.6 I-3.412 J0
X242.698 Y175 Z-10.2 I3.412 J0
X235.873 Y175 Z-10.8 I-3.412 J0
X242.698 Y175 Z-11.4 I3.412 J0
X235.873 Y175 Z-12 I-3.412 J0
X242.698 Y175 Z-12.6 I3.412 J0
X235.873 Y175 Z-13.2 I-3.412 J0
X242.698 Y175 Z-13.8 I3.412 J0
X235.873 Y175 Z-14.4 I-3.412 J0
X242.698 Y175 Z-15 I3.412 J0
X235.873 Y175 Z-15.6 I-3.412 J0
X242.698 Y175 Z-16.2 I3.412 J0
X235.873 Y175 Z-16.8 I-3.412 J0
X242.698 Y175 Z-17.4 I3.412 J0
X235.873 Y175 Z-18 I-3.412 J0
X242.698 Y175 Z-18.6 I3.412 J0
X235.873 Y175 Z-19.2 I-3.412 J0
X242.698 Y175 Z-19.8 I3.412 J0
X240.992 Y177.955 Z-20 I-3.412 J0
X237.579 Y172.045 I-1.706 J-2.955
X240.992 Y177.955 I1.706 J2.955
X240.558 Y177.839 I-0.159 J-0.275
G1 X240.479 Y177.702
X240.444 Y177.64 Z-19.992
X240.41 Y177.582 Z-19.969
X240.38 Y177.53 Z-19.931
X240.355 Y177.487 Z-19.88
X240.336 Y177.454 Z-19.82
X240.324 Y177.434 Z-19.753
X240.32 Y177.427 Z-19.683
G0 Z15

(2D Contour1)
X180.317 Y99.683
Z15
Z5
G1 Z0.635 F3000
Z-0.883
G18 G2 X180.635 Z-1.2 I0.318 K0
G1 X180.952
G17 G3 X181.27 Y100 I0 J0.317
G1 Y113.412
X154.445
Y86.588
X181.27
Y100
G3 X180.952 Y100.317 I-0.318 J0
G1 X180.635
G18 G3 X180.317 Z-0.883 I0 K0.318
G1 Y99.683
Z-2.083
G2 X180.635 Z-2.4 I0.318 K0
G1 X180.952
G17 G3 X181.27 Y100 I0 J0.317
G1 Y113.412
X154.445
Y86.588
X181.27
Y100
G3 X180.952 Y100.317 I-0.318 J0
G1 X180.635
G18 G3 X180.317 Z-2.083 I0 K0.318
G1 Y99.683
Z-3.283
G2 X180.635 Z-3.6 I0.318 K0
G1 X180.952
G17 G3 X181.27 Y100 I0 J0.317
G1 Y113.412
X154.445
Y86.588
X181.27
Y100
G3 X180.952 Y100.317 I-0.318 J0
G1 X180.635
G18 G3 X180.317 Z-3.283 I0 K0.317
G1 Y99.683
Z-4.483
G2 X180.635 Z-4.8 I0.318 K0
G1 X180.952
G17 G3 X181.27 Y100 I0 J0.317
G1 Y113.412
X154.445
Y86.588
X181.27
Y100
G3 X180.952 Y100.317 I-0.318 J0
G1 X180.635
G18 G3 X180.317 Z-4.483 I0 K0.318
G1 Y99.683
Z-5.683
G2 X180.635 Z-6 I0.318 K0
G1 X180.952
G17 G3 X181.27 Y100 I0 J0.317
G1 Y113.412
X154.445
Y86.588
X181.27
Y100
G3 X180.952 Y100.317 I-0.318 J0
G1 X180.635
G18 G3 X180.317 Z-5.683 I0 K0.318
G1 Y99.683
Z-6.883
G2 X180.635 Z-7.2 I0.318 K0
G1 X180.952
G17 G3 X181.27 Y100 I0 J0.317
G1 Y113.412
X154.445
Y86.588
X181.27
Y100
G3 X180.952 Y100.317 I-0.318 J0
G1 X180.635
G18 G3 X180.317 Z-6.883 I0 K0.317
G1 Y99.683
Z-8.083
G2 X180.635 Z-8.4 I0.318 K0
G1 X180.952
G17 G3 X181.27 Y100 I0 J0.317
G1 Y113.412
X154.445
Y86.588
X181.27
Y100
G3 X180.952 Y100.317 I-0.318 J0
G1 X180.635
G18 G3 X180.317 Z-8.083 I0 K0.317
G1 Y99.683
Z-9.283
G2 X180.635 Z-9.6 I0.318 K0
G1 X180.952
G17 G3 X181.27 Y100 I0 J0.317
G1 Y113.412
X154.445
Y86.588
X181.27
Y100
G3 X180.952 Y100.317 I-0.318 J0
G1 X180.635
G18 G3 X180.317 Z-9.283 I0 K0.318
G1 Y99.683
Z-9.683
G2 X180.635 Z-10 I0.318 K0
G1 X180.952
G17 G3 X181.27 Y100 I0 J0.317
G1 Y113.412
X154.445
Y86.588
X181.27
Y100
G3 X180.952 Y100.317 I-0.318 J0
G1 X180.635
G18 G3 X180.317 Z-9.683 I0 K0.318
G0 Z5
X216.031 Y99.683
G1 Z0.635 F3000
Z-0.883
G2 X216.348 Z-1.2 I0.317 K0
G1 X216.666
G17 G3 X216.984 Y100 I0 J0.317
G1 Y113.412
X190.158
Y86.588
X216.984
Y100
G3 X216.666 Y100.317 I-0.318 J0
G1 X216.348
G18 G3 X216.031 Z-0.883 I0 K0.318
G1 Y99.683
Z-2.083
G2 X216.348 Z-2.4 I0.317 K0
G1 X216.666
G17 G3 X216.984 Y100 I0 J0.317
G1 Y113.412
X190.158
Y86.588
X216.984
Y100
G3 X216.666 Y100.317 I-0.318 J0
G1 X216.348
G18 G3 X216.031 Z-2.083 I0 K0.318
G1 Y99.683
Z-3.283
G2 X216.348 Z-3.6 I0.317 K0
G1 X216.666
G17 G3 X216.984 Y100 I0 J0.317
G1 Y113.412
X190.158
Y86.588
X216.984
Y100
G3 X216.666 Y100.317 I-0.318 J0
G1 X216.348
G18 G3 X216.031 Z-3.283 I0 K0.317
G1 Y99.683
Z-4.483
G2 X216.348 Z-4.8 I0.317 K0
G1 X216.666
G17 G3 X216.984 Y100 I0 J0.317
G1 Y113.412
X190.158
Y86.588
X216.984
Y100
G3 X216.666 Y100.317 I-0.318 J0
G1 X216.348
G18 G3 X216.031 Z-4.483 I0 K0.318
G1 Y99.683
Z-5.683
G2 X216.348 Z-6 I0.317 K0
G1 X216.666
G17 G3 X216.984 Y100 I0 J0.317
G1 Y113.412
X190.158
Y86.588
X216.984
Y100
G3 X216.666 Y100.317 I-0.318 J0
G1 X216.348
G18 G3 X216.031 Z-5.683 I0 K0.318
G1 Y99.683
Z-6.883
G2 X216.348 Z-7.2 I0.317 K0
G1 X216.666
G17 G3 X216.984 Y100 I0 J0.317
G1 Y113.412
X190.158
Y86.588
X216.984
Y100
G3 X216.666 Y100.317 I-0.318 J0
G1 X216.348
G18 G3 X216.031 Z-6.883 I0 K0.317
G1 Y99.683
Z-8.083
G2 X216.348 Z-8.4 I0.317 K0
G1 X216.666
G17 G3 X216.984 Y100 I0 J0.317
G1 Y113.412
X190.158
Y86.588
X216.984
Y100
G3 X216.666 Y100.317 I-0.318 J0
G1 X216.348
G18 G3 X216.031 Z-8.083 I0 K0.317
G1 Y99.683
Z-9.283
G2 X216.348 Z-9.6 I0.317 K0
G1 X216.666
G17 G3 X216.984 Y100 I0 J0.317
G1 Y113.412
X190.158
Y86.588
X216.984
Y100
G3 X216.666 Y100.317 I-0.318 J0
G1 X216.348
G18 G3 X216.031 Z-9.283 I0 K0.318
G1 Y99.683
Z-9.683
G2 X216.348 Z-10 I0.317 K0
G1 X216.666
G17 G3 X216.984 Y100 I0 J0.317
G1 Y113.412
X190.158
Y86.588
X216.984
Y100
G3 X216.666 Y100.317 I-0.318 J0
G1 X216.348
G18 G3 X216.031 Z-9.683 I0 K0.318
G0 Z5
X251.746 Y99.683
G1 Z0.635 F3000
Z-0.883
G2 X252.064 Z-1.2 I0.318 K0
G1 X252.381
G17 G3 X252.699 Y100 I0 J0.317
G1 Y113.412
X225.874
Y86.588
X252.699
Y100
G3 X252.381 Y100.317 I-0.318 J0
G1 X252.064
G18 G3 X251.746 Z-0.883 I0 K0.318
G1 Y99.683
Z-2.083
G2 X252.064 Z-2.4 I0.318 K0
G1 X252.381
G17 G3 X252.699 Y100 I0 J0.317
G1 Y113.412
X225.874
Y86.588
X252.699
Y100
G3 X252.381 Y100.317 I-0.318 J0
G1 X252.064
G18 G3 X251.746 Z-2.083 I0 K0.318
G1 Y99.683
Z-3.283
G2 X252.064 Z-3.6 I0.318 K0
G1 X252.381
G17 G3 X252.699 Y100 I0 J0.317
G1 Y113.412
X225.874
Y86.588
X252.699
Y100
G3 X252.381 Y100.317 I-0.318 J0
G1 X252.064
G18 G3 X251.746 Z-3.283 I0 K0.317
G1 Y99.683
Z-4.483
G2 X252.064 Z-4.8 I0.318 K0
G1 X252.381
G17 G3 X252.699 Y100 I0 J0.317
G1 Y113.412
X225.874
Y86.588
X252.699
Y100
G3 X252.381 Y100.317 I-0.318 J0
G1 X252.064
G18 G3 X251.746 Z-4.483 I0 K0.318
G1 Y99.683
Z-5.683
G2 X252.064 Z-6 I0.318 K0
G1 X252.381
G17 G3 X252.699 Y100 I0 J0.317
G1 Y113.412
X225.874
Y86.588
X252.699
Y100
G3 X252.381 Y100.317 I-0.318 J0
G1 X252.064
G18 G3 X251.746 Z-5.683 I0 K0.318
G1 Y99.683
Z-6.883
G2 X252.064 Z-7.2 I0.318 K0
G1 X252.381
G17 G3 X252.699 Y100 I0 J0.317
G1 Y113.412
X225.874
Y86.588
X252.699
Y100
G3 X252.381 Y100.317 I-0.318 J0
G1 X252.064
G18 G3 X251.746 Z-6.883 I0 K0.317
G1 Y99.683
Z-8.083
G2 X252.064 Z-8.4 I0.318 K0
G1 X252.381
G17 G3 X252.699 Y100 I0 J0.317
G1 Y113.412
X225.874
Y86.588
X252.699
Y100
G3 X252.381 Y100.317 I-0.318 J0
G1 X252.064
G18 G3 X251.746 Z-8.083 I0 K0.317
G1 Y99.683
Z-9.283
G2 X252.064 Z-9.6 I0.318 K0
G1 X252.381
G17 G3 X252.699 Y100 I0 J0.317
G1 Y113.412
X225.874
Y86.588
X252.699
Y100
G3 X252.381 Y100.317 I-0.318 J0
G1 X252.064
G18 G3 X251.746 Z-9.283 I0 K0.318
G1 Y99.683
Z-9.683
G2 X252.064 Z-10 I0.318 K0
G1 X252.381
G17 G3 X252.699 Y100 I0 J0.317
G1 Y113.412
X225.874
Y86.588
X252.699
Y100
G3 X252.381 Y100.317 I-0.318 J0
G1 X252.064
G18 G3 X251.746 Z-9.683 I0 K0.318
G0 Z5
X287.46 Y99.683
G1 Z0.635 F3000
Z-0.883
G2 X287.777 Z-1.2 I0.318 K0
G1 X288.095
G17 G3 X288.413 Y100 I0 J0.317
G1 Y113.412
X261.587
Y86.588
X288.413
Y100
G3 X288.095 Y100.317 I-0.318 J0
G1 X287.777
G18 G3 X287.46 Z-0.883 I0 K0.318
G1 Y99.683
Z-2.083
G2 X287.777 Z-2.4 I0.318 K0
G1 X288.095
G17 G3 X288.413 Y100 I0 J0.317
G1 Y113.412
X261.587
Y86.588
X288.413
Y100
G3 X288.095 Y100.317 I-0.318 J0
G1 X287.777
G18 G3 X287.46 Z-2.083 I0 K0.318
G1 Y99.683
Z-3.283
G2 X287.777 Z-3.6 I0.318 K0
G1 X288.095
G17 G3 X288.413 Y100 I0 J0.317
G1 Y113.412
X261.587
Y86.588
X288.413
Y100
G3 X288.095 Y100.317 I-0.318 J0
G1 X287.777
G18 G3 X287.46 Z-3.283 I0 K0.317
G1 Y99.683
Z-4.483
G2 X287.777 Z-4.8 I0.318 K0
G1 X288.095
G17 G3 X288.413 Y100 I0 J0.317
G1 Y113.412
X261.587
Y86.588
X288.413
Y100
G3 X288.095 Y100.317 I-0.318 J0
G1 X287.777
G18 G3 X287.46 Z-4.483 I0 K0.318
G1 Y99.683
Z-5.683
G2 X287.777 Z-6 I0.318 K0
G1 X288.095
G17 G3 X288.413 Y100 I0 J0.317
G1 Y113.412
X261.587
Y86.588
X288.413
Y100
G3 X288.095 Y100.317 I-0.318 J0
G1 X287.777
G18 G3 X287.46 Z-5.683 I0 K0.318
G1 Y99.683
Z-6.883
G2 X287.777 Z-7.2 I0.318 K0
G1 X288.095
G17 G3 X288.413 Y100 I0 J0.317
G1 Y113.412
X261.587
Y86.588
X288.413
Y100
G3 X288.095 Y100.317 I-0.318 J0
G1 X287.777
G18 G3 X287.46 Z-6.883 I0 K0.317
G1 Y99.683
Z-8.083
G2 X287.777 Z-8.4 I0.318 K0
G1 X288.095
G17 G3 X288.413 Y100 I0 J0.317
G1 Y113.412
X261.587
Y86.588
X288.413
Y100
G3 X288.095 Y100.317 I-0.318 J0
G1 X287.777
G18 G3 X287.46 Z-8.083 I0 K0.317
G1 Y99.683
Z-9.283
G2 X287.777 Z-9.6 I0.318 K0
G1 X288.095
G17 G3 X288.413 Y100 I0 J0.317
G1 Y113.412
X261.587
Y86.588
X288.413
Y100
G3 X288.095 Y100.317 I-0.318 J0
G1 X287.777
G18 G3 X287.46 Z-9.283 I0 K0.318
G1 Y99.683
Z-9.683
G2 X287.777 Z-10 I0.318 K0
G1 X288.095
G17 G3 X288.413 Y100 I0 J0.317
G1 Y113.412
X261.587
Y86.588
X288.413
Y100
G3 X288.095 Y100.317 I-0.318 J0
G1 X287.777
G18 G3 X287.46 Z-9.683 I0 K0.318
G0 Z5
Y137.182
G1 Z0.635 F3000
Z-0.883
G2 X287.777 Z-1.2 I0.318 K0
G1 X288.095
G17 G3 X288.413 Y137.5 I0 J0.318
G1 Y150.913
X261.587
Y124.088
X288.413
Y137.5
G3 X288.095 Y137.818 I-0.318 J0
G1 X287.777
G18 G3 X287.46 Z-0.883 I0 K0.318
G1 Y137.182
Z-2.083
G2 X287.777 Z-2.4 I0.318 K0
G1 X288.095
G17 G3 X288.413 Y137.5 I0 J0.318
G1 Y150.913
X261.587
Y124.088
X288.413
Y137.5
G3 X288.095 Y137.818 I-0.318 J0
G1 X287.777
G18 G3 X287.46 Z-2.083 I0 K0.318
G1 Y137.182
Z-3.283
G2 X287.777 Z-3.6 I0.318 K0
G1 X288.095
G17 G3 X288.413 Y137.5 I0 J0.318
G1 Y150.913
X261.587
Y124.088
X288.413
Y137.5
G3 X288.095 Y137.818 I-0.318 J0
G1 X287.777
G18 G3 X287.46 Z-3.283 I0 K0.317
G1 Y137.182
Z-4.483
G2 X287.777 Z-4.8 I0.318 K0
G1 X288.095
G17 G3 X288.413 Y137.5 I0 J0.318
G1 Y150.913
X261.587
Y124.088
X288.413
Y137.5
G3 X288.095 Y137.818 I-0.318 J0
G1 X287.777
G18 G3 X287.46 Z-4.483 I0 K0.318
G1 Y137.182
Z-5.683
G2 X287.777 Z-6 I0.318 K0
G1 X288.095
G17 G3 X288.413 Y137.5 I0 J0.318
G1 Y150.913
X261.587
Y124.088
X288.413
Y137.5
G3 X288.095 Y137.818 I-0.318 J0
G1 X287.777
G18 G3 X287.46 Z-5.683 I0 K0.318
G1 Y137.182
Z-6.883
G2 X287.777 Z-7.2 I0.318 K0
G1 X288.095
G17 G3 X288.413 Y137.5 I0 J0.318
G1 Y150.913
X261.587
Y124.088
X288.413
Y137.5
G3 X288.095 Y137.818 I-0.318 J0
G1 X287.777
G18 G3 X287.46 Z-6.883 I0 K0.317
G1 Y137.182
Z-8.083
G2 X287.777 Z-8.4 I0.318 K0
G1 X288.095
G17 G3 X288.413 Y137.5 I0 J0.318
G1 Y150.913
X261.587
Y124.088
X288.413
Y137.5
G3 X288.095 Y137.818 I-0.318 J0
G1 X287.777
G18 G3 X287.46 Z-8.083 I0 K0.317
G1 Y137.182
Z-9.283
G2 X287.777 Z-9.6 I0.318 K0
G1 X288.095
G17 G3 X288.413 Y137.5 I0 J0.318
G1 Y150.913
X261.587
Y124.088
X288.413
Y137.5
G3 X288.095 Y137.818 I-0.318 J0
G1 X287.777
G18 G3 X287.46 Z-9.283 I0 K0.318
G1 Y137.182
Z-9.683
G2 X287.777 Z-10 I0.318 K0
G1 X288.095
G17 G3 X288.413 Y137.5 I0 J0.318
G1 Y150.913
X261.587
Y124.088
X288.413
Y137.5
G3 X288.095 Y137.818 I-0.318 J0
G1 X287.777
G18 G3 X287.46 Z-9.683 I0 K0.318
G0 Z5
X251.746 Y137.182
G1 Z0.635 F3000
Z-0.883
G2 X252.064 Z-1.2 I0.318 K0
G1 X252.381
G17 G3 X252.699 Y137.5 I0 J0.318
G1 Y150.913
X225.874
Y124.088
X252.699
Y137.5
G3 X252.381 Y137.818 I-0.318 J0
G1 X252.064
G18 G3 X251.746 Z-0.883 I0 K0.318
G1 Y137.182
Z-2.083
G2 X252.064 Z-2.4 I0.318 K0
G1 X252.381
G17 G3 X252.699 Y137.5 I0 J0.318
G1 Y150.913
X225.874
Y124.088
X252.699
Y137.5
G3 X252.381 Y137.818 I-0.318 J0
G1 X252.064
G18 G3 X251.746 Z-2.083 I0 K0.318
G1 Y137.182
Z-3.283
G2 X252.064 Z-3.6 I0.318 K0
G1 X252.381
G17 G3 X252.699 Y137.5 I0 J0.318
G1 Y150.913
X225.874
Y124.088
X252.699
Y137.5
G3 X252.381 Y137.818 I-0.318 J0
G1 X252.064
G18 G3 X251.746 Z-3.283 I0 K0.317
G1 Y137.182
Z-4.483
G2 X252.064 Z-4.8 I0.318 K0
G1 X252.381
G17 G3 X252.699 Y137.5 I0 J0.318
G1 Y150.913
X225.874
Y124.088
X252.699
Y137.5
G3 X252.381 Y137.818 I-0.318 J0
G1 X252.064
G18 G3 X251.746 Z-4.483 I0 K0.318
G1 Y137.182
Z-5.683
G2 X252.064 Z-6 I0.318 K0
G1 X252.381
G17 G3 X252.699 Y137.5 I0 J0.318
G1 Y150.913
X225.874
Y124.088
X252.699
Y137.5
G3 X252.381 Y137.818 I-0.318 J0
G1 X252.064
G18 G3 X251.746 Z-5.683 I0 K0.318
G1 Y137.182
Z-6.883
G2 X252.064 Z-7.2 I0.318 K0
G1 X252.381
G17 G3 X252.699 Y137.5 I0 J0.318
G1 Y150.913
X225.874
Y124.088
X252.699
Y137.5
G3 X252.381 Y137.818 I-0.318 J0
G1 X252.064
G18 G3 X251.746 Z-6.883 I0 K0.317
G1 Y137.182
Z-8.083
G2 X252.064 Z-8.4 I0.318 K0
G1 X252.381
G17 G3 X252.699 Y137.5 I0 J0.318
G1 Y150.913
X225.874
Y124.088
X252.699
Y137.5
G3 X252.381 Y137.818 I-0.318 J0
G1 X252.064
G18 G3 X251.746 Z-8.083 I0 K0.317
G1 Y137.182
Z-9.283
G2 X252.064 Z-9.6 I0.318 K0
G1 X252.381
G17 G3 X252.699 Y137.5 I0 J0.318
G1 Y150.913
X225.874
Y124.088
X252.699
Y137.5
G3 X252.381 Y137.818 I-0.318 J0
G1 X252.064
G18 G3 X251.746 Z-9.283 I0 K0.318
G1 Y137.182
Z-9.683
G2 X252.064 Z-10 I0.318 K0
G1 X252.381
G17 G3 X252.699 Y137.5 I0 J0.318
G1 Y150.913
X225.874
Y124.088
X252.699
Y137.5
G3 X252.381 Y137.818 I-0.318 J0
G1 X252.064
G18 G3 X251.746 Z-9.683 I0 K0.318
G0 Z5
Y174.682
G1 Z0.635 F3000
Z-0.883
G2 X252.064 Z-1.2 I0.318 K0
G1 X252.381
G17 G3 X252.699 Y175 I0 J0.318
G1 Y188.413
X225.874
Y161.587
X252.699
Y175
G3 X252.381 Y175.318 I-0.318 J0
G1 X252.064
G18 G3 X251.746 Z-0.883 I0 K0.318
G1 Y174.682
Z-2.083
G2 X252.064 Z-2.4 I0.318 K0
G1 X252.381
G17 G3 X252.699 Y175 I0 J0.318
G1 Y188.413
X225.874
Y161.587
X252.699
Y175
G3 X252.381 Y175.318 I-0.318 J0
G1 X252.064
G18 G3 X251.746 Z-2.083 I0 K0.318
G1 Y174.682
Z-3.283
G2 X252.064 Z-3.6 I0.318 K0
G1 X252.381
G17 G3 X252.699 Y175 I0 J0.318
G1 Y188.413
X225.874
Y161.587
X252.699
Y175
G3 X252.381 Y175.318 I-0.318 J0
G1 X252.064
G18 G3 X251.746 Z-3.283 I0 K0.317
G1 Y174.682
Z-4.483
G2 X252.064 Z-4.8 I0.318 K0
G1 X252.381
G17 G3 X252.699 Y175 I0 J0.318
G1 Y188.413
X225.874
Y161.587
X252.699
Y175
G3 X252.381 Y175.318 I-0.318 J0
G1 X252.064
G18 G3 X251.746 Z-4.483 I0 K0.318
G1 Y174.682
Z-5.683
G2 X252.064 Z-6 I0.318 K0
G1 X252.381
G17 G3 X252.699 Y175 I0 J0.318
G1 Y188.413
X225.874
Y161.587
X252.699
Y175
G3 X252.381 Y175.318 I-0.318 J0
G1 X252.064
G18 G3 X251.746 Z-5.683 I0 K0.318
G1 Y174.682
Z-6.883
G2 X252.064 Z-7.2 I0.318 K0
G1 X252.381
G17 G3 X252.699 Y175 I0 J0.318
G1 Y188.413
X225.874
Y161.587
X252.699
Y175
G3 X252.381 Y175.318 I-0.318 J0
G1 X252.064
G18 G3 X251.746 Z-6.883 I0 K0.317
G1 Y174.682
Z-8.083
G2 X252.064 Z-8.4 I0.318 K0
G1 X252.381
G17 G3 X252.699 Y175 I0 J0.318
G1 Y188.413
X225.874
Y161.587
X252.699
Y175
G3 X252.381 Y175.318 I-0.318 J0
G1 X252.064
G18 G3 X251.746 Z-8.083 I0 K0.317
G1 Y174.682
Z-9.283
G2 X252.064 Z-9.6 I0.318 K0
G1 X252.381
G17 G3 X252.699 Y175 I0 J0.318
G1 Y188.413
X225.874
Y161.587
X252.699
Y175
G3 X252.381 Y175.318 I-0.318 J0
G1 X252.064
G18 G3 X251.746 Z-9.283 I0 K0.318
G1 Y174.682
Z-9.683
G2 X252.064 Z-10 I0.318 K0
G1 X252.381
G17 G3 X252.699 Y175 I0 J0.318
G1 Y188.413
X225.874
Y161.587
X252.699
Y175
G3 X252.381 Y175.318 I-0.318 J0
G1 X252.064
G18 G3 X251.746 Z-9.683 I0 K0.318
G0 Z5
X216.031 Y174.682
G1 Z0.635 F3000
Z-0.883
G2 X216.348 Z-1.2 I0.317 K0
G1 X216.666
G17 G3 X216.984 Y175 I0 J0.318
G1 Y188.413
X190.158
Y161.587
X216.984
Y175
G3 X216.666 Y175.318 I-0.318 J0
G1 X216.348
G18 G3 X216.031 Z-0.883 I0 K0.318
G1 Y174.682
Z-2.083
G2 X216.348 Z-2.4 I0.317 K0
G1 X216.666
G17 G3 X216.984 Y175 I0 J0.318
G1 Y188.413
X190.158
Y161.587
X216.984
Y175
G3 X216.666 Y175.318 I-0.318 J0
G1 X216.348
G18 G3 X216.031 Z-2.083 I0 K0.318
G1 Y174.682
Z-3.283
G2 X216.348 Z-3.6 I0.317 K0
G1 X216.666
G17 G3 X216.984 Y175 I0 J0.318
G1 Y188.413
X190.158
Y161.587
X216.984
Y175
G3 X216.666 Y175.318 I-0.318 J0
G1 X216.348
G18 G3 X216.031 Z-3.283 I0 K0.317
G1 Y174.682
Z-4.483
G2 X216.348 Z-4.8 I0.317 K0
G1 X216.666
G17 G3 X216.984 Y175 I0 J0.318
G1 Y188.413
X190.158
Y161.587
X216.984
Y175
G3 X216.666 Y175.318 I-0.318 J0
G1 X216.348
G18 G3 X216.031 Z-4.483 I0 K0.318
G1 Y174.682
Z-5.683
G2 X216.348 Z-6 I0.317 K0
G1 X216.666
G17 G3 X216.984 Y175 I0 J0.318
G1 Y188.413
X190.158
Y161.587
X216.984
Y175
G3 X216.666 Y175.318 I-0.318 J0
G1 X216.348
G18 G3 X216.031 Z-5.683 I0 K0.318
G1 Y174.682
Z-6.883
G2 X216.348 Z-7.2 I0.317 K0
G1 X216.666
G17 G3 X216.984 Y175 I0 J0.318
G1 Y188.413
X190.158
Y161.587
X216.984
Y175
G3 X216.666 Y175.318 I-0.318 J0
G1 X216.348
G18 G3 X216.031 Z-6.883 I0 K0.317
G1 Y174.682
Z-8.083
G2 X216.348 Z-8.4 I0.317 K0
G1 X216.666
G17 G3 X216.984 Y175 I0 J0.318
G1 Y188.413
X190.158
Y161.587
X216.984
Y175
G3 X216.666 Y175.318 I-0.318 J0
G1 X216.348
G18 G3 X216.031 Z-8.083 I0 K0.317
G1 Y174.682
Z-9.283
G2 X216.348 Z-9.6 I0.317 K0
G1 X216.666
G17 G3 X216.984 Y175 I0 J0.318
G1 Y188.413
X190.158
Y161.587
X216.984
Y175
G3 X216.666 Y175.318 I-0.318 J0
G1 X216.348
G18 G3 X216.031 Z-9.283 I0 K0.318
G1 Y174.682
Z-9.683
G2 X216.348 Z-10 I0.317 K0
G1 X216.666
G17 G3 X216.984 Y175 I0 J0.318
G1 Y188.413
X190.158
Y161.587
X216.984
Y175
G3 X216.666 Y175.318 I-0.318 J0
G1 X216.348
G18 G3 X216.031 Z-9.683 I0 K0.318
G0 Z5
Y137.182
G1 Z0.635 F3000
Z-0.883
G2 X216.348 Z-1.2 I0.317 K0
G1 X216.666
G17 G3 X216.984 Y137.5 I0 J0.318
G1 Y150.913
X190.158
Y124.088
X216.984
Y137.5
G3 X216.666 Y137.818 I-0.318 J0
G1 X216.348
G18 G3 X216.031 Z-0.883 I0 K0.318
G1 Y137.182
Z-2.083
G2 X216.348 Z-2.4 I0.317 K0
G1 X216.666
G17 G3 X216.984 Y137.5 I0 J0.318
G1 Y150.913
X190.158
Y124.088
X216.984
Y137.5
G3 X216.666 Y137.818 I-0.318 J0
G1 X216.348
G18 G3 X216.031 Z-2.083 I0 K0.318
G1 Y137.182
Z-3.283
G2 X216.348 Z-3.6 I0.317 K0
G1 X216.666
G17 G3 X216.984 Y137.5 I0 J0.318
G1 Y150.913
X190.158
Y124.088
X216.984
Y137.5
G3 X216.666 Y137.818 I-0.318 J0
G1 X216.348
G18 G3 X216.031 Z-3.283 I0 K0.317
G1 Y137.182
Z-4.483
G2 X216.348 Z-4.8 I0.317 K0
G1 X216.666
G17 G3 X216.984 Y137.5 I0 J0.318
G1 Y150.913
X190.158
Y124.088
X216.984
Y137.5
G3 X216.666 Y137.818 I-0.318 J0
G1 X216.348
G18 G3 X216.031 Z-4.483 I0 K0.318
G1 Y137.182
Z-5.683
G2 X216.348 Z-6 I0.317 K0
G1 X216.666
G17 G3 X216.984 Y137.5 I0 J0.318
G1 Y150.913
X190.158
Y124.088
X216.984
Y137.5
G3 X216.666 Y137.818 I-0.318 J0
G1 X216.348
G18 G3 X216.031 Z-5.683 I0 K0.318
G1 Y137.182
Z-6.883
G2 X216.348 Z-7.2 I0.317 K0
G1 X216.666
G17 G3 X216.984 Y137.5 I0 J0.318
G1 Y150.913
X190.158
Y124.088
X216.984
Y137.5
G3 X216.666 Y137.818 I-0.318 J0
G1 X216.348
G18 G3 X216.031 Z-6.883 I0 K0.317
G1 Y137.182
Z-8.083
G2 X216.348 Z-8.4 I0.317 K0
G1 X216.666
G17 G3 X216.984 Y137.5 I0 J0.318
G1 Y150.913
X190.158
Y124.088
X216.984
Y137.5
G3 X216.666 Y137.818 I-0.318 J0
G1 X216.348
G18 G3 X216.031 Z-8.083 I0 K0.317
G1 Y137.182
Z-9.283
G2 X216.348 Z-9.6 I0.317 K0
G1 X216.666
G17 G3 X216.984 Y137.5 I0 J0.318
G1 Y150.913
X190.158
Y124.088
X216.984
Y137.5
G3 X216.666 Y137.818 I-0.318 J0
G1 X216.348
G18 G3 X216.031 Z-9.283 I0 K0.318
G1 Y137.182
Z-9.683
G2 X216.348 Z-10 I0.317 K0
G1 X216.666
G17 G3 X216.984 Y137.5 I0 J0.318
G1 Y150.913
X190.158
Y124.088
X216.984
Y137.5
G3 X216.666 Y137.818 I-0.318 J0
G1 X216.348
G18 G3 X216.031 Z-9.683 I0 K0.318
G0 Z5
X180.317 Y137.182
G1 Z0.635 F3000
Z-0.883
G2 X180.635 Z-1.2 I0.318 K0
G1 X180.952
G17 G3 X181.27 Y137.5 I0 J0.318
G1 Y150.913
X154.445
Y124.088
X181.27
Y137.5
G3 X180.952 Y137.818 I-0.318 J0
G1 X180.635
G18 G3 X180.317 Z-0.883 I0 K0.318
G1 Y137.182
Z-2.083
G2 X180.635 Z-2.4 I0.318 K0
G1 X180.952
G17 G3 X181.27 Y137.5 I0 J0.318
G1 Y150.913
X154.445
Y124.088
X181.27
Y137.5
G3 X180.952 Y137.818 I-0.318 J0
G1 X180.635
G18 G3 X180.317 Z-2.083 I0 K0.318
G1 Y137.182
Z-3.283
G2 X180.635 Z-3.6 I0.318 K0
G1 X180.952
G17 G3 X181.27 Y137.5 I0 J0.318
G1 Y150.913
X154.445
Y124.088
X181.27
Y137.5
G3 X180.952 Y137.818 I-0.318 J0
G1 X180.635
G18 G3 X180.317 Z-3.283 I0 K0.317
G1 Y137.182
Z-4.483
G2 X180.635 Z-4.8 I0.318 K0
G1 X180.952
G17 G3 X181.27 Y137.5 I0 J0.318
G1 Y150.913
X154.445
Y124.088
X181.27
Y137.5
G3 X180.952 Y137.818 I-0.318 J0
G1 X180.635
G18 G3 X180.317 Z-4.483 I0 K0.318
G1 Y137.182
Z-5.683
G2 X180.635 Z-6 I0.318 K0
G1 X180.952
G17 G3 X181.27 Y137.5 I0 J0.318
G1 Y150.913
X154.445
Y124.088
X181.27
Y137.5
G3 X180.952 Y137.818 I-0.318 J0
G1 X180.635
G18 G3 X180.317 Z-5.683 I0 K0.318
G1 Y137.182
Z-6.883
G2 X180.635 Z-7.2 I0.318 K0
G1 X180.952
G17 G3 X181.27 Y137.5 I0 J0.318
G1 Y150.913
X154.445
Y124.088
X181.27
Y137.5
G3 X180.952 Y137.818 I-0.318 J0
G1 X180.635
G18 G3 X180.317 Z-6.883 I0 K0.317
G1 Y137.182
Z-8.083
G2 X180.635 Z-8.4 I0.318 K0
G1 X180.952
G17 G3 X181.27 Y137.5 I0 J0.318
G1 Y150.913
X154.445
Y124.088
X181.27
Y137.5
G3 X180.952 Y137.818 I-0.318 J0
G1 X180.635
G18 G3 X180.317 Z-8.083 I0 K0.317
G1 Y137.182
Z-9.283
G2 X180.635 Z-9.6 I0.318 K0
G1 X180.952
G17 G3 X181.27 Y137.5 I0 J0.318
G1 Y150.913
X154.445
Y124.088
X181.27
Y137.5
G3 X180.952 Y137.818 I-0.318 J0
G1 X180.635
G18 G3 X180.317 Z-9.283 I0 K0.318
G1 Y137.182
Z-9.683
G2 X180.635 Z-10 I0.318 K0
G1 X180.952
G17 G3 X181.27 Y137.5 I0 J0.318
G1 Y150.913
X154.445
Y124.088
X181.27
Y137.5
G3 X180.952 Y137.818 I-0.318 J0
G1 X180.635
G18 G3 X180.317 Z-9.683 I0 K0.318
G0 Z5
Y174.682
G1 Z0.635 F3000
Z-0.883
G2 X180.635 Z-1.2 I0.318 K0
G1 X180.952
G17 G3 X181.27 Y175 I0 J0.318
G1 Y188.413
X154.445
Y161.587
X181.27
Y175
G3 X180.952 Y175.318 I-0.318 J0
G1 X180.635
G18 G3 X180.317 Z-0.883 I0 K0.318
G1 Y174.682
Z-2.083
G2 X180.635 Z-2.4 I0.318 K0
G1 X180.952
G17 G3 X181.27 Y175 I0 J0.318
G1 Y188.413
X154.445
Y161.587
X181.27
Y175
G3 X180.952 Y175.318 I-0.318 J0
G1 X180.635
G18 G3 X180.317 Z-2.083 I0 K0.318
G1 Y174.682
Z-3.283
G2 X180.635 Z-3.6 I0.318 K0
G1 X180.952
G17 G3 X181.27 Y175 I0 J0.318
G1 Y188.413
X154.445
Y161.587
X181.27
Y175
G3 X180.952 Y175.318 I-0.318 J0
G1 X180.635
G18 G3 X180.317 Z-3.283 I0 K0.317
G1 Y174.682
Z-4.483
G2 X180.635 Z-4.8 I0.318 K0
G1 X180.952
G17 G3 X181.27 Y175 I0 J0.318
G1 Y188.413
X154.445
Y161.587
X181.27
Y175
G3 X180.952 Y175.318 I-0.318 J0
G1 X180.635
G18 G3 X180.317 Z-4.483 I0 K0.318
G1 Y174.682
Z-5.683
G2 X180.635 Z-6 I0.318 K0
G1 X180.952
G17 G3 X181.27 Y175 I0 J0.318
G1 Y188.413
X154.445
Y161.587
X181.27
Y175
G3 X180.952 Y175.318 I-0.318 J0
G1 X180.635
G18 G3 X180.317 Z-5.683 I0 K0.318
G1 Y174.682
Z-6.883
G2 X180.635 Z-7.2 I0.318 K0
G1 X180.952
G17 G3 X181.27 Y175 I0 J0.318
G1 Y188.413
X154.445
Y161.587
X181.27
Y175
G3 X180.952 Y175.318 I-0.318 J0
G1 X180.635
G18 G3 X180.317 Z-6.883 I0 K0.317
G1 Y174.682
Z-8.083
G2 X180.635 Z-8.4 I0.318 K0
G1 X180.952
G17 G3 X181.27 Y175 I0 J0.318
G1 Y188.413
X154.445
Y161.587
X181.27
Y175
G3 X180.952 Y175.318 I-0.318 J0
G1 X180.635
G18 G3 X180.317 Z-8.083 I0 K0.317
G1 Y174.682
Z-9.283
G2 X180.635 Z-9.6 I0.318 K0
G1 X180.952
G17 G3 X181.27 Y175 I0 J0.318
G1 Y188.413
X154.445
Y161.587
X181.27
Y175
G3 X180.952 Y175.318 I-0.318 J0
G1 X180.635
G18 G3 X180.317 Z-9.283 I0 K0.318
G1 Y174.682
Z-9.683
G2 X180.635 Z-10 I0.318 K0
G1 X180.952
G17 G3 X181.27 Y175 I0 J0.318
G1 Y188.413
X154.445
Y161.587
X181.27
Y175
G3 X180.952 Y175.318 I-0.318 J0
G1 X180.635
G18 G3 X180.317 Z-9.683 I0 K0.318
G0 Z5
X144.603 Y174.682
G1 Z0.635 F3000
Z-0.883
G2 X144.921 Z-1.2 I0.318 K0
G1 X145.238
G17 G3 X145.555 Y175 I0 J0.318
G1 Y188.413
X118.73
Y161.587
X145.555
Y175
G3 X145.238 Y175.318 I-0.317 J0
G1 X144.921
G18 G3 X144.603 Z-0.883 I0 K0.318
G1 Y174.682
Z-2.083
G2 X144.921 Z-2.4 I0.318 K0
G1 X145.238
G17 G3 X145.555 Y175 I0 J0.318
G1 Y188.413
X118.73
Y161.587
X145.555
Y175
G3 X145.238 Y175.318 I-0.317 J0
G1 X144.921
G18 G3 X144.603 Z-2.083 I0 K0.318
G1 Y174.682
Z-3.283
G2 X144.921 Z-3.6 I0.318 K0
G1 X145.238
G17 G3 X145.555 Y175 I0 J0.318
G1 Y188.413
X118.73
Y161.587
X145.555
Y175
G3 X145.238 Y175.318 I-0.317 J0
G1 X144.921
G18 G3 X144.603 Z-3.283 I0 K0.317
G1 Y174.682
Z-4.483
G2 X144.921 Z-4.8 I0.318 K0
G1 X145.238
G17 G3 X145.555 Y175 I0 J0.318
G1 Y188.413
X118.73
Y161.587
X145.555
Y175
G3 X145.238 Y175.318 I-0.317 J0
G1 X144.921
G18 G3 X144.603 Z-4.483 I0 K0.318
G1 Y174.682
Z-5.683
G2 X144.921 Z-6 I0.318 K0
G1 X145.238
G17 G3 X145.555 Y175 I0 J0.318
G1 Y188.413
X118.73
Y161.587
X145.555
Y175
G3 X145.238 Y175.318 I-0.317 J0
G1 X144.921
G18 G3 X144.603 Z-5.683 I0 K0.318
G1 Y174.682
Z-6.883
G2 X144.921 Z-7.2 I0.318 K0
G1 X145.238
G17 G3 X145.555 Y175 I0 J0.318
G1 Y188.413
X118.73
Y161.587
X145.555
Y175
G3 X145.238 Y175.318 I-0.317 J0
G1 X144.921
G18 G3 X144.603 Z-6.883 I0 K0.317
G1 Y174.682
Z-8.083
G2 X144.921 Z-8.4 I0.318 K0
G1 X145.238
G17 G3 X145.555 Y175 I0 J0.318
G1 Y188.413
X118.73
Y161.587
X145.555
Y175
G3 X145.238 Y175.318 I-0.317 J0
G1 X144.921
G18 G3 X144.603 Z-8.083 I0 K0.317
G1 Y174.682
Z-9.283
G2 X144.921 Z-9.6 I0.318 K0
G1 X145.238
G17 G3 X145.555 Y175 I0 J0.318
G1 Y188.413
X118.73
Y161.587
X145.555
Y175
G3 X145.238 Y175.318 I-0.317 J0
G1 X144.921
G18 G3 X144.603 Z-9.283 I0 K0.318
G1 Y174.682
Z-9.683
G2 X144.921 Z-10 I0.318 K0
G1 X145.238
G17 G3 X145.555 Y175 I0 J0.318
G1 Y188.413
X118.73
Y161.587
X145.555
Y175
G3 X145.238 Y175.318 I-0.317 J0
G1 X144.921
G18 G3 X144.603 Z-9.683 I0 K0.318
G0 Z5
Y137.182
G1 Z0.635 F3000
Z-0.883
G2 X144.921 Z-1.2 I0.318 K0
G1 X145.238
G17 G3 X145.555 Y137.5 I0 J0.318
G1 Y150.913
X118.73
Y124.088
X145.555
Y137.5
G3 X145.238 Y137.818 I-0.317 J0
G1 X144.921
G18 G3 X144.603 Z-0.883 I0 K0.318
G1 Y137.182
Z-2.083
G2 X144.921 Z-2.4 I0.318 K0
G1 X145.238
G17 G3 X145.555 Y137.5 I0 J0.318
G1 Y150.913
X118.73
Y124.088
X145.555
Y137.5
G3 X145.238 Y137.818 I-0.317 J0
G1 X144.921
G18 G3 X144.603 Z-2.083 I0 K0.318
G1 Y137.182
Z-3.283
G2 X144.921 Z-3.6 I0.318 K0
G1 X145.238
G17 G3 X145.555 Y137.5 I0 J0.318
G1 Y150.913
X118.73
Y124.088
X145.555
Y137.5
G3 X145.238 Y137.818 I-0.317 J0
G1 X144.921
G18 G3 X144.603 Z-3.283 I0 K0.317
G1 Y137.182
Z-4.483
G2 X144.921 Z-4.8 I0.318 K0
G1 X145.238
G17 G3 X145.555 Y137.5 I0 J0.318
G1 Y150.913
X118.73
Y124.088
X145.555
Y137.5
G3 X145.238 Y137.818 I-0.317 J0
G1 X144.921
G18 G3 X144.603 Z-4.483 I0 K0.318
G1 Y137.182
Z-5.683
G2 X144.921 Z-6 I0.318 K0
G1 X145.238
G17 G3 X145.555 Y137.5 I0 J0.318
G1 Y150.913
X118.73
Y124.088
X145.555
Y137.5
G3 X145.238 Y137.818 I-0.317 J0
G1 X144.921
G18 G3 X144.603 Z-5.683 I0 K0.318
G1 Y137.182
Z-6.883
G2 X144.921 Z-7.2 I0.318 K0
G1 X145.238
G17 G3 X145.555 Y137.5 I0 J0.318
G1 Y150.913
X118.73
Y124.088
X145.555
Y137.5
G3 X145.238 Y137.818 I-0.317 J0
G1 X144.921
G18 G3 X144.603 Z-6.883 I0 K0.317
G1 Y137.182
Z-8.083
G2 X144.921 Z-8.4 I0.318 K0
G1 X145.238
G17 G3 X145.555 Y137.5 I0 J0.318
G1 Y150.913
X118.73
Y124.088
X145.555
Y137.5
G3 X145.238 Y137.818 I-0.317 J0
G1 X144.921
G18 G3 X144.603 Z-8.083 I0 K0.317
G1 Y137.182
Z-9.283
G2 X144.921 Z-9.6 I0.318 K0
G1 X145.238
G17 G3 X145.555 Y137.5 I0 J0.318
G1 Y150.913
X118.73
Y124.088
X145.555
Y137.5
G3 X145.238 Y137.818 I-0.317 J0
G1 X144.921
G18 G3 X144.603 Z-9.283 I0 K0.318
G1 Y137.182
Z-9.683
G2 X144.921 Z-10 I0.318 K0
G1 X145.238
G17 G3 X145.555 Y137.5 I0 J0.318
G1 Y150.913
X118.73
Y124.088
X145.555
Y137.5
G3 X145.238 Y137.818 I-0.317 J0
G1 X144.921
G18 G3 X144.603 Z-9.683 I0 K0.318
G0 Z5
Y99.683
G1 Z0.635 F3000
Z-0.883
G2 X144.921 Z-1.2 I0.318 K0
G1 X145.238
G17 G3 X145.555 Y100 I0 J0.317
G1 Y113.412
X118.73
Y86.588
X145.555
Y100
G3 X145.238 Y100.317 I-0.317 J0
G1 X144.921
G18 G3 X144.603 Z-0.883 I0 K0.318
G1 Y99.683
Z-2.083
G2 X144.921 Z-2.4 I0.318 K0
G1 X145.238
G17 G3 X145.555 Y100 I0 J0.317
G1 Y113.412
X118.73
Y86.588
X145.555
Y100
G3 X145.238 Y100.317 I-0.317 J0
G1 X144.921
G18 G3 X144.603 Z-2.083 I0 K0.318
G1 Y99.683
Z-3.283
G2 X144.921 Z-3.6 I0.318 K0
G1 X145.238
G17 G3 X145.555 Y100 I0 J0.317
G1 Y113.412
X118.73
Y86.588
X145.555
Y100
G3 X145.238 Y100.317 I-0.317 J0
G1 X144.921
G18 G3 X144.603 Z-3.283 I0 K0.317
G1 Y99.683
Z-4.483
G2 X144.921 Z-4.8 I0.318 K0
G1 X145.238
G17 G3 X145.555 Y100 I0 J0.317
G1 Y113.412
X118.73
Y86.588
X145.555
Y100
G3 X145.238 Y100.317 I-0.317 J0
G1 X144.921
G18 G3 X144.603 Z-4.483 I0 K0.318
G1 Y99.683
Z-5.683
G2 X144.921 Z-6 I0.318 K0
G1 X145.238
G17 G3 X145.555 Y100 I0 J0.317
G1 Y113.412
X118.73
Y86.588
X145.555
Y100
G3 X145.238 Y100.317 I-0.317 J0
G1 X144.921
G18 G3 X144.603 Z-5.683 I0 K0.318
G1 Y99.683
Z-6.883
G2 X144.921 Z-7.2 I0.318 K0
G1 X145.238
G17 G3 X145.555 Y100 I0 J0.317
G1 Y113.412
X118.73
Y86.588
X145.555
Y100
G3 X145.238 Y100.317 I-0.317 J0
G1 X144.921
G18 G3 X144.603 Z-6.883 I0 K0.317
G1 Y99.683
Z-8.083
G2 X144.921 Z-8.4 I0.318 K0
G1 X145.238
G17 G3 X145.555 Y100 I0 J0.317
G1 Y113.412
X118.73
Y86.588
X145.555
Y100
G3 X145.238 Y100.317 I-0.317 J0
G1 X144.921
G18 G3 X144.603 Z-8.083 I0 K0.317
G1 Y99.683
Z-9.283
G2 X144.921 Z-9.6 I0.318 K0
G1 X145.238
G17 G3 X145.555 Y100 I0 J0.317
G1 Y113.412
X118.73
Y86.588
X145.555
Y100
G3 X145.238 Y100.317 I-0.317 J0
G1 X144.921
G18 G3 X144.603 Z-9.283 I0 K0.318
G1 Y99.683
Z-9.683
G2 X144.921 Z-10 I0.318 K0
G1 X145.238
G17 G3 X145.555 Y100 I0 J0.317
G1 Y113.412
X118.73
Y86.588
X145.555
Y100
G3 X145.238 Y100.317 I-0.317 J0
G1 X144.921
G18 G3 X144.603 Z-9.683 I0 K0.318
G0 Z5
Y62.182
G1 Z0.635 F3000
Z-0.883
G2 X144.921 Z-1.2 I0.318 K0
G1 X145.238
G17 G3 X145.555 Y62.5 I0 J0.318
G1 Y75.912
X118.73
Y49.088
X145.555
Y62.5
G3 X145.238 Y62.818 I-0.317 J0
G1 X144.921
G18 G3 X144.603 Z-0.883 I0 K0.318
G1 Y62.182
Z-2.083
G2 X144.921 Z-2.4 I0.318 K0
G1 X145.238
G17 G3 X145.555 Y62.5 I0 J0.318
G1 Y75.912
X118.73
Y49.088
X145.555
Y62.5
G3 X145.238 Y62.818 I-0.317 J0
G1 X144.921
G18 G3 X144.603 Z-2.083 I0 K0.318
G1 Y62.182
Z-3.283
G2 X144.921 Z-3.6 I0.318 K0
G1 X145.238
G17 G3 X145.555 Y62.5 I0 J0.318
G1 Y75.912
X118.73
Y49.088
X145.555
Y62.5
G3 X145.238 Y62.818 I-0.317 J0
G1 X144.921
G18 G3 X144.603 Z-3.283 I0 K0.317
G1 Y62.182
Z-4.483
G2 X144.921 Z-4.8 I0.318 K0
G1 X145.238
G17 G3 X145.555 Y62.5 I0 J0.318
G1 Y75.912
X118.73
Y49.088
X145.555
Y62.5
G3 X145.238 Y62.818 I-0.317 J0
G1 X144.921
G18 G3 X144.603 Z-4.483 I0 K0.318
G1 Y62.182
Z-5.683
G2 X144.921 Z-6 I0.318 K0
G1 X145.238
G17 G3 X145.555 Y62.5 I0 J0.318
G1 Y75.912
X118.73
Y49.088
X145.555
Y62.5
G3 X145.238 Y62.818 I-0.317 J0
G1 X144.921
G18 G3 X144.603 Z-5.683 I0 K0.318
G1 Y62.182
Z-6.883
G2 X144.921 Z-7.2 I0.318 K0
G1 X145.238
G17 G3 X145.555 Y62.5 I0 J0.318
G1 Y75.912
X118.73
Y49.088
X145.555
Y62.5
G3 X145.238 Y62.818 I-0.317 J0
G1 X144.921
G18 G3 X144.603 Z-6.883 I0 K0.317
G1 Y62.182
Z-8.083
G2 X144.921 Z-8.4 I0.318 K0
G1 X145.238
G17 G3 X145.555 Y62.5 I0 J0.318
G1 Y75.912
X118.73
Y49.088
X145.555
Y62.5
G3 X145.238 Y62.818 I-0.317 J0
G1 X144.921
G18 G3 X144.603 Z-8.083 I0 K0.317
G1 Y62.182
Z-9.283
G2 X144.921 Z-9.6 I0.318 K0
G1 X145.238
G17 G3 X145.555 Y62.5 I0 J0.318
G1 Y75.912
X118.73
Y49.088
X145.555
Y62.5
G3 X145.238 Y62.818 I-0.317 J0
G1 X144.921
G18 G3 X144.603 Z-9.283 I0 K0.318
G1 Y62.182
Z-9.683
G2 X144.921 Z-10 I0.318 K0
G1 X145.238
G17 G3 X145.555 Y62.5 I0 J0.318
G1 Y75.912
X118.73
Y49.088
X145.555
Y62.5
G3 X145.238 Y62.818 I-0.317 J0
G1 X144.921
G18 G3 X144.603 Z-9.683 I0 K0.318
G0 Z5
X180.317 Y62.182
G1 Z0.635 F3000
Z-0.883
G2 X180.635 Z-1.2 I0.318 K0
G1 X180.952
G17 G3 X181.27 Y62.5 I0 J0.318
G1 Y75.912
X154.445
Y49.088
X181.27
Y62.5
G3 X180.952 Y62.818 I-0.318 J0
G1 X180.635
G18 G3 X180.317 Z-0.883 I0 K0.318
G1 Y62.182
Z-2.083
G2 X180.635 Z-2.4 I0.318 K0
G1 X180.952
G17 G3 X181.27 Y62.5 I0 J0.318
G1 Y75.912
X154.445
Y49.088
X181.27
Y62.5
G3 X180.952 Y62.818 I-0.318 J0
G1 X180.635
G18 G3 X180.317 Z-2.083 I0 K0.318
G1 Y62.182
Z-3.283
G2 X180.635 Z-3.6 I0.318 K0
G1 X180.952
G17 G3 X181.27 Y62.5 I0 J0.318
G1 Y75.912
X154.445
Y49.088
X181.27
Y62.5
G3 X180.952 Y62.818 I-0.318 J0
G1 X180.635
G18 G3 X180.317 Z-3.283 I0 K0.317
G1 Y62.182
Z-4.483
G2 X180.635 Z-4.8 I0.318 K0
G1 X180.952
G17 G3 X181.27 Y62.5 I0 J0.318
G1 Y75.912
X154.445
Y49.088
X181.27
Y62.5
G3 X180.952 Y62.818 I-0.318 J0
G1 X180.635
G18 G3 X180.317 Z-4.483 I0 K0.318
G1 Y62.182
Z-5.683
G2 X180.635 Z-6 I0.318 K0
G1 X180.952
G17 G3 X181.27 Y62.5 I0 J0.318
G1 Y75.912
X154.445
Y49.088
X181.27
Y62.5
G3 X180.952 Y62.818 I-0.318 J0
G1 X180.635
G18 G3 X180.317 Z-5.683 I0 K0.318
G1 Y62.182
Z-6.883
G2 X180.635 Z-7.2 I0.318 K0
G1 X180.952
G17 G3 X181.27 Y62.5 I0 J0.318
G1 Y75.912
X154.445
Y49.088
X181.27
Y62.5
G3 X180.952 Y62.818 I-0.318 J0
G1 X180.635
G18 G3 X180.317 Z-6.883 I0 K0.317
G1 Y62.182
Z-8.083
G2 X180.635 Z-8.4 I0.318 K0
G1 X180.952
G17 G3 X181.27 Y62.5 I0 J0.318
G1 Y75.912
X154.445
Y49.088
X181.27
Y62.5
G3 X180.952 Y62.818 I-0.318 J0
G1 X180.635
G18 G3 X180.317 Z-8.083 I0 K0.317
G1 Y62.182
Z-9.283
G2 X180.635 Z-9.6 I0.318 K0
G1 X180.952
G17 G3 X181.27 Y62.5 I0 J0.318
G1 Y75.912
X154.445
Y49.088
X181.27
Y62.5
G3 X180.952 Y62.818 I-0.318 J0
G1 X180.635
G18 G3 X180.317 Z-9.283 I0 K0.318
G1 Y62.182
Z-9.683
G2 X180.635 Z-10 I0.318 K0
G1 X180.952
G17 G3 X181.27 Y62.5 I0 J0.318
G1 Y75.912
X154.445
Y49.088
X181.27
Y62.5
G3 X180.952 Y62.818 I-0.318 J0
G1 X180.635
G18 G3 X180.317 Z-9.683 I0 K0.318
G0 Z5
X216.031 Y62.182
G1 Z0.635 F3000
Z-0.883
G2 X216.348 Z-1.2 I0.317 K0
G1 X216.666
G17 G3 X216.984 Y62.5 I0 J0.318
G1 Y75.912
X190.158
Y49.088
X216.984
Y62.5
G3 X216.666 Y62.818 I-0.318 J0
G1 X216.348
G18 G3 X216.031 Z-0.883 I0 K0.318
G1 Y62.182
Z-2.083
G2 X216.348 Z-2.4 I0.317 K0
G1 X216.666
G17 G3 X216.984 Y62.5 I0 J0.318
G1 Y75.912
X190.158
Y49.088
X216.984
Y62.5
G3 X216.666 Y62.818 I-0.318 J0
G1 X216.348
G18 G3 X216.031 Z-2.083 I0 K0.318
G1 Y62.182
Z-3.283
G2 X216.348 Z-3.6 I0.317 K0
G1 X216.666
G17 G3 X216.984 Y62.5 I0 J0.318
G1 Y75.912
X190.158
Y49.088
X216.984
Y62.5
G3 X216.666 Y62.818 I-0.318 J0
G1 X216.348
G18 G3 X216.031 Z-3.283 I0 K0.317
G1 Y62.182
Z-4.483
G2 X216.348 Z-4.8 I0.317 K0
G1 X216.666
G17 G3 X216.984 Y62.5 I0 J0.318
G1 Y75.912
X190.158
Y49.088
X216.984
Y62.5
G3 X216.666 Y62.818 I-0.318 J0
G1 X216.348
G18 G3 X216.031 Z-4.483 I0 K0.318
G1 Y62.182
Z-5.683
G2 X216.348 Z-6 I0.317 K0
G1 X216.666
G17 G3 X216.984 Y62.5 I0 J0.318
G1 Y75.912
X190.158
Y49.088
X216.984
Y62.5
G3 X216.666 Y62.818 I-0.318 J0
G1 X216.348
G18 G3 X216.031 Z-5.683 I0 K0.318
G1 Y62.182
Z-6.883
G2 X216.348 Z-7.2 I0.317 K0
G1 X216.666
G17 G3 X216.984 Y62.5 I0 J0.318
G1 Y75.912
X190.158
Y49.088
X216.984
Y62.5
G3 X216.666 Y62.818 I-0.318 J0
G1 X216.348
G18 G3 X216.031 Z-6.883 I0 K0.317
G1 Y62.182
Z-8.083
G2 X216.348 Z-8.4 I0.317 K0
G1 X216.666
G17 G3 X216.984 Y62.5 I0 J0.318
G1 Y75.912
X190.158
Y49.088
X216.984
Y62.5
G3 X216.666 Y62.818 I-0.318 J0
G1 X216.348
G18 G3 X216.031 Z-8.083 I0 K0.317
G1 Y62.182
Z-9.283
G2 X216.348 Z-9.6 I0.317 K0
G1 X216.666
G17 G3 X216.984 Y62.5 I0 J0.318
G1 Y75.912
X190.158
Y49.088
X216.984
Y62.5
G3 X216.666 Y62.818 I-0.318 J0
G1 X216.348
G18 G3 X216.031 Z-9.283 I0 K0.318
G1 Y62.182
Z-9.683
G2 X216.348 Z-10 I0.317 K0
G1 X216.666
G17 G3 X216.984 Y62.5 I0 J0.318
G1 Y75.912
X190.158
Y49.088
X216.984
Y62.5
G3 X216.666 Y62.818 I-0.318 J0
G1 X216.348
G18 G3 X216.031 Z-9.683 I0 K0.318
G0 Z5
X251.746 Y62.182
G1 Z0.635 F3000
Z-0.883
G2 X252.064 Z-1.2 I0.318 K0
G1 X252.381
G17 G3 X252.699 Y62.5 I0 J0.318
G1 Y75.912
X225.874
Y49.088
X252.699
Y62.5
G3 X252.381 Y62.818 I-0.318 J0
G1 X252.064
G18 G3 X251.746 Z-0.883 I0 K0.318
G1 Y62.182
Z-2.083
G2 X252.064 Z-2.4 I0.318 K0
G1 X252.381
G17 G3 X252.699 Y62.5 I0 J0.318
G1 Y75.912
X225.874
Y49.088
X252.699
Y62.5
G3 X252.381 Y62.818 I-0.318 J0
G1 X252.064
G18 G3 X251.746 Z-2.083 I0 K0.318
G1 Y62.182
Z-3.283
G2 X252.064 Z-3.6 I0.318 K0
G1 X252.381
G17 G3 X252.699 Y62.5 I0 J0.318
G1 Y75.912
X225.874
Y49.088
X252.699
Y62.5
G3 X252.381 Y62.818 I-0.318 J0
G1 X252.064
G18 G3 X251.746 Z-3.283 I0 K0.317
G1 Y62.182
Z-4.483
G2 X252.064 Z-4.8 I0.318 K0
G1 X252.381
G17 G3 X252.699 Y62.5 I0 J0.318
G1 Y75.912
X225.874
Y49.088
X252.699
Y62.5
G3 X252.381 Y62.818 I-0.318 J0
G1 X252.064
G18 G3 X251.746 Z-4.483 I0 K0.318
G1 Y62.182
Z-5.683
G2 X252.064 Z-6 I0.318 K0
G1 X252.381
G17 G3 X252.699 Y62.5 I0 J0.318
G1 Y75.912
X225.874
Y49.088
X252.699
Y62.5
G3 X252.381 Y62.818 I-0.318 J0
G1 X252.064
G18 G3 X251.746 Z-5.683 I0 K0.318
G1 Y62.182
Z-6.883
G2 X252.064 Z-7.2 I0.318 K0
G1 X252.381
G17 G3 X252.699 Y62.5 I0 J0.318
G1 Y75.912
X225.874
Y49.088
X252.699
Y62.5
G3 X252.381 Y62.818 I-0.318 J0
G1 X252.064
G18 G3 X251.746 Z-6.883 I0 K0.317
G1 Y62.182
Z-8.083
G2 X252.064 Z-8.4 I0.318 K0
G1 X252.381
G17 G3 X252.699 Y62.5 I0 J0.318
G1 Y75.912
X225.874
Y49.088
X252.699
Y62.5
G3 X252.381 Y62.818 I-0.318 J0
G1 X252.064
G18 G3 X251.746 Z-8.083 I0 K0.317
G1 Y62.182
Z-9.283
G2 X252.064 Z-9.6 I0.318 K0
G1 X252.381
G17 G3 X252.699 Y62.5 I0 J0.318
G1 Y75.912
X225.874
Y49.088
X252.699
Y62.5
G3 X252.381 Y62.818 I-0.318 J0
G1 X252.064
G18 G3 X251.746 Z-9.283 I0 K0.318
G1 Y62.182
Z-9.683
G2 X252.064 Z-10 I0.318 K0
G1 X252.381
G17 G3 X252.699 Y62.5 I0 J0.318
G1 Y75.912
X225.874
Y49.088
X252.699
Y62.5
G3 X252.381 Y62.818 I-0.318 J0
G1 X252.064
G18 G3 X251.746 Z-9.683 I0 K0.318
G0 Z5
X287.46 Y62.182
G1 Z0.635 F3000
Z-0.883
G2 X287.777 Z-1.2 I0.318 K0
G1 X288.095
G17 G3 X288.413 Y62.5 I0 J0.318
G1 Y75.912
X261.587
Y49.088
X288.413
Y62.5
G3 X288.095 Y62.818 I-0.318 J0
G1 X287.777
G18 G3 X287.46 Z-0.883 I0 K0.318
G1 Y62.182
Z-2.083
G2 X287.777 Z-2.4 I0.318 K0
G1 X288.095
G17 G3 X288.413 Y62.5 I0 J0.318
G1 Y75.912
X261.587
Y49.088
X288.413
Y62.5
G3 X288.095 Y62.818 I-0.318 J0
G1 X287.777
G18 G3 X287.46 Z-2.083 I0 K0.318
G1 Y62.182
Z-3.283
G2 X287.777 Z-3.6 I0.318 K0
G1 X288.095
G17 G3 X288.413 Y62.5 I0 J0.318
G1 Y75.912
X261.587
Y49.088
X288.413
Y62.5
G3 X288.095 Y62.818 I-0.318 J0
G1 X287.777
G18 G3 X287.46 Z-3.283 I0 K0.317
G1 Y62.182
Z-4.483
G2 X287.777 Z-4.8 I0.318 K0
G1 X288.095
G17 G3 X288.413 Y62.5 I0 J0.318
G1 Y75.912
X261.587
Y49.088
X288.413
Y62.5
G3 X288.095 Y62.818 I-0.318 J0
G1 X287.777
G18 G3 X287.46 Z-4.483 I0 K0.318
G1 Y62.182
Z-5.683
G2 X287.777 Z-6 I0.318 K0
G1 X288.095
G17 G3 X288.413 Y62.5 I0 J0.318
G1 Y75.912
X261.587
Y49.088
X288.413
Y62.5
G3 X288.095 Y62.818 I-0.318 J0
G1 X287.777
G18 G3 X287.46 Z-5.683 I0 K0.318
G1 Y62.182
Z-6.883
G2 X287.777 Z-7.2 I0.318 K0
G1 X288.095
G17 G3 X288.413 Y62.5 I0 J0.318
G1 Y75.912
X261.587
Y49.088
X288.413
Y62.5
G3 X288.095 Y62.818 I-0.318 J0
G1 X287.777
G18 G3 X287.46 Z-6.883 I0 K0.317
G1 Y62.182
Z-8.083
G2 X287.777 Z-8.4 I0.318 K0
G1 X288.095
G17 G3 X288.413 Y62.5 I0 J0.318
G1 Y75.912
X261.587
Y49.088
X288.413
Y62.5
G3 X288.095 Y62.818 I-0.318 J0
G1 X287.777
G18 G3 X287.46 Z-8.083 I0 K0.317
G1 Y62.182
Z-9.283
G2 X287.777 Z-9.6 I0.318 K0
G1 X288.095
G17 G3 X288.413 Y62.5 I0 J0.318
G1 Y75.912
X261.587
Y49.088
X288.413
Y62.5
G3 X288.095 Y62.818 I-0.318 J0
G1 X287.777
G18 G3 X287.46 Z-9.283 I0 K0.318
G1 Y62.182
Z-9.683
G2 X287.777 Z-10 I0.318 K0
G1 X288.095
G17 G3 X288.413 Y62.5 I0 J0.318
G1 Y75.912
X261.587
Y49.088
X288.413
Y62.5
G3 X288.095 Y62.818 I-0.318 J0
G1 X287.777
G18 G3 X287.46 Z-9.683 I0 K0.318
G0 Z5
Y24.683
G1 Z0.635 F3000
Z-0.883
G2 X287.777 Z-1.2 I0.318 K0
G1 X288.095
G17 G3 X288.413 Y25 I0 J0.317
G1 Y38.412
X261.587
Y11.587
X288.413
Y25
G3 X288.095 Y25.317 I-0.318 J0
G1 X287.777
G18 G3 X287.46 Z-0.883 I0 K0.318
G1 Y24.683
Z-2.083
G2 X287.777 Z-2.4 I0.318 K0
G1 X288.095
G17 G3 X288.413 Y25 I0 J0.317
G1 Y38.412
X261.587
Y11.587
X288.413
Y25
G3 X288.095 Y25.317 I-0.318 J0
G1 X287.777
G18 G3 X287.46 Z-2.083 I0 K0.318
G1 Y24.683
Z-3.283
G2 X287.777 Z-3.6 I0.318 K0
G1 X288.095
G17 G3 X288.413 Y25 I0 J0.317
G1 Y38.412
X261.587
Y11.587
X288.413
Y25
G3 X288.095 Y25.317 I-0.318 J0
G1 X287.777
G18 G3 X287.46 Z-3.283 I0 K0.317
G1 Y24.683
Z-4.483
G2 X287.777 Z-4.8 I0.318 K0
G1 X288.095
G17 G3 X288.413 Y25 I0 J0.317
G1 Y38.412
X261.587
Y11.587
X288.413
Y25
G3 X288.095 Y25.317 I-0.318 J0
G1 X287.777
G18 G3 X287.46 Z-4.483 I0 K0.318
G1 Y24.683
Z-5.683
G2 X287.777 Z-6 I0.318 K0
G1 X288.095
G17 G3 X288.413 Y25 I0 J0.317
G1 Y38.412
X261.587
Y11.587
X288.413
Y25
G3 X288.095 Y25.317 I-0.318 J0
G1 X287.777
G18 G3 X287.46 Z-5.683 I0 K0.318
G1 Y24.683
Z-6.883
G2 X287.777 Z-7.2 I0.318 K0
G1 X288.095
G17 G3 X288.413 Y25 I0 J0.317
G1 Y38.412
X261.587
Y11.587
X288.413
Y25
G3 X288.095 Y25.317 I-0.318 J0
G1 X287.777
G18 G3 X287.46 Z-6.883 I0 K0.317
G1 Y24.683
Z-8.083
G2 X287.777 Z-8.4 I0.318 K0
G1 X288.095
G17 G3 X288.413 Y25 I0 J0.317
G1 Y38.412
X261.587
Y11.587
X288.413
Y25
G3 X288.095 Y25.317 I-0.318 J0
G1 X287.777
G18 G3 X287.46 Z-8.083 I0 K0.317
G1 Y24.683
Z-9.283
G2 X287.777 Z-9.6 I0.318 K0
G1 X288.095
G17 G3 X288.413 Y25 I0 J0.317
G1 Y38.412
X261.587
Y11.587
X288.413
Y25
G3 X288.095 Y25.317 I-0.318 J0
G1 X287.777
G18 G3 X287.46 Z-9.283 I0 K0.318
G1 Y24.683
Z-9.683
G2 X287.777 Z-10 I0.318 K0
G1 X288.095
G17 G3 X288.413 Y25 I0 J0.317
G1 Y38.412
X261.587
Y11.587
X288.413
Y25
G3 X288.095 Y25.317 I-0.318 J0
G1 X287.777
G18 G3 X287.46 Z-9.683 I0 K0.318
G0 Z5
X251.746 Y24.683
G1 Z0.635 F3000
Z-0.883
G2 X252.064 Z-1.2 I0.318 K0
G1 X252.381
G17 G3 X252.699 Y25 I0 J0.317
G1 Y38.412
X225.874
Y11.587
X252.699
Y25
G3 X252.381 Y25.317 I-0.318 J0
G1 X252.064
G18 G3 X251.746 Z-0.883 I0 K0.318
G1 Y24.683
Z-2.083
G2 X252.064 Z-2.4 I0.318 K0
G1 X252.381
G17 G3 X252.699 Y25 I0 J0.317
G1 Y38.412
X225.874
Y11.587
X252.699
Y25
G3 X252.381 Y25.317 I-0.318 J0
G1 X252.064
G18 G3 X251.746 Z-2.083 I0 K0.318
G1 Y24.683
Z-3.283
G2 X252.064 Z-3.6 I0.318 K0
G1 X252.381
G17 G3 X252.699 Y25 I0 J0.317
G1 Y38.412
X225.874
Y11.587
